; generated by Slic3r 1.1.7 on 2014-10-30 at 01:16:46

; perimeters extrusion width = 0.40mm
; infill extrusion width = 0.42mm
; solid infill extrusion width = 0.42mm
; top infill extrusion width = 0.42mm
; support material extrusion width = 0.40mm

G21 ; set units to millimeters
M107
M104 S185 ; set temperature
G28
G29
G1 Z5 F5000 ; lift nozzle

M109 S185 ; wait for temperature to be reached
G90 ; use absolute coordinates
G92 E0
M82 ; use absolute distances for extrusion
M204 S900
G1 F1800.000 E-1.00000
G92 E0
G1 Z0.350 F7800.000
G1 X129.958 Y148.559 F7800.000
G1 E1.00000 F1800.000
G1 X157.183 Y125.674 E4.28955 F1080.000
G1 X158.046 Y125.038 E4.38873
G1 X158.965 Y124.486 E4.48789
G1 X159.934 Y124.024 E4.58714
G1 X160.941 Y123.656 E4.68625
G1 X161.979 Y123.386 E4.78548
G1 X163.037 Y123.215 E4.88467
G1 X164.107 Y123.146 E4.98383
G1 X165.179 Y123.179 E5.08299
G1 X166.243 Y123.314 E5.18218 F1080.000
G1 X167.290 Y123.549 E5.28139
G1 X167.620 Y123.646 E5.31328
G1 X168.308 Y123.882 E5.38054
G1 X169.291 Y124.311 E5.47978
G1 X170.229 Y124.832 E5.57894
G1 X171.113 Y125.439 E5.67813
G1 X171.383 Y125.652 E5.70998
G1 X171.935 Y126.127 E5.77732
G1 X172.688 Y126.891 E5.87650
G1 X173.365 Y127.722 E5.97568
G1 X173.960 Y128.615 E6.07486
G1 X174.467 Y129.559 E6.17406
G1 X174.883 Y130.548 E6.27323
G1 X175.202 Y131.571 E6.37240
G1 X175.423 Y132.621 E6.47159
G1 X175.543 Y133.687 E6.57078
G1 X175.559 Y134.030 E6.60257
G1 X175.561 Y139.896 E7.14512
G1 X175.544 Y140.239 E7.17691
G1 X175.477 Y140.965 E7.24432
G1 X175.292 Y142.021 E7.34351
G1 X175.007 Y143.055 E7.44267
G1 X174.625 Y144.057 E7.54186
G1 X174.150 Y145.018 E7.64104
G1 X173.586 Y145.930 E7.74022
G1 X173.056 Y146.644 E7.82241
G1 X152.586 Y171.488 E10.79983
G1 X152.130 Y171.974 E10.86145
G1 X151.642 Y172.456 E10.92485
G1 X150.621 Y173.341 E11.04984
G1 X149.529 Y174.138 E11.17486
G1 X148.375 Y174.840 E11.29985
G1 X147.165 Y175.444 E11.42484
G1 X146.551 Y175.702 E11.48647
G1 X145.910 Y175.944 E11.54989
G1 X144.617 Y176.337 E11.67487
G1 X143.295 Y176.621 E11.79986
G1 X141.955 Y176.793 E11.92488
G1 X140.605 Y176.852 E12.04987
G1 X139.939 Y176.838 E12.11147
G1 X139.254 Y176.798 E12.17490
G1 X137.913 Y176.632 E12.29988
G1 X136.591 Y176.354 E12.42489
G1 X135.949 Y176.175 E12.48650
G1 X135.296 Y175.966 E12.54991
G1 X134.039 Y175.471 E12.67490
G1 X133.435 Y175.187 E12.73656
G1 X132.827 Y174.872 E12.79993
G1 X132.250 Y174.539 E12.86154
G1 X131.669 Y174.175 E12.92496
G1 X130.574 Y173.383 E13.04995
G1 X130.061 Y172.958 E13.11162
G1 X129.549 Y172.502 E13.17498
G1 X129.073 Y172.036 E13.23658
G1 X128.602 Y171.538 E13.30000
G1 X127.738 Y170.499 E13.42497
G1 X126.965 Y169.390 E13.54999
G1 X126.619 Y168.821 E13.61160
G1 X126.286 Y168.221 E13.67501
G1 X125.708 Y167.000 E13.80002
G1 X125.235 Y165.734 E13.92501
G1 X125.042 Y165.096 E13.98661
G1 X124.869 Y164.433 E14.05004
G1 X124.613 Y163.106 E14.17504
G1 X124.529 Y162.445 E14.23669
G1 X124.469 Y161.762 E14.30004
G1 X124.437 Y160.411 E14.42507
G1 X124.519 Y159.062 E14.55004
G1 X124.714 Y157.725 E14.67504
G1 X124.853 Y157.073 E14.73669
G1 X125.020 Y156.408 E14.80007
G1 X125.213 Y155.771 E14.86168
G1 X125.435 Y155.122 E14.92508
G1 X125.680 Y154.502 E14.98674
G1 X125.956 Y153.875 E15.05011
G1 X126.253 Y153.278 E15.11178
G1 X126.580 Y152.676 E15.17513
G1 X127.302 Y151.533 E15.30015
G1 X127.693 Y150.994 E15.36180
G1 X128.116 Y150.455 E15.42515
G1 X128.552 Y149.951 E15.48676
G1 X129.019 Y149.449 E15.55017
G1 X129.914 Y148.600 E15.66430
G1 X130.367 Y149.045 F7800.000
G1 X157.576 Y126.174 E18.95193 F1080.000
G1 X158.390 Y125.572 E19.04551
G1 X159.257 Y125.051 E19.13908
G1 X160.170 Y124.614 E19.23273
G1 X161.120 Y124.266 E19.32625
G1 X162.099 Y124.010 E19.41989
G1 X163.098 Y123.848 E19.51348
G1 X164.107 Y123.782 E19.60705
G1 X165.119 Y123.812 E19.70062
G1 X166.123 Y123.938 E19.79421 F1080.000
G1 X167.110 Y124.159 E19.88783
G1 X167.441 Y124.256 E19.91971
G1 X168.072 Y124.472 E19.98139
G1 X169.000 Y124.876 E20.07503
G1 X169.885 Y125.366 E20.16859
G1 X170.720 Y125.939 E20.26219
G1 X170.990 Y126.151 E20.29403
G1 X171.496 Y126.587 E20.35579
G1 X172.207 Y127.307 E20.44938
G1 X172.847 Y128.091 E20.54296
G1 X173.409 Y128.932 E20.63655
G1 X173.889 Y129.823 E20.73015
G1 X174.282 Y130.756 E20.82373
G1 X174.584 Y131.721 E20.91731
G1 X174.794 Y132.711 E21.01090
G1 X174.908 Y133.717 E21.10450
G1 X174.924 Y134.060 E21.13629
G1 X174.926 Y139.866 E21.67324
G1 X174.909 Y140.209 E21.70503
G1 X174.848 Y140.874 E21.76685
G1 X174.674 Y141.871 E21.86044
G1 X174.406 Y142.847 E21.95401
G1 X174.047 Y143.793 E22.04760
G1 X173.600 Y144.701 E22.14119
G1 X173.068 Y145.561 E22.23478
G1 X172.565 Y146.240 E22.31286
G1 X152.122 Y171.053 E25.28645
G1 X151.217 Y171.983 E25.40653
G1 X150.237 Y172.835 E25.52659
G1 X149.189 Y173.601 E25.64668
G1 X148.080 Y174.277 E25.76675
G1 X146.919 Y174.858 E25.88683
G1 X146.305 Y175.116 E25.94845
G1 X145.713 Y175.339 E26.00694
G1 X144.472 Y175.718 E26.12701
G1 X143.203 Y175.992 E26.24708
G1 X141.915 Y176.159 E26.36717
G1 X140.618 Y176.217 E26.48724
G1 X139.321 Y176.166 E26.60732
G1 X138.032 Y176.008 E26.72739
G1 X136.762 Y175.741 E26.84747
G1 X135.518 Y175.370 E26.96755
G1 X134.309 Y174.896 E27.08762
G1 X133.145 Y174.322 E27.20770
G1 X132.568 Y173.989 E27.26931
G1 X132.032 Y173.653 E27.32781
G1 X130.979 Y172.893 E27.44788
G1 X129.994 Y172.047 E27.56796
G1 X129.083 Y171.123 E27.68804
G1 X128.252 Y170.125 E27.80809
G1 X127.508 Y169.061 E27.92819
G1 X126.856 Y167.939 E28.04826
G1 X126.299 Y166.766 E28.16834
G1 X125.843 Y165.550 E28.28842
G1 X125.651 Y164.913 E28.35002
G1 X125.490 Y164.301 E28.40852
G1 X125.243 Y163.026 E28.52859
G1 X125.104 Y161.736 E28.64866
G1 X125.072 Y160.438 E28.76876
G1 X125.150 Y159.142 E28.88881
G1 X125.336 Y157.857 E29.00889
G1 X125.628 Y156.592 E29.12897
G1 X126.026 Y155.356 E29.24904
G1 X126.525 Y154.158 E29.36912
G1 X126.822 Y153.561 E29.43079
G1 X127.123 Y153.005 E29.48922
G1 X127.816 Y151.907 E29.60931
G1 X128.208 Y151.368 E29.67096
G1 X128.598 Y150.871 E29.72939
G1 X129.033 Y150.366 E29.79101
G1 X129.463 Y149.903 E29.84949
G1 X130.323 Y149.087 E29.95916
G1 F1800.000 E28.95916
G92 E0
G1 X160.153 Y140.759 F7800.000
G1 E1.00000 F1800.000
G1 X160.057 Y140.360 E1.03801 F1080.000
G1 X160.000 Y139.968 E1.07461
G1 X159.980 Y139.561 E1.11226
G1 X159.980 Y134.409 E1.58880
G1 X160.000 Y133.995 E1.62715
G1 X160.059 Y133.588 E1.66516
G1 X160.157 Y133.189 E1.70316
G1 X160.292 Y132.801 E1.74117
G1 X160.456 Y132.441 E1.77777
G1 X160.661 Y132.085 E1.81577
G1 X160.899 Y131.750 E1.85379
G1 X161.138 Y131.472 E1.88766
G1 X161.476 Y131.145 E1.93117
G1 X161.799 Y130.891 E1.96918
G1 X162.132 Y130.677 E2.00579
G1 X162.511 Y130.482 E2.04519
G1 X162.893 Y130.330 E2.08319
G1 X163.287 Y130.215 E2.12119
G1 X163.691 Y130.138 E2.15920
G1 X164.085 Y130.100 E2.19580
G1 X164.511 Y130.100 E2.23521
G1 X164.920 Y130.140 E2.27321 F1080.000
G1 X165.308 Y130.215 E2.30982
G1 X165.717 Y130.335 E2.34922
G1 X166.085 Y130.482 E2.38583
G1 X166.450 Y130.670 E2.42383
G1 X166.796 Y130.891 E2.46183
G1 X167.085 Y131.117 E2.49572
G1 X167.428 Y131.439 E2.53923
G1 X167.696 Y131.750 E2.57723
G1 X167.926 Y132.072 E2.61383
G1 X168.139 Y132.441 E2.65324
G1 X168.309 Y132.815 E2.69124
G1 X168.439 Y133.189 E2.72786
G1 X168.539 Y133.603 E2.76725
G1 X168.595 Y133.995 E2.80386
G1 X168.615 Y134.401 E2.84152
G1 X168.616 Y139.554 E3.31805
G1 X168.595 Y139.968 E3.35640
G1 X168.536 Y140.374 E3.39441
G1 X168.439 Y140.774 E3.43241
G1 X168.303 Y141.162 E3.47041
G1 X168.139 Y141.522 E3.50702
G1 X167.934 Y141.878 E3.54503
G1 X167.687 Y142.225 E3.58443
G1 X167.417 Y142.535 E3.62243
G1 X167.120 Y142.818 E3.66044
G1 X166.796 Y143.071 E3.69844
G1 X166.463 Y143.285 E3.73505
G1 X166.085 Y143.481 E3.77445
G1 X165.703 Y143.633 E3.81245
G1 X165.323 Y143.744 E3.84906
G1 X164.905 Y143.825 E3.88846
G1 X164.511 Y143.862 E3.92507
G1 X164.100 Y143.863 E3.96307
G1 X163.676 Y143.823 E4.00248
G1 X163.287 Y143.748 E4.03909
G1 X162.893 Y143.633 E4.07709
G1 X162.497 Y143.474 E4.11649
G1 X162.132 Y143.285 E4.15450
G1 X161.787 Y143.063 E4.19250
G1 X161.476 Y142.818 E4.22911
G1 X161.178 Y142.535 E4.26711
G1 X160.899 Y142.213 E4.30651
G1 X160.661 Y141.878 E4.34452
G1 X160.463 Y141.535 E4.38113
G1 X160.292 Y141.162 E4.41913
G1 X160.172 Y140.816 E4.45298
G1 F1800.000 E3.45298
G92 E0
G1 X147.004 Y154.156 F7800.000
G1 E1.00000 F1800.000
G1 X147.530 Y154.718 E1.07116 F1080.000
G1 X148.008 Y155.321 E1.14233
G1 X148.433 Y155.962 E1.21349
G1 X148.803 Y156.637 E1.28465
G1 X149.115 Y157.340 E1.35582
G1 X149.368 Y158.067 E1.42698
G1 X149.559 Y158.812 E1.49815
G1 X149.685 Y159.558 E1.56808
G1 X149.743 Y160.241 E1.63152
G1 X149.750 Y161.094 E1.71038
G1 X149.687 Y161.860 E1.78155
G1 X149.559 Y162.619 E1.85271
G1 X149.368 Y163.364 E1.92387
G1 X149.115 Y164.091 E1.99503
G1 X148.803 Y164.794 E2.06620
G1 X148.433 Y165.469 E2.13737
G1 X148.008 Y166.110 E2.20853
G1 X147.530 Y166.713 E2.27969
G1 X147.004 Y167.275 E2.35085
G1 X146.432 Y167.790 E2.42202
G1 X145.820 Y168.256 E2.49318
G1 X145.170 Y168.668 E2.56434
G1 X144.489 Y169.025 E2.63551
G1 X143.780 Y169.324 E2.70667
G1 X143.048 Y169.562 E2.77784
G1 X142.299 Y169.738 E2.84900
G1 X141.538 Y169.851 E2.92016
G1 X140.757 Y169.901 E2.99256
G1 X139.988 Y169.884 E3.06372
G1 X139.223 Y169.803 E3.13488
G1 X138.467 Y169.658 E3.20605
G1 X137.726 Y169.451 E3.27721
G1 X137.005 Y169.182 E3.34837
G1 X136.309 Y168.854 E3.41954
G1 X135.643 Y168.469 E3.49070
G1 X135.012 Y168.029 E3.56187
G1 X134.419 Y167.538 E3.63303
G1 X133.870 Y167.000 E3.70419
G1 X133.376 Y166.427 E3.77412
G1 X132.923 Y165.805 E3.84529
G1 X132.524 Y165.147 E3.91645
G1 X132.181 Y164.458 E3.98761
G1 X131.898 Y163.743 E4.05878
G1 X131.675 Y163.007 E4.12994
G1 X131.514 Y162.254 E4.20111
G1 X131.417 Y161.491 E4.27227
G1 X131.384 Y160.722 E4.34343
G1 X131.416 Y159.953 E4.41460
G1 X131.512 Y159.190 E4.48576
G1 X131.671 Y158.437 E4.55693
G1 X131.893 Y157.701 E4.62809
G1 X132.176 Y156.985 E4.69925
G1 X132.518 Y156.296 E4.77042
G1 X132.923 Y155.626 E4.84281
G1 X133.376 Y155.004 E4.91397
G1 X133.879 Y154.422 E4.98514
G1 X134.429 Y153.884 E5.05630
G1 X135.022 Y153.394 E5.12746
G1 X135.654 Y152.955 E5.19863
G1 X136.321 Y152.571 E5.26979
G1 X137.017 Y152.244 E5.34096
G1 X137.739 Y151.976 E5.41212
G1 X138.480 Y151.770 E5.48328
G1 X139.236 Y151.626 E5.55445
G1 X140.001 Y151.546 E5.62561
G1 X140.770 Y151.531 E5.69677
G1 X141.538 Y151.580 E5.76794 F1080.000
G1 X142.299 Y151.693 E5.83910
G1 X143.048 Y151.869 E5.91026
G1 X143.780 Y152.107 E5.98143
G1 X144.489 Y152.406 E6.05259
G1 X145.170 Y152.763 E6.12375
G1 X145.820 Y153.176 E6.19492
G1 X146.422 Y153.633 E6.26485
G1 X146.960 Y154.116 E6.33170
G1 F1800.000 E5.33170
G92 E0
G1 X146.532 Y166.802 F7800.000
G1 E1.00000 F1800.000
G1 X146.001 Y167.279 E1.06599 F378.000
G1 X145.433 Y167.711 E1.13198
G1 X144.831 Y168.093 E1.19797
G1 X144.198 Y168.424 E1.26395
G1 X143.598 Y168.676 E1.32420
G1 X142.862 Y168.920 E1.39591
G1 X142.168 Y169.083 E1.46190
G1 X141.462 Y169.188 E1.52789
G1 X140.750 Y169.232 E1.59388
G1 X140.036 Y169.217 E1.65986
G1 X139.327 Y169.143 E1.72585
G1 X138.626 Y169.009 E1.79184
G1 X137.939 Y168.817 E1.85783
G1 X137.270 Y168.569 E1.92382
G1 X136.625 Y168.265 E1.98980
G1 X136.007 Y167.908 E2.05579
G1 X135.421 Y167.501 E2.12178
G1 X134.871 Y167.046 E2.18777
G1 X134.361 Y166.547 E2.25376
G1 X133.895 Y166.007 E2.31975
G1 X133.476 Y165.430 E2.38574
G1 X133.106 Y164.819 E2.45172
G1 X132.789 Y164.180 E2.51771
G1 X132.526 Y163.517 E2.58370
G1 X132.320 Y162.834 E2.64969
G1 X132.172 Y162.136 E2.71568
G1 X132.082 Y161.428 E2.78166
G1 X132.053 Y160.716 E2.84765
G1 X132.082 Y160.003 E2.91364
G1 X132.172 Y159.295 E2.97963
G1 X132.320 Y158.597 E3.04561
G1 X132.526 Y157.914 E3.11160
G1 X132.789 Y157.251 E3.17759
G1 X133.106 Y156.612 E3.24358
G1 X133.476 Y156.001 E3.30957
G1 X133.895 Y155.424 E3.37556
G1 X134.361 Y154.884 E3.44154
G1 X134.871 Y154.385 E3.50753
G1 X135.421 Y153.930 E3.57352
G1 X136.007 Y153.523 E3.63951
G1 X136.571 Y153.197 E3.69975
G1 X137.270 Y152.862 E3.77147
G1 X137.939 Y152.614 E3.83746
G1 X138.626 Y152.422 E3.90344
G1 X139.327 Y152.288 E3.96943
G1 X140.036 Y152.214 E4.03542
G1 X140.750 Y152.199 E4.10141
G1 X141.400 Y152.240 E4.16165
G1 X142.168 Y152.348 E4.23337 F378.000
G1 X142.862 Y152.511 E4.29935
G1 X143.541 Y152.731 E4.36534
G1 X144.198 Y153.008 E4.43133
G1 X144.831 Y153.338 E4.49732
G1 X145.433 Y153.720 E4.56331
G1 X146.001 Y154.152 E4.62929
G1 X146.485 Y154.588 E4.68954
G1 X147.020 Y155.149 E4.76125
G1 X147.463 Y155.708 E4.82724
G1 X147.858 Y156.303 E4.89323
G1 X148.202 Y156.928 E4.95922
G1 X148.492 Y157.580 E5.02521
G1 X148.726 Y158.253 E5.09119
G1 X148.904 Y158.944 E5.15718
G1 X149.023 Y159.648 E5.22317
G1 X149.077 Y160.297 E5.28341
G1 X149.083 Y161.072 E5.35513
G1 X149.023 Y161.783 E5.42112
G1 X148.904 Y162.487 E5.48710
G1 X148.726 Y163.178 E5.55309
G1 X148.492 Y163.852 E5.61908
G1 X148.202 Y164.503 E5.68507
G1 X147.858 Y165.128 E5.75106
G1 X147.463 Y165.723 E5.81705
G1 X147.020 Y166.282 E5.88303
G1 X146.573 Y166.758 E5.94347
G1 X141.753 Y152.428 F7800.000
G1 X146.086 Y166.347 F7800.000
G1 X145.596 Y166.789 E6.00453 F540.000
G1 X145.070 Y167.188 E6.06559
G1 X144.513 Y167.542 E6.12665
G1 X143.928 Y167.848 E6.18771
G1 X143.352 Y168.090 E6.24549
G1 X142.691 Y168.308 E6.30982
G1 X142.048 Y168.458 E6.37088
G1 X141.395 Y168.555 E6.43194
G1 X140.736 Y168.596 E6.49301
G1 X140.076 Y168.583 E6.55406
G1 X139.420 Y168.514 E6.61513
G1 X138.771 Y168.390 E6.67619
G1 X138.135 Y168.212 E6.73724
G1 X137.517 Y167.982 E6.79831
G1 X136.919 Y167.701 E6.85936
G1 X136.348 Y167.371 E6.92042
G1 X135.805 Y166.994 E6.98149
G1 X135.324 Y166.596 E7.03926
G1 X134.825 Y166.112 E7.10359
G1 X134.394 Y165.612 E7.16466
G1 X134.006 Y165.078 E7.22572
G1 X133.664 Y164.513 E7.28677
G1 X133.370 Y163.922 E7.34784
G1 X133.127 Y163.308 E7.40890
G1 X132.936 Y162.676 E7.46996
G1 X132.799 Y162.030 E7.53102
G1 X132.716 Y161.375 E7.59207
G1 X132.689 Y160.716 E7.65314
G1 X132.716 Y160.056 E7.71419
G1 X132.799 Y159.401 E7.77526
G1 X132.929 Y158.790 E7.83303
G1 X133.127 Y158.123 E7.89737
G1 X133.370 Y157.509 E7.95842
G1 X133.648 Y156.950 E8.01620
G1 X134.006 Y156.353 E8.08053
G1 X134.394 Y155.819 E8.14159
G1 X134.802 Y155.346 E8.19937
G1 X135.297 Y154.858 E8.26371
G1 X135.806 Y154.437 E8.32477
G1 X136.348 Y154.060 E8.38583
G1 X136.919 Y153.730 E8.44688
G1 X137.517 Y153.449 E8.50795
G1 X138.135 Y153.219 E8.56901
G1 X138.771 Y153.041 E8.63006
G1 X139.420 Y152.918 E8.69112
G1 X140.076 Y152.849 E8.75219
G1 X140.701 Y152.835 E8.80996
G1 X141.395 Y152.876 E8.87430 F540.000
G1 X142.048 Y152.973 E8.93536
G1 X142.691 Y153.123 E8.99642
G1 X143.319 Y153.327 E9.05748
G1 X143.928 Y153.583 E9.11853
G1 X144.513 Y153.889 E9.17960
G1 X145.070 Y154.243 E9.24066
G1 X145.596 Y154.642 E9.30172
G1 X146.060 Y155.060 E9.35950
G1 X146.538 Y155.565 E9.42383
G1 X146.948 Y156.082 E9.48489
G1 X147.314 Y156.632 E9.54595
G1 X147.632 Y157.211 E9.60701
G1 X147.900 Y157.814 E9.66807
G1 X148.117 Y158.437 E9.72913
G1 X148.282 Y159.077 E9.79019
G1 X148.392 Y159.728 E9.85125
G1 X148.444 Y160.350 E9.90903
G1 X148.447 Y161.046 E9.97336
G1 X148.392 Y161.704 E10.03442
G1 X148.282 Y162.354 E10.09548
G1 X148.117 Y162.994 E10.15654
G1 X147.900 Y163.617 E10.21760
G1 X147.632 Y164.220 E10.27866
G1 X147.314 Y164.799 E10.33972
G1 X146.948 Y165.349 E10.40078
G1 X146.538 Y165.866 E10.46184
G1 X146.128 Y166.304 E10.51735
G1 X143.366 Y163.526 F7800.000
G1 X143.041 Y163.832 E10.55859 F378.000
G1 X142.680 Y164.094 E10.59983
G1 X142.289 Y164.309 E10.64107
G1 X141.875 Y164.473 E10.68231
G1 X141.443 Y164.584 E10.72355
G1 X141.000 Y164.640 E10.76480
G1 X140.555 Y164.640 E10.80604
G1 X140.112 Y164.584 E10.84728
G1 X139.680 Y164.473 E10.88852
G1 X139.266 Y164.309 E10.92976
G1 X138.875 Y164.094 E10.97101
G1 X138.514 Y163.832 E11.01225
G1 X138.189 Y163.526 E11.05349
G1 X137.905 Y163.183 E11.09473
G1 X137.666 Y162.806 E11.13597
G1 X137.476 Y162.403 E11.17721
G1 X137.338 Y161.979 E11.21846
G1 X137.255 Y161.541 E11.25970
G1 X137.227 Y161.096 E11.30094
G1 X137.255 Y160.651 E11.34218
G1 X137.338 Y160.213 E11.38342
G1 X137.476 Y159.789 E11.42466
G1 X137.666 Y159.385 E11.46591
