; generated by Slic3r 1.1.7 on 2014-10-30 at 01:06:02

; perimeters extrusion width = 0.40mm
; infill extrusion width = 0.42mm
; solid infill extrusion width = 0.42mm
; top infill extrusion width = 0.42mm
; support material extrusion width = 0.40mm

G21 ; set units to millimeters
M107
M104 S185 ; set temperature
G28
G29
G1 Z5 F5000 ; lift nozzle

M109 S185 ; wait for temperature to be reached
G90 ; use absolute coordinates
G92 E0
M82 ; use absolute distances for extrusion
M204 S900
G1 F1800.000 E-1.00000
G92 E0
G1 Z0.350 F7800.000
G1 X94.122 Y100.433 F7800.000
G1 E1.00000 F1800.000
G1 X95.395 Y99.418 E1.15059 F1080.000
G1 X95.740 Y99.201 E1.18834
G1 X97.207 Y98.495 E1.33889
G1 X97.593 Y98.360 E1.37670
G1 X99.179 Y97.998 E1.52720
G1 X101.354 Y97.799 E1.72922
G1 X199.460 Y97.844 E10.80306
G1 X200.820 Y97.997 E10.92965 F1080.000
G1 X202.407 Y98.360 E11.08028
G1 X202.793 Y98.495 E11.11803
G1 X204.259 Y99.201 E11.26861
G1 X204.605 Y99.418 E11.30637
G1 X205.878 Y100.433 E11.45695
G1 X206.167 Y100.722 E11.49470
G1 X207.182 Y101.995 E11.64532
G1 X207.399 Y102.341 E11.68307
G1 X208.105 Y103.807 E11.83363
G1 X208.240 Y104.193 E11.87138
G1 X208.602 Y105.780 E12.02200
G1 X208.712 Y107.161 E12.15007
G1 X208.666 Y193.654 E20.14989
G1 X208.602 Y194.220 E20.20258
G1 X208.240 Y195.807 E20.35318
G1 X208.105 Y196.192 E20.39093
G1 X207.399 Y197.659 E20.54152
G1 X207.182 Y198.005 E20.57928
G1 X206.167 Y199.278 E20.72987
G1 X205.878 Y199.567 E20.76762
G1 X204.605 Y200.582 E20.91821
G1 X204.259 Y200.799 E20.95598
G1 X202.793 Y201.505 E21.10655
G1 X202.407 Y201.640 E21.14432
G1 X200.820 Y202.002 E21.29489
G1 X199.439 Y202.112 E21.42299
G1 X99.747 Y202.066 E30.64363
G1 X99.180 Y202.003 E30.69638
G1 X97.593 Y201.640 E30.84699
G1 X97.208 Y201.505 E30.88473
G1 X95.741 Y200.799 E31.03532
G1 X95.395 Y200.582 E31.07308
G1 X94.122 Y199.567 E31.22363
G1 X93.833 Y199.278 E31.26144
G1 X92.818 Y198.005 E31.41200
G1 X92.601 Y197.660 E31.44976
G1 X91.895 Y196.193 E31.60029
G1 X91.760 Y195.807 E31.63812
G1 X91.397 Y194.219 E31.78875
G1 X91.288 Y192.839 E31.91678
G1 X91.334 Y106.348 E39.91647
G1 X91.397 Y105.781 E39.96928
G1 X91.760 Y104.193 E40.11990
G1 X91.895 Y103.808 E40.15765
G1 X92.601 Y102.341 E40.30815
G1 X92.818 Y101.995 E40.34601
G1 X93.833 Y100.722 E40.49659
G1 X94.080 Y100.476 E40.52879
G1 X94.571 Y100.883 F7800.000
G1 X95.733 Y99.956 E40.66622 F1080.000
G1 X96.079 Y99.739 E40.70397
G1 X97.417 Y99.095 E40.84136
G1 X97.803 Y98.960 E40.87916
G1 X99.251 Y98.629 E41.01651
G1 X101.354 Y98.434 E41.21194
G1 X199.388 Y98.476 E50.27919
G1 X200.748 Y98.629 E50.40578 F1080.000
G1 X202.197 Y98.960 E50.54324
G1 X202.583 Y99.095 E50.58099
G1 X203.921 Y99.739 E50.71841
G1 X204.267 Y99.956 E50.75617
G1 X205.429 Y100.883 E50.89359
G1 X205.717 Y101.171 E50.93134
G1 X206.644 Y102.333 E51.06879
G1 X206.861 Y102.679 E51.10654
G1 X207.505 Y104.017 E51.24394
G1 X207.640 Y104.403 E51.28169
G1 X207.971 Y105.851 E51.41914
G1 X208.076 Y107.161 E51.54062
G1 X208.035 Y193.582 E59.53386
G1 X207.971 Y194.149 E59.58655
G1 X207.640 Y195.597 E59.72398
G1 X207.505 Y195.982 E59.76174
G1 X206.861 Y197.321 E59.89916
G1 X206.644 Y197.667 E59.93692
G1 X205.717 Y198.829 E60.07435
G1 X205.429 Y199.117 E60.11210
G1 X204.267 Y200.044 E60.24953
G1 X203.921 Y200.261 E60.28729
G1 X202.583 Y200.905 E60.42470
G1 X202.197 Y201.040 E60.46246
G1 X200.749 Y201.371 E60.59988
G1 X199.439 Y201.476 E60.72138
G1 X99.818 Y201.435 E69.93544
G1 X99.251 Y201.371 E69.98819
G1 X97.803 Y201.040 E70.12563
G1 X97.417 Y200.905 E70.16338
G1 X96.079 Y200.261 E70.30080
G1 X95.733 Y200.044 E70.33856
G1 X94.572 Y199.117 E70.47595
G1 X94.283 Y198.828 E70.51375
G1 X93.356 Y197.667 E70.65116
G1 X93.139 Y197.321 E70.68891
G1 X92.495 Y195.983 E70.82628
G1 X92.360 Y195.597 E70.86410
G1 X92.029 Y194.148 E71.00157
G1 X91.924 Y192.839 E71.12301
G1 X91.965 Y106.419 E79.11613
G1 X92.029 Y105.852 E79.16893
G1 X92.360 Y104.403 E79.30638
G1 X92.495 Y104.018 E79.34413
G1 X93.139 Y102.680 E79.48148
G1 X93.356 Y102.333 E79.51933
G1 X94.283 Y101.171 E79.65675
G1 X94.529 Y100.925 E79.68895
G1 F1800.000 E78.68895
G92 E0
G1 X99.039 Y105.350 F7800.000
G1 E1.00000 F1800.000
G1 X99.455 Y105.079 E1.04595 F1080.000
G1 X99.906 Y104.917 E1.09028
G1 X101.346 Y104.752 E1.22428
G1 X198.672 Y104.753 E10.22612
G1 X200.094 Y104.917 E10.35846 F1080.000
G1 X200.513 Y105.064 E10.39951
G1 X200.921 Y105.315 E10.44385
G1 X201.262 Y105.651 E10.48818
G1 X201.536 Y106.087 E10.53580
G1 X201.691 Y106.541 E10.58013
G1 X201.759 Y107.152 E10.63695
G1 X201.759 Y192.848 E18.56312
G1 X201.691 Y193.459 E18.61994
G1 X201.536 Y193.913 E18.66427
G1 X201.285 Y194.321 E18.70861
G1 X200.949 Y194.662 E18.75294
G1 X200.545 Y194.921 E18.79728
G1 X200.094 Y195.083 E18.84161
G1 X199.448 Y195.159 E18.90171
G1 X100.552 Y195.159 E28.04876
G1 X99.906 Y195.083 E28.10886
G1 X99.455 Y194.921 E28.15319
G1 X99.051 Y194.662 E28.19753
G1 X98.715 Y194.321 E28.24187
G1 X98.464 Y193.913 E28.28620
G1 X98.309 Y193.459 E28.33054
G1 X98.241 Y192.848 E28.38735
G1 X98.241 Y107.152 E36.31352
G1 X98.309 Y106.541 E36.37034
G1 X98.464 Y106.087 E36.41467
G1 X98.715 Y105.679 E36.45901
G1 X98.996 Y105.393 E36.49614
G1 F1800.000 E35.49614
G92 E0
G1 X200.517 Y194.150 F7800.000
G1 E1.00000 F1800.000
G1 X200.238 Y194.325 E1.03046 F378.000
G1 X199.927 Y194.434 E1.06091
G1 X199.420 Y194.491 E1.10814
G1 X100.580 Y194.491 E10.24991
G1 X100.073 Y194.434 E10.29714
G1 X99.762 Y194.325 E10.32759
G1 X99.483 Y194.150 E10.35805
G1 X99.250 Y193.917 E10.38850
G1 X99.075 Y193.638 E10.41897
G1 X98.966 Y193.327 E10.44941
G1 X98.909 Y192.820 E10.49665
G1 X98.909 Y107.180 E18.41754
G1 X98.966 Y106.673 E18.46476
G1 X99.075 Y106.362 E18.49522
G1 X99.250 Y106.083 E18.52567
G1 X99.483 Y105.850 E18.55613
G1 X99.762 Y105.675 E18.58659
G1 X100.073 Y105.566 E18.61704
G1 X101.374 Y105.420 E18.73816
G1 X198.655 Y105.423 E27.73581
G1 X199.927 Y105.566 E27.85418 F378.000
G1 X200.238 Y105.675 E27.88463
G1 X200.517 Y105.850 E27.91509
G1 X200.750 Y106.083 E27.94555
G1 X200.925 Y106.362 E27.97600
G1 X201.034 Y106.673 E28.00646
G1 X201.091 Y107.180 E28.05369
G1 X201.091 Y192.820 E35.97457
G1 X201.034 Y193.327 E36.02180
G1 X200.925 Y193.638 E36.05226
G1 X200.750 Y193.917 E36.08271
G1 X200.559 Y194.107 E36.10762
G1 X198.988 Y105.646 F7800.000
G1 X200.118 Y193.650 F7800.000
G1 X199.960 Y193.749 E36.12483 F540.000
G1 X199.785 Y193.810 E36.14204
G1 X199.384 Y193.855 E36.17934
G1 X100.616 Y193.855 E45.31451
G1 X100.215 Y193.810 E45.35181
G1 X100.040 Y193.749 E45.36901
G1 X99.882 Y193.650 E45.38622
G1 X99.750 Y193.518 E45.40343
G1 X99.651 Y193.360 E45.42065
G1 X99.590 Y193.185 E45.43784
G1 X99.545 Y192.784 E45.47515
G1 X99.545 Y107.216 E53.38944
G1 X99.590 Y106.815 E53.42674
G1 X99.651 Y106.639 E53.44395
G1 X99.750 Y106.482 E53.46115
G1 X99.882 Y106.350 E53.47836
G1 X100.040 Y106.251 E53.49557
G1 X100.215 Y106.190 E53.51278
G1 X101.410 Y106.055 E53.62398
G1 X106.010 Y106.055 E54.04947
G1 X198.590 Y106.055 E62.61228 F540.000
G1 X199.785 Y106.190 E62.72348
G1 X199.960 Y106.251 E62.74068
G1 X200.118 Y106.350 E62.75790
G1 X200.250 Y106.482 E62.77510
G1 X200.349 Y106.639 E62.79231
G1 X200.410 Y106.815 E62.80952
G1 X200.455 Y107.216 E62.84683
G1 X200.455 Y192.784 E70.76110
G1 X200.410 Y193.185 E70.79841
G1 X200.349 Y193.360 E70.81562
G1 X200.250 Y193.518 E70.83283
G1 X200.160 Y193.607 E70.84449
G1 F1800.000 E69.84449
G92 E0
G1 X131.309 Y115.365 F7800.000
G1 E1.00000 F1800.000
G1 X130.910 Y115.313 E1.03721 F540.000
G1 X130.511 Y115.365 E1.07443
G1 X130.564 Y114.966 E1.11164
G1 X130.511 Y114.567 E1.14886
G1 X130.910 Y114.620 E1.18607
G1 X131.309 Y114.567 E1.22328
G1 X131.256 Y114.966 E1.26050
G1 X131.301 Y115.306 E1.29216
G1 X110.250 Y131.550 F7800.000
G1 X189.750 Y131.550 E8.64519 F378.000
G1 X189.750 Y184.050 E13.50097
G1 X110.250 Y184.050 E20.85400
G1 X110.250 Y131.610 E25.70422
G1 X110.250 Y131.150 F7800.000
G1 X109.614 Y130.914 F7800.000
G1 X190.386 Y130.914 E33.17483 F540.000
G1 X190.386 Y184.686 E38.14818
G1 X109.614 Y184.686 E45.61879
G1 X109.614 Y130.974 E50.58660
G1 X141.968 Y118.644 F7800.000
G1 X141.832 Y117.556 E50.68806 F378.000
G1 X141.832 Y112.376 E51.16710
G1 X141.966 Y111.290 E51.26834
G1 X142.360 Y110.261 E51.37024
G1 X143.008 Y109.336 E51.47474
G1 X143.828 Y108.621 E51.57532
G1 X144.705 Y108.161 E51.66690
G1 X144.847 Y108.102 E51.68114
G1 X145.892 Y107.858 E51.78038
G1 X146.889 Y107.858 E51.87261 F378.000
G1 X147.022 Y107.876 E51.88504
G1 X147.971 Y108.110 E51.97546
G1 X148.961 Y108.615 E52.07827
G1 X149.800 Y109.346 E52.18110
G1 X150.437 Y110.257 E52.28395
G1 X150.835 Y111.295 E52.38682
G1 X150.968 Y112.376 E52.48756
G1 X150.968 Y117.556 E52.96661
G1 X150.834 Y118.642 E53.06785
G1 X150.440 Y119.671 E53.16975
G1 X149.792 Y120.597 E53.27425
G1 X148.972 Y121.311 E53.37483
G1 X148.095 Y121.771 E53.46640
G1 X147.953 Y121.830 E53.48064
G1 X146.908 Y122.074 E53.57988
G1 X145.911 Y122.074 E53.67211
G1 X145.778 Y122.057 E53.68454
G1 X144.829 Y121.823 E53.77497
G1 X143.839 Y121.317 E53.87778
G1 X143.000 Y120.587 E53.98061
G1 X142.919 Y120.480 E53.99304
G1 X142.363 Y119.675 E54.08347
G1 X141.989 Y118.701 E54.18005
G1 F1800.000 E53.18005
G92 E0
G1 X145.930 Y107.460 F7800.000
G1 X141.374 Y118.870 F7800.000
G1 E1.00000 F1800.000
G1 X141.344 Y118.793 E1.00758 F540.000
G1 X141.197 Y117.594 E1.11931
G1 X141.197 Y112.338 E1.60547
G1 X141.346 Y111.124 E1.71859
G1 X141.793 Y109.964 E1.83359
G1 X142.555 Y108.882 E1.95592
G1 X143.464 Y108.094 E2.06722
G1 X144.435 Y107.585 E2.16860
G1 X144.681 Y107.483 E2.19325
G1 X144.847 Y107.461 E2.20872
G1 X145.814 Y107.223 E2.30091
G1 X146.930 Y107.223 E2.40412
G1 X147.140 Y107.250 E2.42367
G1 X148.170 Y107.504 E2.52180 F540.000
G1 X148.365 Y107.585 E2.54134
G1 X149.305 Y108.078 E2.63948
G1 X150.267 Y108.910 E2.75713
G1 X150.998 Y109.951 E2.87481
G1 X151.455 Y111.139 E2.99253
G1 X151.603 Y112.338 E3.10426
G1 X151.603 Y117.594 E3.59042
G1 X151.454 Y118.808 E3.70354
G1 X151.007 Y119.969 E3.81854
G1 X150.245 Y121.050 E3.94087
G1 X149.336 Y121.838 E4.05217
G1 X148.365 Y122.347 E4.15355
G1 X148.119 Y122.449 E4.17820
G1 X147.953 Y122.471 E4.19366
G1 X146.986 Y122.710 E4.28586
G1 X145.869 Y122.710 E4.38908
G1 X145.660 Y122.682 E4.40863
G1 X144.630 Y122.428 E4.50676
G1 X144.435 Y122.347 E4.52630
G1 X143.495 Y121.854 E4.62443
G1 X143.328 Y121.726 E4.64398
G1 X142.533 Y121.022 E4.74212
G1 X142.405 Y120.854 E4.76167
G1 X141.802 Y119.981 E4.85982
G1 X141.395 Y118.926 E4.96441
G1 X132.217 Y117.657 F7800.000
G1 X132.082 Y117.983 E4.99708 F378.000
G1 X131.867 Y118.263 E5.02975
G1 X131.586 Y118.478 E5.06242
G1 X131.260 Y118.614 E5.09509
G1 X130.910 Y118.660 E5.12775
G1 X130.560 Y118.614 E5.16042
G1 X130.233 Y118.478 E5.19309
G1 X129.953 Y118.263 E5.22576
G1 X129.738 Y117.983 E5.25843
G1 X129.603 Y117.657 E5.29110
G1 X129.557 Y117.307 E5.32377
G1 X129.603 Y116.957 E5.35643
G1 X129.738 Y116.630 E5.38911
G1 X129.953 Y116.350 E5.42177
G1 X130.233 Y116.135 E5.45444
G1 X130.560 Y116.000 E5.48711
G1 X130.841 Y115.963 E5.51334
G1 X130.910 Y115.954 E5.51978 F378.000
G1 X131.260 Y116.000 E5.55245
G1 X131.587 Y116.135 E5.58512
G1 X131.867 Y116.350 E5.61778
G1 X132.082 Y116.630 E5.65045
G1 X132.217 Y116.957 E5.68312
G1 X132.263 Y117.307 E5.71579
G1 X132.225 Y117.597 E5.74291
G1 F1800.000 E4.74291
G92 E0
G1 X130.817 Y115.898 F7800.000
G1 X132.806 Y116.234 F7800.000
G1 E1.00000 F1800.000
G1 X132.574 Y116.138 E1.02325 F378.000
G1 X132.294 Y115.923 E1.05592
G1 X132.079 Y115.643 E1.08859
G1 X131.944 Y115.316 E1.12126
G1 X131.907 Y115.035 E1.14749
G1 X131.898 Y114.966 E1.15393
G1 X131.944 Y114.616 E1.18660
G1 X132.079 Y114.290 E1.21927
G1 X132.294 Y114.009 E1.25193
G1 X132.574 Y113.794 E1.28461
G1 X132.900 Y113.659 E1.31727
G1 X133.181 Y113.622 E1.34350
G1 X133.251 Y113.613 E1.34994 F378.000
G1 X133.601 Y113.659 E1.38261
G1 X133.927 Y113.794 E1.41527
G1 X134.207 Y114.009 E1.44794
G1 X134.422 Y114.290 E1.48061
G1 X134.449 Y114.354 E1.48705
G1 X134.557 Y114.616 E1.51328
G1 X134.604 Y114.966 E1.54595
G1 X134.557 Y115.316 E1.57862
G1 X134.422 Y115.643 E1.61129
G1 X134.207 Y115.923 E1.64396
G1 X133.927 Y116.138 E1.67663
G1 X133.601 Y116.273 E1.70929
G1 X133.251 Y116.319 E1.74196
G1 X132.862 Y116.257 E1.77838
G1 F1800.000 E0.77838
G92 E0
G1 X133.245 Y113.651 F7800.000
G1 X131.586 Y113.797 F7800.000
G1 E1.00000 F1800.000
G1 X131.260 Y113.933 E1.03266 F378.000
G1 X130.910 Y113.979 E1.06533
G1 X130.560 Y113.933 E1.09800
G1 X130.234 Y113.797 E1.13066
G1 X129.953 Y113.582 E1.16334
G1 X129.738 Y113.302 E1.19600
G1 X129.603 Y112.976 E1.22868
G1 X129.557 Y112.626 E1.26134
G1 X129.603 Y112.275 E1.29401
G1 X129.738 Y111.949 E1.32669
G1 X129.953 Y111.669 E1.35935
G1 X130.234 Y111.454 E1.39202
G1 X130.560 Y111.319 E1.42469
G1 X130.841 Y111.282 E1.45092
G1 X130.910 Y111.273 E1.45736 F378.000
G1 X131.260 Y111.319 E1.49002
G1 X131.586 Y111.454 E1.52269
G1 X131.867 Y111.669 E1.55536
G1 X132.039 Y111.894 E1.58159
G1 X132.082 Y111.949 E1.58803
G1 X132.217 Y112.275 E1.62070
G1 X132.263 Y112.626 E1.65337
G1 X132.217 Y112.976 E1.68604
G1 X132.082 Y113.302 E1.71870
G1 X131.867 Y113.582 E1.75137
G1 X131.634 Y113.761 E1.77850
G1 F1800.000 E0.77850
G92 E0
G1 X130.908 Y111.302 F7800.000
G1 X129.837 Y114.522 F7800.000
G1 E1.00000 F1800.000
G1 X129.876 Y114.616 E1.00942 F378.000
G1 X129.922 Y114.966 E1.04209
G1 X129.876 Y115.316 E1.07476
G1 X129.741 Y115.643 E1.10743
G1 X129.526 Y115.923 E1.14010
G1 X129.246 Y116.138 E1.17277
G1 X128.920 Y116.273 E1.20543
G1 X128.569 Y116.319 E1.23810
G1 X128.219 Y116.273 E1.27077
G1 X127.893 Y116.138 E1.30343
G1 X127.613 Y115.923 E1.33611
G1 X127.398 Y115.643 E1.36877
G1 X127.371 Y115.578 E1.37522
G1 X127.263 Y115.316 E1.40144
G1 X127.216 Y114.966 E1.43411
G1 X127.263 Y114.616 E1.46678
G1 X127.398 Y114.290 E1.49946
G1 X127.613 Y114.009 E1.53212
G1 X127.893 Y113.794 E1.56479
G1 X128.219 Y113.659 E1.59746
G1 X128.500 Y113.622 E1.62369
G1 X128.569 Y113.613 E1.63013 F378.000
G1 X128.920 Y113.659 E1.66279
G1 X129.246 Y113.794 E1.69546
G1 X129.526 Y114.009 E1.72813
G1 X129.741 Y114.290 E1.76080
G1 X129.814 Y114.466 E1.77850
G1 X128.570 Y113.628 F7800.000
G1 X128.968 Y113.025 F7800.000
G1 X128.916 Y112.626 E1.81572 F540.000
G1 X128.984 Y112.110 E1.86386
G1 X129.183 Y111.628 E1.91202
G1 X129.500 Y111.216 E1.96016
G1 X129.913 Y110.899 E2.00832
G1 X130.394 Y110.699 E2.05645
G1 X130.910 Y110.631 E2.10460
G1 X131.426 Y110.699 E2.15275
G1 X131.907 Y110.899 E2.20088
G1 X132.029 Y110.992 E2.21507
G1 X132.320 Y111.216 E2.24905
G1 X132.637 Y111.629 E2.29720
G1 X132.836 Y112.109 E2.34534
G1 X132.904 Y112.626 E2.39349
G1 X132.852 Y113.025 E2.43071
G1 X133.251 Y112.972 E2.46792
G1 X133.767 Y113.040 E2.51607
G1 X134.247 Y113.239 E2.56420
G1 X134.661 Y113.556 E2.61236
G1 X134.884 Y113.848 E2.64634
G1 X134.977 Y113.969 E2.66051
G1 X135.177 Y114.450 E2.70866
G1 X135.245 Y114.966 E2.75681
G1 X135.177 Y115.482 E2.80495
G1 X134.977 Y115.963 E2.85310
G1 X134.661 Y116.376 E2.90125
G1 X134.247 Y116.693 E2.94941
G1 X133.767 Y116.892 E2.99755
G1 X133.251 Y116.960 E3.04569
G1 X132.852 Y116.908 E3.08290
G1 X132.904 Y117.307 E3.12012
G1 X132.836 Y117.823 E3.16827
G1 X132.637 Y118.304 E3.21641
G1 X132.320 Y118.717 E3.26456
G1 X131.907 Y119.034 E3.31271
G1 X131.426 Y119.233 E3.36086
G1 X130.910 Y119.301 E3.40900
G1 X130.758 Y119.281 E3.42318
G1 X130.394 Y119.233 E3.45715
G1 X129.913 Y119.034 E3.50530
G1 X129.500 Y118.717 E3.55345
G1 X129.183 Y118.304 E3.60159
G1 X128.984 Y117.823 E3.64975
G1 X128.916 Y117.307 E3.69789
G1 X128.968 Y116.908 E3.73511
G1 X128.569 Y116.960 E3.77232
G1 X128.053 Y116.892 E3.82047
G1 X127.572 Y116.693 E3.86860
G1 X127.159 Y116.376 E3.91677
G1 X126.843 Y115.963 E3.96490
G1 X126.643 Y115.482 E4.01306
G1 X126.575 Y114.966 E4.06121
G1 X126.643 Y114.450 E4.10936
G1 X126.843 Y113.969 E4.15752
G1 X127.159 Y113.556 E4.20566
G1 X127.572 Y113.239 E4.25382
G1 X128.053 Y113.040 E4.30195
G1 X128.569 Y112.972 E4.35010
G1 X128.909 Y113.017 E4.38176
G1 X117.986 Y114.470 F7800.000
G1 X118.003 Y114.600 E4.39388 F378.000
G1 X117.855 Y115.727 E4.49898
G1 X117.420 Y116.777 E4.60409
G1 X116.728 Y117.678 E4.70919
G1 X115.826 Y118.370 E4.81429
