; generated by Slic3r 1.1.7 on 2014-10-30 at 01:15:41

; perimeters extrusion width = 0.40mm
; infill extrusion width = 0.42mm
; solid infill extrusion width = 0.42mm
; top infill extrusion width = 0.42mm
; support material extrusion width = 0.40mm

G21 ; set units to millimeters
M107
M104 S185 ; set temperature
G28
G29
G1 Z5 F5000 ; lift nozzle

M109 S185 ; wait for temperature to be reached
G90 ; use absolute coordinates
G92 E0
M82 ; use absolute distances for extrusion
M204 S900
G1 F1800.000 E-1.00000
G92 E0
G1 Z0.350 F7800.000
G1 X92.328 Y98.184 F7800.000
G1 E1.00000 F1800.000
G1 X93.601 Y97.169 E1.15060 F1080.000
G1 X94.492 Y96.609 E1.24795
G1 X95.959 Y95.902 E1.39853
G1 X96.953 Y95.554 E1.49593
G1 X98.540 Y95.192 E1.64648
G1 X99.558 Y95.078 E1.74120
G1 X100.400 Y95.029 E1.81924
G1 X200.414 Y95.074 E11.06964
G1 X201.460 Y95.192 E11.16698 F1080.000
G1 X203.047 Y95.555 E11.31758
G1 X204.041 Y95.902 E11.41493
G1 X205.508 Y96.609 E11.56552
G1 X206.375 Y97.154 E11.66030
G1 X207.672 Y98.184 E11.81345
G1 X208.416 Y98.928 E11.91079
G1 X209.431 Y100.201 E12.06138
G1 X209.991 Y101.092 E12.15872
G1 X210.698 Y102.559 E12.30933
G1 X211.045 Y103.553 E12.40667
G1 X211.408 Y105.140 E12.55727
G1 X211.522 Y106.158 E12.65202
G1 X211.571 Y107.000 E12.73003
G1 X211.526 Y193.814 E20.75955
G1 X211.408 Y194.860 E20.85689
G1 X211.045 Y196.447 E21.00749
G1 X210.698 Y197.441 E21.10487
G1 X209.991 Y198.908 E21.25543
G1 X209.431 Y199.799 E21.35278
G1 X208.416 Y201.072 E21.50337
G1 X207.672 Y201.816 E21.60072
G1 X206.399 Y202.831 E21.75131
G1 X205.532 Y203.376 E21.84605
G1 X204.041 Y204.098 E21.99924
G1 X203.047 Y204.445 E22.09658
G1 X201.460 Y204.808 E22.24718
G1 X200.442 Y204.922 E22.34193
G1 X199.600 Y204.971 E22.41994
G1 X99.586 Y204.926 E31.67034
G1 X98.540 Y204.808 E31.76768
G1 X96.953 Y204.445 E31.91828
G1 X95.959 Y204.098 E32.01566
G1 X94.492 Y203.391 E32.16622
G1 X93.625 Y202.846 E32.26097
G1 X92.328 Y201.816 E32.41415
G1 X91.584 Y201.072 E32.51149
G1 X90.569 Y199.799 E32.66209
G1 X90.009 Y198.908 E32.75943
G1 X89.302 Y197.441 E32.91002
G1 X88.954 Y196.447 E33.00744
G1 X88.592 Y194.860 E33.15797
G1 X88.478 Y193.842 E33.25269
G1 X88.429 Y193.000 E33.33073
G1 X88.474 Y106.186 E41.36025
G1 X88.592 Y105.140 E41.45759
G1 X88.955 Y103.553 E41.60820
G1 X89.302 Y102.559 E41.70554
G1 X90.009 Y101.092 E41.85613
G1 X90.569 Y100.200 E41.95359
G1 X91.584 Y98.928 E42.10407
G1 X92.286 Y98.226 E42.19587
G1 X92.778 Y98.633 F7800.000
G1 X93.939 Y97.707 E42.33331 F1080.000
G1 X94.830 Y97.147 E42.43065
G1 X96.169 Y96.502 E42.56807
G1 X97.163 Y96.154 E42.66546
G1 X98.611 Y95.824 E42.80285
G1 X99.629 Y95.709 E42.89758
G1 X100.400 Y95.664 E42.96902
G1 X200.343 Y95.706 E52.21284
G1 X201.389 Y95.824 E52.31018 F1080.000
G1 X202.837 Y96.155 E52.44762
G1 X203.831 Y96.502 E52.54496
G1 X205.170 Y97.147 E52.68239
G1 X206.037 Y97.692 E52.77717
G1 X207.222 Y98.633 E52.91715
G1 X207.967 Y99.377 E53.01450
G1 X208.893 Y100.539 E53.15192
G1 X209.453 Y101.430 E53.24927
G1 X210.098 Y102.769 E53.38670
G1 X210.445 Y103.763 E53.48405
G1 X210.776 Y105.211 E53.62148
G1 X210.891 Y106.229 E53.71623
G1 X210.936 Y107.000 E53.78765
G1 X210.894 Y193.743 E61.81059
G1 X210.776 Y194.789 E61.90793
G1 X210.445 Y196.237 E62.04536
G1 X210.098 Y197.231 E62.14274
G1 X209.453 Y198.570 E62.28014
G1 X208.893 Y199.461 E62.37749
G1 X207.967 Y200.622 E62.51491
G1 X207.222 Y201.367 E62.61226
G1 X206.061 Y202.293 E62.74969
G1 X205.194 Y202.838 E62.84442
G1 X203.831 Y203.498 E62.98445
G1 X202.837 Y203.845 E63.08180
G1 X201.389 Y204.176 E63.21923
G1 X200.371 Y204.291 E63.31397
G1 X199.600 Y204.336 E63.38539
G1 X99.657 Y204.294 E72.62921
G1 X98.611 Y204.176 E72.72656
G1 X97.163 Y203.845 E72.86399
G1 X96.169 Y203.498 E72.96136
G1 X94.830 Y202.853 E73.09876
G1 X93.963 Y202.308 E73.19351
G1 X92.777 Y201.367 E73.33353
G1 X92.033 Y200.622 E73.43087
G1 X91.107 Y199.461 E73.56831
G1 X90.547 Y198.570 E73.66565
G1 X89.902 Y197.231 E73.80307
G1 X89.554 Y196.237 E73.90049
G1 X89.224 Y194.789 E74.03786
G1 X89.109 Y193.771 E74.13258
G1 X89.064 Y193.000 E74.20402
G1 X89.106 Y106.257 E82.22696
G1 X89.224 Y105.211 E82.32431
G1 X89.555 Y103.762 E82.46174
G1 X89.902 Y102.769 E82.55909
G1 X90.547 Y101.430 E82.69651
G1 X91.107 Y100.538 E82.79396
G1 X92.033 Y99.377 E82.93129
G1 X92.735 Y98.676 E83.02309
G1 F1800.000 E82.02309
G92 E0
G1 X97.245 Y103.101 F7800.000
G1 E1.00000 F1800.000
G1 X98.239 Y102.471 E1.10881 F1080.000
G1 X99.301 Y102.104 E1.21274
G1 X100.391 Y101.982 E1.31421
G1 X199.627 Y101.983 E10.49261
G1 X200.734 Y102.112 E10.59571 F1080.000
G1 X201.793 Y102.487 E10.69963
G1 X202.715 Y103.066 E10.80028
G1 X203.512 Y103.857 E10.90421
G1 X204.129 Y104.839 E11.01141
G1 X204.496 Y105.901 E11.11534
G1 X204.618 Y106.991 E11.21681
G1 X204.618 Y193.009 E19.17268
G1 X204.496 Y194.099 E19.27414
G1 X204.129 Y195.161 E19.37807
G1 X203.534 Y196.115 E19.48200
G1 X202.743 Y196.912 E19.58592
G1 X201.761 Y197.529 E19.69313
G1 X200.699 Y197.896 E19.79706
G1 X199.609 Y198.018 E19.89852
G1 X100.391 Y198.018 E29.07527
G1 X99.301 Y197.896 E29.17674
G1 X98.239 Y197.529 E29.28067
G1 X97.257 Y196.912 E29.38787
G1 X96.466 Y196.115 E29.49180
G1 X95.871 Y195.161 E29.59572
G1 X95.504 Y194.099 E29.69965
G1 X95.382 Y193.009 E29.80112
G1 X95.382 Y106.991 E37.75699
G1 X95.504 Y105.901 E37.85846
G1 X95.871 Y104.839 E37.96238
G1 X96.466 Y103.885 E38.06631
G1 X97.202 Y103.143 E38.16304
G1 F1800.000 E37.16304
G92 E0
G1 X202.311 Y196.399 F7800.000
G1 E1.00000 F1800.000
G1 X201.486 Y196.917 E1.09005 F378.000
G1 X200.567 Y197.239 E1.18010
G1 X199.580 Y197.350 E1.27197
G1 X100.420 Y197.350 E10.44344
G1 X99.433 Y197.239 E10.53532
G1 X98.514 Y196.917 E10.62537
G1 X97.689 Y196.399 E10.71542
G1 X97.001 Y195.711 E10.80547
G1 X96.483 Y194.886 E10.89552
G1 X96.161 Y193.967 E10.98556
G1 X96.050 Y192.980 E11.07744
G1 X96.050 Y107.020 E19.02803
G1 X96.161 Y106.033 E19.11991
G1 X96.483 Y105.114 E19.20996
G1 X97.001 Y104.289 E19.30000
G1 X97.689 Y103.601 E19.39005
G1 X98.514 Y103.083 E19.48010
G1 X99.433 Y102.761 E19.57015
G1 X100.420 Y102.650 E19.66203
G1 X199.580 Y102.650 E28.83349
G1 X200.567 Y102.761 E28.92537
G1 X201.486 Y103.083 E29.01542 F378.000
G1 X202.311 Y103.601 E29.10547
G1 X202.999 Y104.289 E29.19552
G1 X203.517 Y105.114 E29.28557
G1 X203.839 Y106.033 E29.37562
G1 X203.950 Y107.020 E29.46749
G1 X203.950 Y192.980 E37.41808
G1 X203.839 Y193.967 E37.50996
G1 X203.517 Y194.886 E37.60001
G1 X202.999 Y195.711 E37.69006
G1 X202.353 Y196.357 E37.77456
G1 F1800.000 E36.77456
G92 E0
G1 X200.863 Y103.031 F7800.000
G1 X193.800 Y193.118 F7800.000
G1 E1.00000 F1800.000
G1 X195.834 Y191.641 E1.23249 F540.000
G1 X195.711 Y193.200 E1.37717
G1 X195.893 Y194.192 E1.47039
G1 X196.323 Y195.103 E1.56362
G1 X196.973 Y195.874 E1.65684
G1 X197.665 Y196.359 E1.73503
G1 X197.553 Y196.714 E1.76951
G1 X102.468 Y196.714 E10.56399
G1 X102.351 Y196.369 E10.59769
G1 X103.153 Y195.754 E10.69124
G1 X103.772 Y194.947 E10.78527
G1 X104.161 Y194.008 E10.87930
G1 X104.294 Y193.000 E10.97332
G1 X104.110 Y191.600 E11.10395
G1 X106.200 Y193.118 E11.34292
G1 X108.785 Y191.240 E11.63848
G1 X107.798 Y188.201 E11.93404
G1 X104.602 Y188.201 E12.22960
G1 X103.704 Y190.964 E12.49834
G1 X103.153 Y190.246 E12.58203
G1 X102.347 Y189.628 E12.67605
G1 X101.408 Y189.239 E12.77008
G1 X100.400 Y189.106 E12.86410
G1 X99.392 Y189.239 E12.95812
G1 X98.453 Y189.628 E13.05214
G1 X97.647 Y190.246 E13.14616
G1 X97.031 Y191.049 E13.23972
G1 X96.686 Y190.932 E13.27343
G1 X96.686 Y109.068 E20.84507
G1 X97.031 Y108.951 E20.87877
G1 X97.646 Y109.754 E20.97233
G1 X98.453 Y110.372 E21.06635
G1 X99.392 Y110.761 E21.16038
G1 X100.400 Y110.894 E21.25440
G1 X101.408 Y110.761 E21.34842
G1 X102.347 Y110.372 E21.44244
G1 X103.154 Y109.754 E21.53647
G1 X103.772 Y108.947 E21.63049
G1 X104.161 Y108.008 E21.72452
G1 X104.294 Y107.000 E21.81854
G1 X104.161 Y105.992 E21.91256
G1 X103.772 Y105.053 E22.00658
G1 X103.153 Y104.246 E22.10063
G1 X102.351 Y103.631 E22.19416
G1 X102.468 Y103.286 E22.22787
G1 X197.532 Y103.286 E31.02040
G1 X197.649 Y103.631 E31.05410
G1 X196.847 Y104.246 E31.14764
G1 X196.228 Y105.053 E31.24168
G1 X195.839 Y105.992 E31.33571
G1 X195.706 Y107.000 E31.42973
G1 X195.839 Y108.008 E31.52375
G1 X196.228 Y108.947 E31.61777
G1 X196.846 Y109.753 E31.71179
G1 X197.653 Y110.372 E31.80582
G1 X198.592 Y110.761 E31.89985
G1 X199.600 Y110.894 E31.99387
G1 X200.608 Y110.761 E32.08789
G1 X201.547 Y110.372 E32.18191
G1 X202.354 Y109.753 E32.27595
G1 X202.969 Y108.951 E32.36949
G1 X203.314 Y109.068 E32.40320
G1 X203.314 Y190.918 E39.97359
G1 X202.974 Y191.037 E40.00695
G1 X202.303 Y190.197 E40.10636
G1 X201.494 Y189.597 E40.19958
G1 X200.557 Y189.225 E40.29281
G1 X199.556 Y189.106 E40.38603
G1 X198.558 Y189.248 E40.47926
G1 X197.630 Y189.641 E40.57249
G1 X196.771 Y190.308 E40.67305
G1 X196.341 Y191.105 E40.75680
G1 X195.398 Y188.201 E41.03924
G1 X192.202 Y188.201 E41.33479
G1 X191.215 Y191.240 E41.63035
G1 X193.751 Y193.083 E41.92036
G1 X103.653 Y193.000 F7800.000
G1 X103.542 Y193.842 E41.99890 F378.000
G1 X103.217 Y194.627 E42.07745
G1 X102.700 Y195.300 E42.15600
G1 X102.027 Y195.817 E42.23454
G1 X101.242 Y196.142 E42.31308
G1 X100.400 Y196.253 E42.39163
G1 X99.558 Y196.142 E42.47017
G1 X98.773 Y195.817 E42.54871
G1 X98.100 Y195.300 E42.62726
G1 X97.583 Y194.627 E42.70580
G1 X97.258 Y193.842 E42.78435
G1 X97.249 Y193.774 E42.79066
G1 X97.147 Y193.000 E42.86289
G1 X97.258 Y192.158 E42.94143
G1 X97.583 Y191.373 E43.01998
G1 X98.100 Y190.700 E43.09852
G1 X98.773 Y190.183 E43.17707
G1 X99.558 Y189.858 E43.25561
G1 X100.400 Y189.747 E43.33415
G1 X101.174 Y189.849 E43.40638
G1 X101.242 Y189.858 E43.41270 F378.000
G1 X102.027 Y190.183 E43.49124
G1 X102.700 Y190.700 E43.56978
G1 X103.217 Y191.373 E43.64833
G1 X103.542 Y192.158 E43.72688
G1 X103.645 Y192.941 E43.79987
G1 F1800.000 E42.79987
G92 E0
G1 X101.162 Y189.782 F7800.000
G1 X104.362 Y190.997 F7800.000
G1 E1.00000 F1800.000
G1 X105.064 Y188.836 E1.21013 F378.000
G1 X107.336 Y188.836 E1.42027
G1 X108.038 Y190.997 E1.63040
G1 X106.200 Y192.333 E1.84054
G1 X104.411 Y191.032 E2.04512
G1 X103.997 Y190.835 F7800.000
G1 F1800.000 E1.04512
G92 E0
G1 X112.222 Y187.533 F7800.000
G1 E1.00000 F1800.000
G1 X112.017 Y187.038 E1.04957 F378.000
G1 X111.947 Y186.506 E1.09914
G1 X112.017 Y185.975 E1.14871
G1 X112.222 Y185.480 E1.19828
G1 X112.548 Y185.054 E1.24785
G1 X112.974 Y184.728 E1.29742
G1 X113.469 Y184.523 E1.34699
G1 X113.553 Y184.512 E1.35489
G1 X114.000 Y184.453 E1.39656 F378.000
G1 X114.531 Y184.523 E1.44613
G1 X115.027 Y184.728 E1.49570
G1 X115.452 Y185.054 E1.54527
G1 X115.778 Y185.480 E1.59484
G1 X115.983 Y185.975 E1.64441
G1 X116.053 Y186.506 E1.69398
G1 X115.983 Y187.038 E1.74355
G1 X115.778 Y187.533 E1.79312
G1 X115.452 Y187.958 E1.84269
G1 X115.027 Y188.284 E1.89226
G1 X114.531 Y188.489 E1.94183
G1 X114.000 Y188.559 E1.99140
G1 X113.469 Y188.489 E2.04097
G1 X112.974 Y188.284 E2.09054
G1 X112.548 Y187.958 E2.14012
G1 X112.259 Y187.580 E2.18413
G1 F1800.000 E1.18413
G92 E0
G1 X113.556 Y184.112 F7800.000
G1 X111.635 Y187.776 F7800.000
G1 E1.00000 F1800.000
G1 X111.398 Y187.204 E1.05730 F540.000
G1 X111.306 Y186.506 E1.12236
G1 X111.398 Y185.809 E1.18742
G1 X111.667 Y185.159 E1.25246
G1 X112.095 Y184.601 E1.31751
G1 X112.653 Y184.173 E1.38256
G1 X113.303 Y183.904 E1.44761
G1 X114.000 Y183.812 E1.51266
G1 X114.530 Y183.882 E1.56207
G1 X114.697 Y183.904 E1.57771 F540.000
G1 X115.347 Y184.173 E1.64276
G1 X115.905 Y184.601 E1.70781
G1 X116.333 Y185.159 E1.77286
G1 X116.602 Y185.809 E1.83791
G1 X116.694 Y186.506 E1.90295
G1 X116.602 Y187.203 E1.96800
G1 X116.333 Y187.853 E2.03305
G1 X115.905 Y188.411 E2.09810
G1 X115.347 Y188.839 E2.16315
G1 X114.697 Y189.109 E2.22820
G1 X114.000 Y189.200 E2.29325
G1 X113.303 Y189.109 E2.35830
G1 X112.653 Y188.839 E2.42335
G1 X112.095 Y188.411 E2.48840
G1 X111.658 Y187.831 E2.55557
G1 X113.969 Y170.049 F7800.000
G1 X113.469 Y169.983 E2.60223 F378.000
G1 X112.974 Y169.778 E2.65181
G1 X112.548 Y169.452 E2.70138
G1 X112.222 Y169.026 E2.75095
G1 X112.017 Y168.531 E2.80052
G1 X111.947 Y168.000 E2.85009
G1 X112.017 Y167.469 E2.89966
G1 X112.222 Y166.973 E2.94923
G1 X112.548 Y166.548 E2.99880
G1 X112.974 Y166.222 E3.04837
G1 X113.469 Y166.017 E3.09794
G1 X113.553 Y166.006 E3.10584
G1 X114.000 Y165.947 E3.14751 F378.000
G1 X114.531 Y166.017 E3.19708
G1 X115.027 Y166.222 E3.24665
G1 X115.452 Y166.548 E3.29622
G1 X115.778 Y166.973 E3.34579
G1 X115.983 Y167.469 E3.39536
G1 X116.053 Y168.000 E3.44493
G1 X115.983 Y168.531 E3.49450
G1 X115.778 Y169.026 E3.54407
G1 X115.452 Y169.452 E3.59364
G1 X115.027 Y169.778 E3.64321
G1 X114.531 Y169.983 E3.69279
G1 X114.028 Y170.049 E3.73970
G1 F1800.000 E2.73970
G92 E0
G1 X113.487 Y165.611 F7800.000
G1 X113.886 Y170.679 F7800.000
G1 E1.00000 F1800.000
G1 X113.303 Y170.602 E1.05440 F540.000
G1 X112.653 Y170.333 E1.11946
G1 X112.095 Y169.905 E1.18451
G1 X111.667 Y169.347 E1.24956
G1 X111.398 Y168.697 E1.31460
G1 X111.306 Y168.000 E1.37966
G1 X111.398 Y167.303 E1.44472
G1 X111.667 Y166.653 E1.50976
G1 X112.095 Y166.095 E1.57480
G1 X112.653 Y165.667 E1.63986
G1 X113.303 Y165.398 E1.70491
G1 X114.000 Y165.306 E1.76995
G1 X114.530 Y165.376 E1.81936
G1 X114.697 Y165.398 E1.83500 F540.000
G1 X115.347 Y165.667 E1.90005
G1 X115.905 Y166.095 E1.96511
G1 X116.333 Y166.653 E2.03015
G1 X116.602 Y167.303 E2.09520
G1 X116.694 Y168.000 E2.16025
G1 X116.602 Y168.697 E2.22530
G1 X116.333 Y169.347 E2.29035
G1 X115.905 Y169.905 E2.35540
G1 X115.347 Y170.333 E2.42045
G1 X114.697 Y170.602 E2.48551
G1 X114.000 Y170.694 E2.55055
G1 X113.945 Y170.687 E2.55564
G1 X123.850 Y176.650 F7800.000
G1 X145.550 Y176.650 E4.56270 F378.000
G1 X145.550 Y187.150 E5.53385
G1 X123.850 Y187.150 E7.54090
G1 X123.850 Y176.710 E8.50651
G1 X123.850 Y176.250 F7800.000
G1 X123.214 Y176.014 F7800.000
G1 X146.186 Y176.014 E10.63114 F540.000
G1 X146.186 Y187.786 E11.71987
G1 X123.214 Y187.786 E13.84450
G1 X123.214 Y176.074 E14.92769
G1 X154.250 Y176.650 F7800.000
G1 X175.950 Y176.650 E16.93474 F378.000
G1 X175.950 Y187.150 E17.90589
G1 X154.250 Y187.150 E19.91295
G1 X154.250 Y176.710 E20.87855
G1 X154.250 Y176.250 F7800.000
G1 X153.614 Y176.014 F7800.000
G1 X176.586 Y176.014 E23.00318 F540.000
G1 X176.586 Y187.786 E24.09192
G1 X153.614 Y187.786 E26.21655
G1 X153.614 Y176.074 E27.29973
G1 F1800.000 E26.29973
G92 E0
G1 X192.664 Y188.836 F7800.000
G1 E1.00000 F1800.000
G1 X194.936 Y188.836 E1.21013 F378.000
G1 X195.638 Y190.997 E1.42027
G1 X193.800 Y192.333 E1.63040
G1 X191.962 Y190.997 E1.84053
G1 X192.645 Y188.894 E2.04512
G1 X192.706 Y188.439 F7800.000
G1 F1800.000 E1.04512
G92 E0
G1 X197.020 Y191.185 F7800.000
G1 E1.00000 F1800.000
G1 X197.267 Y190.728 E1.04804 F378.000
G1 X197.954 Y190.194 E1.12853
G1 X198.730 Y189.866 E1.20641
G1 X199.563 Y189.747 E1.28429
G1 X199.630 Y189.755 E1.29055
G1 X200.399 Y189.847 E1.36216 F378.000
G1 X201.182 Y190.158 E1.44004
G1 X201.858 Y190.659 E1.51792
G1 X202.384 Y191.317 E1.59580
G1 X202.722 Y192.088 E1.67367
G1 X202.852 Y192.920 E1.75155
G1 X202.764 Y193.757 E1.82943
G1 X202.463 Y194.544 E1.90731
G1 X201.971 Y195.227 E1.98518
G1 X201.320 Y195.761 E2.06306
G1 X200.554 Y196.110 E2.14094
G1 X199.724 Y196.251 E2.21882
G1 X199.656 Y196.244 E2.22508
G1 X198.885 Y196.173 E2.29670
G1 X198.095 Y195.884 E2.37457
G1 X197.405 Y195.401 E2.45245
G1 X196.862 Y194.757 E2.53033
G1 X196.834 Y194.696 E2.53659
G1 X196.503 Y193.996 E2.60821
G1 X196.351 Y193.167 E2.68608
G1 X196.419 Y192.300 E2.76657
G1 X196.992 Y191.238 E2.87815
G1 X199.778 Y189.384 F7800.000
G1 X187.027 Y169.778 F7800.000
G1 X186.531 Y169.983 E2.92773 F378.000
G1 X186.000 Y170.053 E2.97729
G1 X185.469 Y169.983 E3.02686
G1 X184.974 Y169.778 E3.07644
G1 X184.548 Y169.452 E3.12601
G1 X184.222 Y169.026 E3.17558
G1 X184.017 Y168.531 E3.22515
G1 X183.947 Y168.000 E3.27472
G1 X184.006 Y167.553 E3.31639
G1 X184.017 Y167.469 E3.32429
G1 X184.222 Y166.973 E3.37386
G1 X184.548 Y166.548 E3.42342
G1 X184.974 Y166.222 E3.47300
G1 X185.469 Y166.017 E3.52257
G1 X185.553 Y166.006 E3.53047
G1 X186.000 Y165.947 E3.57214 F378.000
G1 X186.531 Y166.017 E3.62170
G1 X187.027 Y166.222 E3.67128
