; generated by Slic3r 1.1.7 on 2014-10-30 at 01:21:22

; perimeters extrusion width = 0.40mm
; infill extrusion width = 0.42mm
; solid infill extrusion width = 0.42mm
; top infill extrusion width = 0.42mm
; support material extrusion width = 0.40mm

G21 ; set units to millimeters
M107
M104 S185 ; set temperature
G28
G29
G1 Z5 F5000 ; lift nozzle

M109 S185 ; wait for temperature to be reached
G90 ; use absolute coordinates
G92 E0
M82 ; use absolute distances for extrusion
M204 S900
G1 F1800.000 E-1.00000
G92 E0
G1 Z0.350 F7800.000
G1 X91.739 Y125.764 F7800.000
G1 E1.00000 F1800.000
G1 X94.380 Y124.718 E1.26272 F1080.000
G1 X94.778 Y124.645 E1.30019
G1 X96.084 Y124.527 E1.42150
G1 X178.628 Y124.527 E9.05605
G1 X205.003 Y124.624 E11.49548
G1 X205.442 Y124.696 E11.53669 F1080.000
G1 X207.717 Y125.473 E11.75900
G1 X209.614 Y126.950 E11.98130
G1 X210.925 Y128.964 E12.20361
G1 X211.532 Y131.871 E12.47827
G1 X211.531 Y161.716 E15.23867
G1 X211.133 Y164.086 E15.46097
G1 X209.985 Y166.198 E15.68328
G1 X208.211 Y167.820 E15.90558
G1 X206.005 Y168.774 E16.12789
G1 X204.670 Y168.975 E16.25282
G1 X168.855 Y170.987 E19.57053
G1 X122.166 Y170.967 E23.88886
G1 X95.148 Y168.967 E26.39461
G1 X92.814 Y168.396 E26.61692
G1 X90.793 Y167.095 E26.83922
G1 X89.306 Y165.206 E27.06153
G1 X88.517 Y162.936 E27.28384
G1 X88.414 Y161.716 E27.39709
G1 X88.415 Y131.865 E30.15800
G1 X88.814 Y129.495 E30.38030
G1 X89.964 Y127.384 E30.60261
G1 X91.695 Y125.804 E30.81937
G1 X92.175 Y126.281 F7800.000
G1 X92.348 Y126.136 E30.84027 F1080.000
G1 X94.494 Y125.343 E31.05183
G1 X94.892 Y125.270 E31.08931
G1 X96.084 Y125.162 E31.20001
G1 X178.628 Y125.162 E38.83455
G1 X204.899 Y125.251 E41.26443
G1 X205.339 Y125.323 E41.30564 F1080.000
G1 X207.505 Y126.083 E41.51794
G1 X209.283 Y127.534 E41.73023
G1 X210.460 Y129.505 E41.94253
G1 X210.896 Y131.871 E42.16503
G1 X210.895 Y161.716 E44.92543
G1 X210.498 Y163.977 E45.13773
G1 X209.355 Y165.967 E45.35003
G1 X207.601 Y167.448 E45.56232
G1 X204.634 Y168.341 E45.84894
G1 X168.855 Y170.351 E49.16334
G1 X122.213 Y170.333 E53.47733
G1 X95.195 Y168.333 E55.98309
G1 X92.970 Y167.770 E56.19538
G1 X91.070 Y166.483 E56.40768
G1 X89.721 Y164.625 E56.61997
G1 X89.049 Y161.716 E56.89618
G1 X89.050 Y131.866 E59.65705
G1 X89.449 Y129.605 E59.86935
G1 X90.594 Y127.616 E60.08165
G1 X92.130 Y126.320 E60.26749
G1 F1800.000 E59.26749
G92 E0
G1 X95.368 Y131.755 F7800.000
G1 E1.00000 F1800.000
G1 X95.516 Y131.579 E1.02128 F1080.000
G1 X96.070 Y131.480 E1.07337
G1 X203.834 Y131.480 E11.04054
G1 X204.427 Y131.576 E11.09614
G1 X204.578 Y131.754 E11.11774
G1 X204.577 Y161.847 E13.90109
G1 X204.391 Y162.034 E13.92544
G1 X187.928 Y162.034 E15.44811
G1 X187.841 Y162.008 E15.45651
G1 X186.144 Y160.927 E15.64258
G1 X185.774 Y160.927 E15.67687
G1 X184.077 Y162.008 E15.86294
G1 X183.990 Y162.034 E15.87134
G1 X175.965 Y162.034 E16.61360
G1 X168.877 Y164.034 E17.29471
G1 X158.912 Y164.034 E18.21643
G1 X158.820 Y164.005 E18.22532
G1 X156.288 Y162.273 E18.50905
G1 X156.235 Y162.213 E18.51649
G1 X154.903 Y159.575 E18.78982
G1 X154.892 Y159.454 E18.80105
G1 X154.971 Y159.204 E18.82525
G1 X155.391 Y158.495 E18.90148
G1 X157.272 Y155.030 E19.26612
G1 X157.354 Y154.956 E19.27632
G1 X162.837 Y152.728 E19.82373
G1 X163.053 Y152.406 E19.85961
G1 X163.053 Y151.553 E19.93845
G1 X162.681 Y151.181 E19.98715
G1 X129.184 Y151.181 E23.08533
G1 X128.812 Y151.553 E23.13404
G1 X128.812 Y152.675 E23.23781
G1 X128.858 Y152.842 E23.25382
G1 X131.970 Y158.019 E23.81252
G1 X132.749 Y159.205 E23.94368
G1 X132.803 Y159.492 E23.97069
G1 X132.787 Y159.586 E23.97955
G1 X131.460 Y162.213 E24.25169
G1 X131.407 Y162.273 E24.25913
G1 X128.875 Y164.005 E24.54286
G1 X128.784 Y164.034 E24.55175
G1 X122.667 Y164.034 E25.11751
G1 X122.596 Y164.017 E25.12420
G1 X118.591 Y162.066 E25.53629
G1 X118.450 Y162.034 E25.54967
G1 X115.929 Y162.034 E25.78286
G1 X115.842 Y162.008 E25.79125
G1 X114.145 Y160.928 E25.97730
G1 X113.774 Y160.928 E26.01156
G1 X112.078 Y162.008 E26.19760
G1 X111.991 Y162.034 E26.20599
G1 X95.553 Y162.034 E27.72629
G1 X95.367 Y161.847 E27.75064
G1 X95.368 Y131.815 E30.52833
G1 F1800.000 E29.52833
G92 E0
G1 X185.959 Y160.017 F7800.000
G1 E1.00000 F1800.000
G1 X183.843 Y161.366 E1.23213 F378.000
G1 X175.827 Y161.366 E1.97351
G1 X168.807 Y163.366 E2.64866
G1 X159.068 Y163.366 E3.54937
G1 X156.773 Y161.795 E3.80661
G1 X155.595 Y159.462 E4.04837
G1 X155.969 Y158.829 E4.11637
G1 X157.772 Y155.507 E4.46600
G1 X163.721 Y153.089 E5.05992
G1 X163.721 Y150.513 E5.29815
G1 X128.144 Y150.513 E8.58874
G1 X128.144 Y152.951 E8.81417
G1 X131.408 Y158.380 E9.40012
G1 X132.109 Y159.447 E9.51817
G1 X130.923 Y161.795 E9.76151
G1 X128.627 Y163.366 E10.01875
G1 X122.784 Y163.366 E10.55924
G1 X118.678 Y161.366 E10.98163
G1 X116.076 Y161.366 E11.22231
G1 X113.960 Y160.018 E11.45437
G1 X111.843 Y161.366 E11.68642
G1 X96.035 Y161.366 E13.14854
G1 X96.036 Y132.148 E15.85093
G1 X203.910 Y132.148 E25.82834
G1 X203.910 Y161.366 E28.53070
G1 X188.076 Y161.366 E29.99519
G1 X186.010 Y160.049 E30.22177
G1 X185.698 Y159.714 F7800.000
G1 X185.959 Y159.263 F7800.000
G1 X183.657 Y160.730 E30.47423 F540.000
G1 X175.738 Y160.730 E31.20668
G1 X168.718 Y162.730 E31.88183
G1 X164.544 Y162.730 E32.26782
G1 X164.463 Y162.321 E32.30641
G1 X165.433 Y161.918 E32.40357
G1 X166.095 Y161.410 E32.48071
G1 X166.603 Y160.749 E32.55784
G1 X166.922 Y159.978 E32.63501
G1 X167.030 Y159.152 E32.71212
G1 X166.922 Y158.325 E32.78923
G1 X166.602 Y157.554 E32.86641
G1 X166.094 Y156.892 E32.94366
G1 X165.432 Y156.386 E33.02067
G1 X164.664 Y156.068 E33.09756
G1 X163.893 Y155.965 E33.16953
G1 X159.246 Y156.043 E33.59944
G1 X159.161 Y155.629 E33.63850
G1 X164.357 Y153.517 E34.15724
G1 X164.357 Y149.878 E34.49382
G1 X127.508 Y149.878 E37.90199
G1 X127.508 Y153.127 E38.20252
G1 X129.173 Y155.896 E38.50133
G1 X128.933 Y156.174 E38.53535
G1 X128.677 Y156.068 E38.56095
G1 X127.924 Y155.966 E38.63126
G1 X123.795 Y155.966 E39.01318
G1 X123.031 Y156.068 E39.08438
G1 X122.264 Y156.386 E39.16128
G1 X121.602 Y156.892 E39.23829
G1 X121.093 Y157.554 E39.31554
G1 X120.773 Y158.325 E39.39272
G1 X120.666 Y159.152 E39.46982
G1 X120.773 Y159.978 E39.54694
G1 X121.093 Y160.749 E39.62410
G1 X121.601 Y161.410 E39.70123
G1 X122.183 Y161.857 E39.76911
G1 X121.941 Y162.248 E39.81163
G1 X118.825 Y160.730 E40.13226
G1 X116.261 Y160.730 E40.36938
G1 X113.960 Y159.265 E40.62174
G1 X111.658 Y160.730 E40.87410
G1 X96.671 Y160.730 E42.26030
G1 X96.671 Y132.783 E44.84511
G1 X203.274 Y132.784 E54.70494
G1 X203.274 Y160.730 E57.28972
G1 X188.261 Y160.730 E58.67829
G1 X186.010 Y159.295 E58.92518
G1 X166.389 Y159.152 F7800.000
G1 X166.303 Y159.813 E58.98685 F378.000
G1 X166.047 Y160.428 E59.04848
G1 X165.641 Y160.957 E59.11016
G1 X165.112 Y161.363 E59.17184
G1 X164.497 Y161.619 E59.23346
G1 X163.856 Y161.702 E59.29329
G1 X159.206 Y161.627 E59.72342
G1 X158.572 Y161.363 E59.78692
G1 X158.042 Y160.957 E59.84865
G1 X157.638 Y160.428 E59.91021
G1 X157.383 Y159.814 E59.97173
G1 X157.295 Y159.152 E60.03349
G1 X157.383 Y158.490 E60.09524
G1 X157.638 Y157.876 E60.15676
G1 X158.042 Y157.346 E60.21838
G1 X158.572 Y156.942 E60.27999
G1 X159.206 Y156.679 E60.34344
G1 X163.902 Y156.607 E60.77786
G1 X164.498 Y156.687 E60.83343 F378.000
G1 X165.112 Y156.942 E60.89497
G1 X165.641 Y157.346 E60.95653
G1 X166.047 Y157.875 E61.01825
G1 X166.303 Y158.490 E61.07988
G1 X166.381 Y159.092 E61.13600
G1 F1800.000 E60.13600
G92 E0
G1 X163.817 Y156.216 F7800.000
G1 X169.251 Y141.764 F7800.000
G1 E1.00000 F1800.000
G1 X168.629 Y141.522 E1.06175 F378.000
G1 X168.091 Y141.128 E1.12342
G1 X167.673 Y140.610 E1.18498
G1 X167.404 Y140.000 E1.24665
G1 X167.301 Y139.341 E1.30832
G1 X167.373 Y138.679 E1.36992
G1 X167.614 Y138.057 E1.43162
G1 X168.008 Y137.519 E1.49333
G1 X168.527 Y137.101 E1.55497
G1 X169.136 Y136.832 E1.61654
G1 X169.717 Y136.742 E1.67089
G1 X169.795 Y136.730 E1.67825 F378.000
G1 X170.458 Y136.802 E1.73989
G1 X171.079 Y137.043 E1.80154
G1 X171.617 Y137.435 E1.86312
G1 X172.036 Y137.955 E1.92486
G1 X172.304 Y138.566 E1.98655
G1 X172.406 Y139.223 E2.04805
G1 X172.334 Y139.886 E2.10975
G1 X172.094 Y140.508 E2.17141
G1 X171.700 Y141.044 E2.23296
G1 X171.181 Y141.462 E2.29457
G1 X170.571 Y141.731 E2.35624
G1 X169.913 Y141.833 E2.41787
G1 X169.311 Y141.770 E2.47386
G1 F1800.000 E1.47386
G92 E0
G1 X169.707 Y136.663 F7800.000
G1 X169.021 Y142.356 F7800.000
G1 E1.00000 F1800.000
G1 X168.321 Y142.084 E1.06950 F540.000
G1 X167.649 Y141.592 E1.14659
G1 X167.125 Y140.943 E1.22364
G1 X166.789 Y140.180 E1.30078
G1 X166.660 Y139.357 E1.37788
G1 X166.750 Y138.527 E1.45504
G1 X167.051 Y137.749 E1.53223
G1 X167.544 Y137.076 E1.60942
G1 X168.194 Y136.553 E1.68652
G1 X168.956 Y136.216 E1.76355
G1 X169.781 Y136.089 E1.84078
G1 X170.447 Y136.161 E1.90279
G1 X170.610 Y136.179 E1.91790 F540.000
G1 X171.387 Y136.480 E1.99497
G1 X172.060 Y136.971 E2.07202
G1 X172.583 Y137.622 E2.14932
G1 X172.920 Y138.386 E2.22651
G1 X173.047 Y139.208 E2.30348
G1 X172.956 Y140.037 E2.38059
G1 X172.656 Y140.815 E2.45773
G1 X172.164 Y141.488 E2.53483
G1 X171.515 Y142.010 E2.61186
G1 X170.751 Y142.347 E2.68903
G1 X169.929 Y142.474 E2.76605
G1 X169.077 Y142.378 E2.84529
G1 X185.959 Y139.559 F7800.000
G1 X189.947 Y142.102 E3.28270 F378.000
G1 X189.947 Y147.121 E3.74700
G1 X185.959 Y149.663 E4.18441
G1 X181.971 Y147.121 E4.62183
G1 X181.971 Y142.100 E5.08627
G1 X185.909 Y139.591 E5.51809
G1 X186.221 Y139.257 F7800.000
G1 X185.960 Y138.806 F7800.000
G1 X190.583 Y141.753 E6.02515 F540.000
G1 X190.583 Y147.470 E6.55397
G1 X185.959 Y150.417 E7.06109
G1 X181.336 Y147.470 E7.56822
G1 X181.336 Y141.751 E8.09718
G1 X185.909 Y138.838 E8.59872
G1 F1800.000 E7.59872
G92 E0
G1 X130.312 Y158.490 F7800.000
G1 E1.00000 F1800.000
G1 X130.401 Y159.152 E1.06174 F378.000
G1 X130.312 Y159.814 E1.12350
G1 X130.057 Y160.428 E1.18503
G1 X129.653 Y160.957 E1.24659
G1 X129.124 Y161.363 E1.30832
G1 X128.509 Y161.619 E1.36991
G1 X127.880 Y161.702 E1.42858
G1 X123.837 Y161.702 E1.80251
G1 X123.199 Y161.619 E1.86207
G1 X122.583 Y161.363 E1.92369
G1 X122.054 Y160.957 E1.98538
G1 X121.648 Y160.428 E2.04705
G1 X121.393 Y159.813 E2.10868
G1 X121.307 Y159.152 E2.17035
G1 X121.393 Y158.490 E2.23202
G1 X121.648 Y157.875 E2.29365
G1 X122.055 Y157.346 E2.35537
G1 X122.584 Y156.942 E2.41693
G1 X123.198 Y156.687 E2.47847
G1 X123.837 Y156.602 E2.53805
G1 X127.924 Y156.607 E2.91608
G1 X128.510 Y156.687 E2.97075 F378.000
G1 X129.124 Y156.942 E3.03224
G1 X129.653 Y157.346 E3.09385
G1 X130.057 Y157.876 E3.15547
G1 X130.289 Y158.435 E3.21144
G1 F1800.000 E2.21144
G92 E0
G1 X127.823 Y156.220 F7800.000
G1 X118.824 Y141.522 F7800.000
G1 E1.00000 F1800.000
G1 X118.202 Y141.764 E1.06176 F378.000
G1 X117.540 Y141.833 E1.12330
G1 X116.881 Y141.731 E1.18492
G1 X116.344 Y141.494 E1.23923
G1 X116.272 Y141.462 E1.24658
G1 X115.752 Y141.045 E1.30821
G1 X115.359 Y140.508 E1.36976
G1 X115.119 Y139.886 E1.43141
G1 X115.047 Y139.223 E1.49311
G1 X115.149 Y138.566 E1.55461
G1 X115.417 Y137.955 E1.61629
G1 X115.835 Y137.435 E1.67803
G1 X116.374 Y137.043 E1.73963
G1 X116.995 Y136.802 E1.80128
G1 X117.074 Y136.793 E1.80864
G1 X117.658 Y136.730 E1.86291 F378.000
G1 X118.317 Y136.832 E1.92462
G1 X118.926 Y137.101 E1.98619
G1 X119.445 Y137.519 E2.04783
G1 X119.839 Y138.057 E2.10954
G1 X120.080 Y138.679 E2.17124
G1 X120.152 Y139.341 E2.23284
G1 X120.048 Y140.000 E2.29452
G1 X119.780 Y140.610 E2.35618
G1 X119.362 Y141.128 E2.41774
G1 X118.872 Y141.487 E2.47387
G1 F1800.000 E1.47387
G92 E0
G1 X116.981 Y136.404 F7800.000
G1 X119.054 Y142.115 F7800.000
G1 E1.00000 F1800.000
G1 X118.352 Y142.387 E1.06960 F540.000
G1 X117.524 Y142.474 E1.14663
G1 X116.701 Y142.347 E1.22365
G1 X115.938 Y142.010 E1.30078
G1 X115.289 Y141.488 E1.37786
G1 X114.796 Y140.815 E1.45495
G1 X114.496 Y140.037 E1.53210
G1 X114.406 Y139.208 E1.60919
G1 X114.533 Y138.386 E1.68617
G1 X114.869 Y137.622 E1.76334
G1 X115.393 Y136.971 E1.84064
G1 X116.067 Y136.480 E1.91772
G1 X116.843 Y136.179 E1.99477
G1 X117.672 Y136.089 E2.07190
G1 X118.335 Y136.191 E2.13397
G1 X118.497 Y136.216 E2.14913 F540.000
G1 X119.259 Y136.553 E2.22616
G1 X119.909 Y137.076 E2.30325
G1 X120.401 Y137.749 E2.38044
G1 X120.703 Y138.527 E2.45763
G1 X120.793 Y139.357 E2.53478
G1 X120.663 Y140.180 E2.61190
G1 X120.328 Y140.944 E2.68903
G1 X119.804 Y141.592 E2.76609
G1 X119.110 Y142.093 E2.84530
G1 X116.662 Y142.787 F7800.000
G1 X127.067 Y153.192 E4.20631 F1080.000
G1 X127.067 Y152.289 E4.28981
G1 X117.679 Y142.901 E5.51777
G1 X118.488 Y142.807 E5.59309
G1 X127.067 Y151.386 E6.71526
G1 X127.067 Y150.483 E6.79875
G1 X119.139 Y142.555 E7.83585
G1 X119.701 Y142.214 E7.89664
G1 X127.067 Y149.581 E8.86021
G1 X127.826 Y149.437 E8.93165
G1 X120.197 Y141.807 E9.92961
G1 X120.600 Y141.308 E9.98898
G1 X128.729 Y149.437 E11.05226
G1 X129.632 Y149.437 E11.13576
G1 X120.910 Y140.715 E12.27660
G1 X121.133 Y140.035 E12.34279
G1 X130.535 Y149.437 E13.57258
G1 X131.437 Y149.437 E13.65608
G1 X121.222 Y139.221 E14.99228
G1 X121.015 Y138.112 E15.09669
G1 X132.340 Y149.437 E16.57805
G1 F1800.000 E15.57805
G92 E0
G1 X128.342 Y155.369 F7800.000
G1 E1.00000 F1800.000
G1 X106.197 Y133.224 E3.89659 F1080.000
G1 X105.294 Y133.224 E3.98009
G1 X127.595 Y155.525 E6.89708
G1 X126.692 Y155.525 E6.98058
G1 X104.391 Y133.224 E9.89758
G1 X103.489 Y133.224 E9.98108
G1 X125.790 Y155.525 E12.89807
G1 X124.887 Y155.525 E12.98157
G1 X102.586 Y133.224 E15.89857
G1 X101.683 Y133.224 E15.98207
G1 X123.984 Y155.525 E18.89906
G1 X123.162 Y155.606 E18.97548
G1 X100.780 Y133.224 E21.90300
G1 X99.878 Y133.224 E21.98650
G1 X122.475 Y155.821 E24.94225
G1 X121.877 Y156.127 E25.00431
G1 X98.975 Y133.224 E27.99999
G1 X98.072 Y133.224 E28.08349
G1 X121.365 Y156.517 E31.13029
G1 X120.955 Y157.010 E31.18957
G1 X97.169 Y133.224 E34.30080
G1 X97.111 Y134.069 E34.37912
G1 X120.610 Y157.568 E37.45280
G1 X120.345 Y158.206 E37.51669
G1 X97.111 Y134.972 E40.55573
G1 X97.111 Y135.875 E40.63923
G1 X120.241 Y159.004 E43.66456
G1 X120.331 Y159.997 E43.75682
G1 X97.111 Y136.777 E46.79401
G1 X97.111 Y137.680 E46.87751
G1 X120.475 Y161.044 E49.93349
G1 X118.818 Y160.289 F7800.000
G1 X97.111 Y138.583 E52.77272 F1080.000
G1 X97.111 Y139.486 E52.85622
G1 X117.915 Y160.289 E55.57736
G1 X117.012 Y160.289 E55.66086
G1 X97.111 Y140.388 E58.26392
G1 X97.111 Y141.291 E58.34742
G1 X115.619 Y159.798 E60.76818
G1 X113.776 Y158.859 F7800.000
G1 X97.111 Y142.194 E62.94796 F1080.000
G1 X97.111 Y143.097 E63.03146
G1 X113.225 Y159.210 E65.13910
G1 X112.673 Y159.561 E65.19958
G1 X97.111 Y144.000 E67.23507
G1 X97.111 Y144.902 E67.31857
G1 X112.122 Y159.912 E69.28191
G1 X111.570 Y160.264 E69.34239
G1 X97.111 Y145.805 E71.23359
G1 X97.111 Y146.708 E71.31709
G1 X110.693 Y160.289 E73.09357
G1 X109.790 Y160.289 E73.17707
G1 X97.111 Y147.611 E74.83546
G1 X97.111 Y148.513 E74.91896
G1 X108.887 Y160.289 E76.45927
G1 X107.985 Y160.289 E76.54277
G1 X97.111 Y149.416 E77.96500
G1 X97.111 Y150.319 E78.04850
G1 X107.082 Y160.289 E79.35264
G1 X106.179 Y160.289 E79.43614
G1 X97.111 Y151.222 E80.62220
G1 X97.111 Y152.124 E80.70570
G1 X105.276 Y160.289 E81.77368
G1 X104.374 Y160.289 E81.85718
G1 X97.111 Y153.027 E82.80708
G1 X97.111 Y153.930 E82.89057
G1 X103.471 Y160.289 E83.72239
G1 X102.568 Y160.289 E83.80588
G1 X97.111 Y154.833 E84.51962
G1 X97.111 Y155.735 E84.60311
G1 X101.665 Y160.289 E85.19876
G1 X100.762 Y160.289 E85.28226
G1 X97.111 Y156.638 E85.75982
G1 X97.111 Y157.541 E85.84332
G1 X99.860 Y160.289 E86.20280
G1 X98.957 Y160.289 E86.28630
G1 X97.111 Y158.444 E86.52770
G1 X97.111 Y159.347 E86.61119
G1 X98.054 Y160.289 E86.73451
G1 X97.151 Y160.289 E86.81801
G1 X97.111 Y160.249 E86.82324
G1 X114.094 Y140.219 F7800.000
G1 X107.100 Y133.224 E87.73811 F1080.000
G1 X108.003 Y133.224 E87.82160
G1 X113.963 Y139.185 E88.60126
G1 X114.084 Y138.403 E88.67441
G1 X108.905 Y133.224 E89.35184
G1 X109.808 Y133.224 E89.43533
G1 X114.332 Y137.748 E90.02709
G1 X114.662 Y137.176 E90.08822
G1 X110.711 Y133.224 E90.60510
G1 X111.614 Y133.224 E90.68860
G1 X115.065 Y136.676 E91.14003
G1 X115.581 Y136.289 E91.19967
G1 X112.516 Y133.224 E91.60050
G1 X113.419 Y133.224 E91.68400
