; generated by Slic3r 1.1.7 on 2014-11-01 at 23:35:25

; perimeters extrusion width = 0.40mm
; infill extrusion width = 0.42mm
; solid infill extrusion width = 0.42mm
; top infill extrusion width = 0.42mm
; support material extrusion width = 0.40mm

G21 ; set units to millimeters
M107
M104 S185 ; set temperature
G28
G29
G1 Z5 F5000 ; lift nozzle

M109 S185 ; wait for temperature to be reached
G90 ; use absolute coordinates
G92 E0
M82 ; use absolute distances for extrusion
M204 S900
G1 F1800.000 E-1.00000
G92 E0
G1 Z0.350 F7800.000
G1 X134.756 Y134.979 F7800.000
G1 E1.00000 F1800.000
G1 X142.394 Y127.354 E1.99824 F1080.000
G1 X143.054 Y126.804 E2.07769
G1 X143.756 Y126.303 E2.15743
G1 X144.492 Y125.858 E2.23700
G1 X145.277 Y125.463 E2.31826
G1 X146.055 Y125.141 E2.39613
G1 X146.873 Y124.873 E2.47575
G1 X147.707 Y124.669 E2.55521
G1 X148.558 Y124.527 E2.63495
G1 X149.414 Y124.450 E2.71442
G1 X150.275 Y124.438 E2.79407
G1 X151.133 Y124.492 E2.87361
G1 X151.986 Y124.610 E2.95329 F1080.000
G1 X152.825 Y124.792 E3.03266
G1 X153.652 Y125.037 E3.11243
G1 X154.456 Y125.345 E3.19205
G1 X155.232 Y125.710 E3.27139
G1 X155.998 Y126.146 E3.35289
G1 X156.696 Y126.616 E3.43079
G1 X157.372 Y127.149 E3.51032
G1 X157.957 Y127.682 E3.58357
G1 X172.204 Y141.929 E5.44710
G1 X172.803 Y142.571 E5.52829
G1 X173.330 Y143.228 E5.60623
G1 X173.816 Y143.938 E5.68581
G1 X174.247 Y144.683 E5.76541
G1 X174.620 Y145.458 E5.84491
G1 X174.934 Y146.257 E5.92437
G1 X175.186 Y147.079 E6.00388
G1 X175.376 Y147.920 E6.08364
G1 X175.501 Y148.772 E6.16328
G1 X175.562 Y149.632 E6.24295
G1 X175.556 Y150.510 E6.32416
G1 X175.488 Y151.347 E6.40189
G1 X175.353 Y152.200 E6.48170
G1 X175.155 Y153.037 E6.56127
G1 X174.895 Y153.856 E6.64076
G1 X174.564 Y154.671 E6.72212
G1 X174.191 Y155.424 E6.79984
G1 X173.752 Y156.165 E6.87950
G1 X173.258 Y156.871 E6.95919
G1 X172.714 Y157.535 E7.03860
G1 X172.266 Y158.015 E7.09931
G1 X157.921 Y172.354 E8.97529
G1 X157.266 Y172.942 E9.05671
G1 X156.599 Y173.456 E9.13459
G1 X155.881 Y173.928 E9.21407
G1 X155.128 Y174.346 E9.29377
G1 X154.346 Y174.705 E9.37335
G1 X153.538 Y175.003 E9.45297
G1 X152.713 Y175.239 E9.53234
G1 X151.850 Y175.416 E9.61384
G1 X151.017 Y175.522 E9.69150
G1 X150.155 Y175.567 E9.77132
G1 X149.295 Y175.546 E9.85091
G1 X148.439 Y175.460 E9.93048
G1 X147.591 Y175.310 E10.01008
G1 X146.761 Y175.097 E10.08940
G1 X145.944 Y174.820 E10.16921
G1 X145.155 Y174.484 E10.24852
G1 X144.388 Y174.086 E10.32840
G1 X143.656 Y173.633 E10.40799
G1 X142.960 Y173.126 E10.48760
G1 X142.306 Y172.569 E10.56716
G1 X141.932 Y172.212 E10.61493
G1 X127.496 Y157.765 E12.50389
G1 X126.922 Y157.102 E12.58507
G1 X126.420 Y156.424 E12.66310
G1 X125.961 Y155.696 E12.74262
G1 X125.559 Y154.936 E12.82222
G1 X125.215 Y154.147 E12.90178
G1 X124.932 Y153.336 E12.98127
G1 X124.707 Y152.485 E13.06261
G1 X124.553 Y151.657 E13.14057
G1 X124.460 Y150.801 E13.22015
G1 X124.433 Y149.924 E13.30137
G1 X124.469 Y149.082 E13.37931
G1 X124.571 Y148.228 E13.45885
G1 X124.738 Y147.383 E13.53852
G1 X124.967 Y146.554 E13.61807
G1 X125.259 Y145.745 E13.69760
G1 X125.611 Y144.959 E13.77725
G1 X126.022 Y144.204 E13.85676
G1 X126.489 Y143.480 E13.93645
G1 X127.008 Y142.795 E14.01596
G1 X127.576 Y142.153 E14.09521
G1 X127.845 Y141.879 E14.13067
G1 X134.714 Y135.021 E15.02845
G1 X135.205 Y135.428 F7800.000
G1 X142.813 Y127.832 E16.02284 F1080.000
G1 X143.435 Y127.312 E16.09785
G1 X144.098 Y126.839 E16.17313
G1 X144.793 Y126.418 E16.24826
G1 X145.534 Y126.044 E16.32506
G1 X146.267 Y125.740 E16.39848
G1 X147.040 Y125.487 E16.47365
G1 X147.827 Y125.293 E16.54867
G1 X148.630 Y125.158 E16.62396
G1 X149.438 Y125.085 E16.69899
G1 X150.251 Y125.074 E16.77419
G1 X151.061 Y125.123 E16.84928
G1 X151.867 Y125.234 E16.92450 F1080.000
G1 X152.659 Y125.405 E16.99945
G1 X153.439 Y125.637 E17.07475
G1 X154.199 Y125.926 E17.14991
G1 X154.932 Y126.271 E17.22483
G1 X155.656 Y126.682 E17.30186
G1 X156.315 Y127.125 E17.37531
G1 X156.953 Y127.627 E17.45040
G1 X157.508 Y128.132 E17.51975
G1 X171.751 Y142.374 E19.38272
G1 X172.317 Y142.980 E19.45947
G1 X172.815 Y143.600 E19.53295
G1 X173.274 Y144.270 E19.60809
G1 X173.682 Y144.973 E19.68323
G1 X174.034 Y145.704 E19.75829
G1 X174.331 Y146.459 E19.83332
G1 X174.570 Y147.234 E19.90839
G1 X174.749 Y148.028 E19.98368
G1 X174.870 Y148.851 E20.06060
G1 X174.926 Y149.644 E20.13408
G1 X174.923 Y150.455 E20.20909
G1 X174.858 Y151.263 E20.28414
G1 X174.731 Y152.068 E20.35948
G1 X174.545 Y152.859 E20.43460
G1 X174.300 Y153.632 E20.50966
G1 X173.988 Y154.403 E20.58655
G1 X173.637 Y155.113 E20.65984
G1 X173.223 Y155.813 E20.73505
G1 X172.757 Y156.480 E20.81028
G1 X172.244 Y157.107 E20.88526
G1 X171.817 Y157.565 E20.94317
G1 X157.485 Y171.892 E22.81750
G1 X156.866 Y172.449 E22.89446
G1 X156.238 Y172.934 E22.96789
G1 X155.560 Y173.380 E23.04293
G1 X154.849 Y173.775 E23.11817
G1 X154.111 Y174.114 E23.19330
G1 X153.349 Y174.397 E23.26847
G1 X152.570 Y174.620 E23.34341
G1 X151.754 Y174.788 E23.42044
G1 X150.969 Y174.889 E23.49367
G1 X150.155 Y174.931 E23.56902
G1 X149.343 Y174.912 E23.64417
G1 X148.535 Y174.832 E23.71929
G1 X147.735 Y174.691 E23.79444
G1 X146.950 Y174.490 E23.86934
G1 X146.178 Y174.229 E23.94467
G1 X145.433 Y173.912 E24.01956
G1 X144.709 Y173.538 E24.09496
G1 X144.018 Y173.111 E24.17010
G1 X143.361 Y172.633 E24.24527
G1 X142.742 Y172.107 E24.32037
G1 X142.382 Y171.762 E24.36647
G1 X127.966 Y157.338 E26.25265
G1 X127.423 Y156.711 E26.32939
G1 X126.949 Y156.072 E26.40296
G1 X126.516 Y155.385 E26.47804
G1 X126.135 Y154.668 E26.55319
G1 X125.810 Y153.923 E26.62830
G1 X125.542 Y153.157 E26.70335
G1 X125.329 Y152.354 E26.78024
G1 X125.183 Y151.573 E26.85374
G1 X125.095 Y150.765 E26.92887
G1 X125.068 Y149.936 E27.00565
G1 X125.102 Y149.142 E27.07914
G1 X125.198 Y148.336 E27.15423
G1 X125.354 Y147.537 E27.22945
G1 X125.570 Y146.755 E27.30455
G1 X125.845 Y145.991 E27.37964
G1 X126.177 Y145.249 E27.45483
G1 X126.564 Y144.535 E27.52990
G1 X127.004 Y143.851 E27.60514
G1 X127.494 Y143.204 E27.68019
G1 X128.030 Y142.598 E27.75503
G1 X135.162 Y135.471 E28.68763
G1 F1800.000 E27.68763
G92 E0
G1 X135.589 Y145.591 F7800.000
G1 E1.00000 F1800.000
G1 X135.808 Y145.584 E1.02020 F1080.000
G1 X136.462 Y145.633 E1.08089 F1080.000
G1 X136.790 Y145.696 E1.11182
G1 X137.113 Y145.783 E1.14275
G1 X137.440 Y145.899 E1.17479
G1 X138.029 Y146.186 E1.23547
G1 X138.311 Y146.366 E1.26640
G1 X138.579 Y146.566 E1.29733
G1 X138.840 Y146.794 E1.32937
G1 X139.281 Y147.280 E1.39006
G1 X139.477 Y147.551 E1.42098
G1 X139.658 Y147.846 E1.45303
G1 X139.935 Y148.441 E1.51371
G1 X140.044 Y148.770 E1.54574
G1 X140.125 Y149.094 E1.57667
G1 X140.184 Y149.448 E1.60982
G1 X140.219 Y150.079 E1.66829
G1 X140.199 Y150.425 E1.70032
G1 X140.154 Y150.756 E1.73125
G1 X139.995 Y151.393 E1.79195
G1 X139.873 Y151.717 E1.82398
G1 X139.719 Y152.041 E1.85713
G1 X139.389 Y152.580 E1.91560
G1 X139.176 Y152.853 E1.94763
G1 X138.951 Y153.100 E1.97856
G1 X138.457 Y153.532 E2.03926
G1 X138.182 Y153.723 E2.07018
G1 X137.894 Y153.892 E2.10111
G1 X137.583 Y154.044 E2.13314
G1 X136.964 Y154.264 E2.19383
G1 X136.639 Y154.339 E2.22476
G1 X136.296 Y154.391 E2.25679
G1 X135.963 Y154.416 E2.28772
G1 X135.628 Y154.416 E2.31866
G1 X134.976 Y154.342 E2.37935
G1 X134.639 Y154.264 E2.41137
G1 X134.020 Y154.044 E2.47207
G1 X133.720 Y153.898 E2.50300
G1 X133.421 Y153.723 E2.53504
G1 X133.146 Y153.532 E2.56597
G1 X132.652 Y153.100 E2.62666
G1 X132.419 Y152.844 E2.65869
G1 X132.214 Y152.580 E2.68962
G1 X131.872 Y152.020 E2.75031
G1 X131.730 Y151.717 E2.78124
G1 X131.608 Y151.393 E2.81327
G1 X131.515 Y151.072 E2.84420
G1 X131.447 Y150.744 E2.87513
G1 X131.385 Y150.091 E2.93582
G1 X131.391 Y149.745 E2.96786
G1 X131.423 Y149.412 E2.99879
G1 X131.480 Y149.082 E3.02971
G1 X131.664 Y148.453 E3.09040
G1 X131.798 Y148.133 E3.12245
G1 X132.119 Y147.561 E3.18313
G1 X132.314 Y147.289 E3.21406
G1 X132.537 Y147.024 E3.24608
G1 X132.772 Y146.786 E3.27702
G1 X133.282 Y146.373 E3.33772
G1 X133.563 Y146.193 E3.36864
G1 X133.869 Y146.029 E3.40067
G1 X134.197 Y145.886 E3.43382
G1 X134.801 Y145.698 E3.49229
G1 X135.141 Y145.633 E3.52433
G1 X135.529 Y145.594 E3.56042
G1 F1800.000 E2.56042
G92 E0
G1 X159.820 Y149.412 F7800.000
G1 E1.00000 F1800.000
G1 X159.877 Y149.082 E1.03093 F1080.000
G1 X160.061 Y148.453 E1.09162
G1 X160.190 Y148.144 E1.12254
G1 X160.348 Y147.836 E1.15457
G1 X160.523 Y147.551 E1.18550
G1 X160.926 Y147.033 E1.24619
G1 X161.160 Y146.794 E1.27712
G1 X161.411 Y146.574 E1.30804
G1 X161.679 Y146.373 E1.33897
G1 X161.971 Y146.186 E1.37102
G1 X162.266 Y146.029 E1.40193
G1 X162.594 Y145.886 E1.43508
G1 X163.198 Y145.698 E1.49355
G1 X163.526 Y145.635 E1.52447
G1 X163.870 Y145.596 E1.55651
G1 X164.205 Y145.584 E1.58744
G1 X164.539 Y145.597 E1.61836 F1080.000
G1 X164.871 Y145.635 E1.64929
G1 X165.199 Y145.698 E1.68020
G1 X165.522 Y145.786 E1.71114
G1 X165.837 Y145.899 E1.74206
G1 X166.142 Y146.034 E1.77297
G1 X166.437 Y146.193 E1.80390
G1 X166.718 Y146.373 E1.83484
G1 X166.986 Y146.574 E1.86575
G1 X167.237 Y146.794 E1.89669
G1 X167.471 Y147.033 E1.92760
G1 X167.686 Y147.289 E1.95854
G1 X167.881 Y147.561 E1.98946
G1 X168.055 Y147.846 E2.02039
G1 X168.207 Y148.144 E2.05130
G1 X168.336 Y148.452 E2.08222
G1 X168.441 Y148.770 E2.11314
G1 X168.522 Y149.094 E2.14408
G1 X168.609 Y149.745 E2.20478
G1 X168.616 Y150.079 E2.23570
G1 X168.597 Y150.413 E2.26662
G1 X168.553 Y150.744 E2.29755
G1 X168.485 Y151.072 E2.32847
G1 X168.392 Y151.393 E2.35939
G1 X168.274 Y151.706 E2.39032
G1 X168.134 Y152.009 E2.42124
G1 X167.971 Y152.301 E2.45217
G1 X167.786 Y152.580 E2.48310
G1 X167.581 Y152.844 E2.51402
G1 X167.356 Y153.091 E2.54494
G1 X167.113 Y153.321 E2.57587
G1 X166.854 Y153.532 E2.60679
G1 X166.579 Y153.723 E2.63771
G1 X166.291 Y153.892 E2.66865
G1 X165.991 Y154.039 E2.69956
G1 X165.680 Y154.163 E2.73050
G1 X165.361 Y154.264 E2.76141
G1 X165.036 Y154.339 E2.79234
G1 X164.705 Y154.390 E2.82326
G1 X164.372 Y154.416 E2.85419
G1 X164.037 Y154.416 E2.88512
G1 X163.704 Y154.392 E2.91604
G1 X163.373 Y154.342 E2.94696
G1 X163.047 Y154.267 E2.97789
G1 X162.728 Y154.167 E3.00881
G1 X162.417 Y154.044 E3.03973
G1 X162.117 Y153.898 E3.07067
G1 X161.828 Y153.729 E3.10159
G1 X161.553 Y153.539 E3.13251
G1 X161.293 Y153.329 E3.16344
G1 X161.049 Y153.100 E3.19436
G1 X160.824 Y152.853 E3.22528
G1 X160.618 Y152.590 E3.25621
G1 X160.433 Y152.311 E3.28714
G1 X160.269 Y152.020 E3.31806
G1 X160.127 Y151.717 E3.34899
G1 X160.009 Y151.404 E3.37991
G1 X159.915 Y151.083 E3.41083
G1 X159.846 Y150.756 E3.44176
G1 X159.801 Y150.425 E3.47268
G1 X159.782 Y150.091 E3.50360
G1 X159.814 Y149.472 E3.56098
G1 F1800.000 E2.56098
G92 E0
G1 X152.646 Y139.342 F7800.000
G1 E1.00000 F1800.000
G1 X152.092 Y139.695 E1.06070 F1080.000
G1 X151.781 Y139.847 E1.09273
G1 X151.163 Y140.066 E1.15342
G1 X150.801 Y140.148 E1.18768
G1 X150.161 Y140.219 E1.24727
G1 X149.505 Y140.194 E1.30796
G1 X149.163 Y140.142 E1.34000
G1 X148.530 Y139.970 E1.40069
G1 X148.208 Y139.842 E1.43272
G1 X147.629 Y139.532 E1.49342
G1 X147.345 Y139.335 E1.52547
G1 X146.851 Y138.903 E1.58616
G1 X146.618 Y138.647 E1.61819
G1 X146.234 Y138.114 E1.67889
G1 X146.065 Y137.812 E1.71093
G1 X145.924 Y137.509 E1.74185
G1 X145.807 Y137.196 E1.77277
G1 X145.647 Y136.559 E1.83347
G1 X145.601 Y136.216 E1.86551
G1 X145.583 Y135.882 E1.89642
G1 X145.590 Y135.548 E1.92736
G1 X145.676 Y134.897 E1.98805
G1 X145.761 Y134.561 E2.02010
G1 X145.992 Y133.947 E2.08078
G1 X146.149 Y133.639 E2.11282
G1 X146.513 Y133.092 E2.17352
G1 X146.753 Y132.810 E2.20776
G1 X147.222 Y132.369 E2.26735
G1 X147.762 Y131.996 E2.32805
G1 X148.067 Y131.832 E2.36008
G1 X148.677 Y131.589 E2.42078
G1 X149.011 Y131.499 E2.45281
G1 X149.660 Y131.400 E2.51351
G1 X150.006 Y131.387 E2.54555
G1 X150.340 Y131.400 E2.57647 F1080.000
G1 X150.672 Y131.438 E2.60740
G1 X151.000 Y131.501 E2.63832
G1 X151.323 Y131.589 E2.66925
G1 X151.638 Y131.702 E2.70018
G1 X151.944 Y131.837 E2.73109
G1 X152.238 Y131.995 E2.76201
G1 X152.520 Y132.176 E2.79295
G1 X152.787 Y132.377 E2.82387
G1 X153.038 Y132.597 E2.85481
G1 X153.272 Y132.836 E2.88572
G1 X153.487 Y133.092 E2.91665
G1 X153.682 Y133.364 E2.94757
G1 X153.856 Y133.649 E2.97850
G1 X154.008 Y133.947 E3.00942
G1 X154.137 Y134.255 E3.04034
G1 X154.243 Y134.573 E3.07126
G1 X154.324 Y134.897 E3.10219
G1 X154.380 Y135.227 E3.13311
G1 X154.411 Y135.560 E3.16405
G1 X154.417 Y135.894 E3.19496
G1 X154.397 Y136.228 E3.22588
G1 X154.353 Y136.559 E3.25682
G1 X154.283 Y136.886 E3.28774
G1 X154.189 Y137.207 E3.31866
G1 X154.071 Y137.520 E3.34959
G1 X153.930 Y137.823 E3.38051
G1 X153.766 Y138.114 E3.41143
G1 X153.580 Y138.393 E3.44237
G1 X153.374 Y138.656 E3.47328
G1 X153.149 Y138.903 E3.50421
G1 X152.693 Y139.305 E3.56047
G1 F1800.000 E2.56047
G92 E0
G1 X151.000 Y145.698 F7800.000
G1 E1.00000 F1800.000
G1 X151.627 Y145.894 E1.06070 F1080.000
G1 X151.933 Y146.029 E1.09162
G1 X152.238 Y146.193 E1.12366
G1 X152.520 Y146.373 E1.15459
G1 X153.030 Y146.786 E1.21529
G1 X153.264 Y147.024 E1.24621
G1 X153.480 Y147.280 E1.27713
G1 X153.682 Y147.561 E1.30917
G1 X153.856 Y147.846 E1.34010
G1 X154.133 Y148.441 E1.40079
G1 X154.243 Y148.770 E1.43282
G1 X154.324 Y149.094 E1.46375
G1 X154.382 Y149.448 E1.49690
G1 X154.417 Y150.079 E1.55537
G1 X154.397 Y150.425 E1.58740
G1 X154.353 Y150.756 E1.61833
G1 X154.283 Y151.083 E1.64925
G1 X154.076 Y151.706 E1.70994
G1 X153.930 Y152.020 E1.74198
G1 X153.766 Y152.311 E1.77290
G1 X153.580 Y152.590 E1.80384
G1 X153.158 Y153.091 E1.86453
G1 X152.906 Y153.329 E1.89656
G1 X152.646 Y153.539 E1.92749
G1 X152.350 Y153.742 E1.96063
G1 X151.792 Y154.039 E2.01910
G1 X151.482 Y154.163 E2.05003
G1 X151.151 Y154.267 E2.08206
G1 X150.801 Y154.345 E2.11521
G1 X150.173 Y154.416 E2.17368
G1 X149.839 Y154.416 E2.20461
G1 X149.493 Y154.390 E2.23665
G1 X149.163 Y154.339 E2.26757
G1 X148.530 Y154.167 E2.32826
G1 X148.208 Y154.039 E2.36029
G1 X147.908 Y153.892 E2.39123
G1 X147.354 Y153.539 E2.45192
G1 X147.094 Y153.329 E2.48285
G1 X146.851 Y153.100 E2.51377
G1 X146.618 Y152.844 E2.54580
G1 X146.413 Y152.580 E2.57673
G1 X146.070 Y152.020 E2.63743
G1 X145.929 Y151.717 E2.66835
G1 X145.807 Y151.393 E2.70038
G1 X145.647 Y150.756 E2.76109
G1 X145.603 Y150.425 E2.79201
G1 X145.583 Y150.079 E2.82404
G1 X145.590 Y149.745 E2.85497
G1 X145.676 Y149.094 E2.91567
G1 X145.757 Y148.770 E2.94659
G1 X145.863 Y148.453 E2.97752
G1 X145.997 Y148.133 E3.00956
G1 X146.318 Y147.561 E3.07024
G1 X146.513 Y147.289 E3.10117
G1 X146.736 Y147.024 E3.13319
G1 X146.970 Y146.786 E3.16413
G1 X147.242 Y146.552 E3.19728
G1 X147.762 Y146.193 E3.25575
G1 X148.067 Y146.029 E3.28778
G1 X148.373 Y145.894 E3.31871
G1 X148.999 Y145.698 E3.37940
G1 X149.328 Y145.635 E3.41033
G1 X149.672 Y145.596 E3.44236
G1 X150.006 Y145.584 E3.47330
G1 X150.340 Y145.597 E3.50421 F1080.000
G1 X150.942 Y145.687 E3.56047
G1 F1800.000 E2.56047
G92 E0
G1 X150.328 Y159.793 F7800.000
G1 E1.00000 F1800.000
G1 X150.660 Y159.830 E1.03093 F1080.000
G1 X151.000 Y159.895 E1.06296
G1 X151.627 Y160.091 E1.12366
G1 X151.933 Y160.226 E1.15458
G1 X152.238 Y160.390 E1.18661
G1 X152.520 Y160.570 E1.21755
G1 X153.030 Y160.983 E1.27824
G1 X153.264 Y161.221 E1.30916
G1 X153.480 Y161.477 E1.34009
G1 X153.682 Y161.758 E1.37213
G1 X154.003 Y162.330 E1.43282
G1 X154.137 Y162.650 E1.46485
G1 X154.249 Y162.990 E1.49801
G1 X154.378 Y163.609 E1.55647
G1 X154.410 Y163.942 E1.58740
G1 X154.417 Y164.288 E1.61943
G1 X154.355 Y164.941 E1.68013
G1 X154.286 Y165.269 E1.71106
G1 X154.189 Y165.601 E1.74309
G1 X154.071 Y165.914 E1.77401
G1 X153.918 Y166.238 E1.80716
G1 X153.587 Y166.777 E1.86563
G1 X153.374 Y167.050 E1.89766
G1 X153.132 Y167.314 E1.93082
G1 X152.655 Y167.729 E1.98928
G1 X152.371 Y167.926 E2.02132
G1 X151.792 Y168.236 E2.08201
G1 X151.482 Y168.360 E2.11295
G1 X151.151 Y168.464 E2.14497
G1 X150.825 Y168.539 E2.17589
G1 X150.471 Y168.590 E2.20904
G1 X149.839 Y168.613 E2.26752
G1 X149.505 Y168.589 E2.29845
G1 X149.163 Y168.536 E2.33048
G1 X148.530 Y168.364 E2.39118
G1 X148.208 Y168.237 E2.42320
G1 X147.629 Y167.926 E2.48391
G1 X147.354 Y167.736 E2.51483
G1 X147.094 Y167.526 E2.54576
G1 X146.842 Y167.288 E2.57780
