( Made using CamBam - http://www.cambam.co.uk )
( 1010_end_cutout 5/31/2015 5:30:16 PM )
( T0 : 0.25 )
G20 G90 G64 G40
G0 Z0.125
( T0 : 0.25 )
T0 M6
( Pocket1 )
G17
M3 S1000
G0 X0.505 Y-0.402
G0 Z0.0625
G1 F5.0 Z-0.015
G2 F20.0 X0.4975 Y-0.4063 I-0.005 J0.0
G2 Y-0.3977 I0.0025 J0.0043
G2 X0.505 Y-0.402 I0.0025 J-0.0043
G1 F5.0 X0.555
G2 F20.0 X0.4725 Y-0.4496 I-0.055 J0.0
G2 Y-0.3544 I0.0275 J0.0476
G2 X0.555 Y-0.402 I0.0275 J-0.0476
G1 F5.0 X0.655
G2 F20.0 X0.4225 Y-0.5362 I-0.155 J0.0
G2 Y-0.2678 I0.0775 J0.1342
G2 X0.655 Y-0.402 I0.0775 J-0.1342
G1 F5.0 X0.505
G1 Z-0.03
G2 F20.0 X0.4975 Y-0.4063 I-0.005 J0.0
G2 Y-0.3977 I0.0025 J0.0043
G2 X0.505 Y-0.402 I0.0025 J-0.0043
G1 F5.0 X0.555
G2 F20.0 X0.4725 Y-0.4496 I-0.055 J0.0
G2 Y-0.3544 I0.0275 J0.0476
G2 X0.555 Y-0.402 I0.0275 J-0.0476
G1 F5.0 X0.655
G2 F20.0 X0.4225 Y-0.5362 I-0.155 J0.0
G2 Y-0.2678 I0.0775 J0.1342
G2 X0.655 Y-0.402 I0.0775 J-0.1342
G1 F5.0 X0.505
G1 Z-0.045
G2 F20.0 X0.4975 Y-0.4063 I-0.005 J0.0
G2 Y-0.3977 I0.0025 J0.0043
G2 X0.505 Y-0.402 I0.0025 J-0.0043
G1 F5.0 X0.555
G2 F20.0 X0.4725 Y-0.4496 I-0.055 J0.0
G2 Y-0.3544 I0.0275 J0.0476
G2 X0.555 Y-0.402 I0.0275 J-0.0476
G1 F5.0 X0.655
G2 F20.0 X0.4225 Y-0.5362 I-0.155 J0.0
G2 Y-0.2678 I0.0775 J0.1342
G2 X0.655 Y-0.402 I0.0775 J-0.1342
G1 F5.0 X0.505
G1 Z-0.06
G2 F20.0 X0.4975 Y-0.4063 I-0.005 J0.0
G2 Y-0.3977 I0.0025 J0.0043
G2 X0.505 Y-0.402 I0.0025 J-0.0043
G1 F5.0 X0.555
G2 F20.0 X0.4725 Y-0.4496 I-0.055 J0.0
G2 Y-0.3544 I0.0275 J0.0476
G2 X0.555 Y-0.402 I0.0275 J-0.0476
G1 F5.0 X0.655
G2 F20.0 X0.4225 Y-0.5362 I-0.155 J0.0
G2 Y-0.2678 I0.0775 J0.1342
G2 X0.655 Y-0.402 I0.0775 J-0.1342
G1 F5.0 X0.505
G1 Z-0.075
G2 F20.0 X0.4975 Y-0.4063 I-0.005 J0.0
G2 Y-0.3977 I0.0025 J0.0043
G2 X0.505 Y-0.402 I0.0025 J-0.0043
G1 F5.0 X0.555
G2 F20.0 X0.4725 Y-0.4496 I-0.055 J0.0
G2 Y-0.3544 I0.0275 J0.0476
G2 X0.555 Y-0.402 I0.0275 J-0.0476
G1 F5.0 X0.655
G2 F20.0 X0.4225 Y-0.5362 I-0.155 J0.0
G2 Y-0.2678 I0.0775 J0.1342
G2 X0.655 Y-0.402 I0.0775 J-0.1342
G1 F5.0 X0.505
G1 Z-0.09
G2 F20.0 X0.4975 Y-0.4063 I-0.005 J0.0
G2 Y-0.3977 I0.0025 J0.0043
G2 X0.505 Y-0.402 I0.0025 J-0.0043
G1 F5.0 X0.555
G2 F20.0 X0.4725 Y-0.4496 I-0.055 J0.0
G2 Y-0.3544 I0.0275 J0.0476
G2 X0.555 Y-0.402 I0.0275 J-0.0476
G1 F5.0 X0.655
G2 F20.0 X0.4225 Y-0.5362 I-0.155 J0.0
G2 Y-0.2678 I0.0775 J0.1342
G2 X0.655 Y-0.402 I0.0775 J-0.1342
G1 F5.0 X0.505
G1 Z-0.105
G2 F20.0 X0.4975 Y-0.4063 I-0.005 J0.0
G2 Y-0.3977 I0.0025 J0.0043
G2 X0.505 Y-0.402 I0.0025 J-0.0043
G1 F5.0 X0.555
G2 F20.0 X0.4725 Y-0.4496 I-0.055 J0.0
G2 Y-0.3544 I0.0275 J0.0476
G2 X0.555 Y-0.402 I0.0275 J-0.0476
G1 F5.0 X0.655
G2 F20.0 X0.4225 Y-0.5362 I-0.155 J0.0
G2 Y-0.2678 I0.0775 J0.1342
G2 X0.655 Y-0.402 I0.0775 J-0.1342
G1 F5.0 X0.505
G1 Z-0.12
G2 F20.0 X0.4975 Y-0.4063 I-0.005 J0.0
G2 Y-0.3977 I0.0025 J0.0043
G2 X0.505 Y-0.402 I0.0025 J-0.0043
G1 F5.0 X0.555
G2 F20.0 X0.4725 Y-0.4496 I-0.055 J0.0
G2 Y-0.3544 I0.0275 J0.0476
G2 X0.555 Y-0.402 I0.0275 J-0.0476
G1 F5.0 X0.655
G2 F20.0 X0.4225 Y-0.5362 I-0.155 J0.0
G2 Y-0.2678 I0.0775 J0.1342
G2 X0.655 Y-0.402 I0.0775 J-0.1342
G1 F5.0 X0.505
G1 Z-0.135
G2 F20.0 X0.4975 Y-0.4063 I-0.005 J0.0
G2 Y-0.3977 I0.0025 J0.0043
G2 X0.505 Y-0.402 I0.0025 J-0.0043
G1 F5.0 X0.555
G2 F20.0 X0.4725 Y-0.4496 I-0.055 J0.0
G2 Y-0.3544 I0.0275 J0.0476
G2 X0.555 Y-0.402 I0.0275 J-0.0476
G1 F5.0 X0.655
G2 F20.0 X0.4225 Y-0.5362 I-0.155 J0.0
G2 Y-0.2678 I0.0775 J0.1342
G2 X0.655 Y-0.402 I0.0775 J-0.1342
G1 F5.0 X0.505
G1 Z-0.15
G2 F20.0 X0.4975 Y-0.4063 I-0.005 J0.0
G2 Y-0.3977 I0.0025 J0.0043
G2 X0.505 Y-0.402 I0.0025 J-0.0043
G1 F5.0 X0.555
G2 F20.0 X0.4725 Y-0.4496 I-0.055 J0.0
G2 Y-0.3544 I0.0275 J0.0476
G2 X0.555 Y-0.402 I0.0275 J-0.0476
G1 F5.0 X0.655
G2 F20.0 X0.4225 Y-0.5362 I-0.155 J0.0
G2 Y-0.2678 I0.0775 J0.1342
G2 X0.655 Y-0.402 I0.0775 J-0.1342
G1 F5.0 X0.505
G1 Z-0.165
G2 F20.0 X0.4975 Y-0.4063 I-0.005 J0.0
G2 Y-0.3977 I0.0025 J0.0043
G2 X0.505 Y-0.402 I0.0025 J-0.0043
G1 F5.0 X0.555
G2 F20.0 X0.4725 Y-0.4496 I-0.055 J0.0
G2 Y-0.3544 I0.0275 J0.0476
G2 X0.555 Y-0.402 I0.0275 J-0.0476
G1 F5.0 X0.655
G2 F20.0 X0.4225 Y-0.5362 I-0.155 J0.0
G2 Y-0.2678 I0.0775 J0.1342
G2 X0.655 Y-0.402 I0.0775 J-0.1342
G1 F5.0 X0.505
G1 Z-0.18
G2 F20.0 X0.4975 Y-0.4063 I-0.005 J0.0
G2 Y-0.3977 I0.0025 J0.0043
G2 X0.505 Y-0.402 I0.0025 J-0.0043
G1 F5.0 X0.555
G2 F20.0 X0.4725 Y-0.4496 I-0.055 J0.0
G2 Y-0.3544 I0.0275 J0.0476
G2 X0.555 Y-0.402 I0.0275 J-0.0476
G1 F5.0 X0.655
G2 F20.0 X0.4225 Y-0.5362 I-0.155 J0.0
G2 Y-0.2678 I0.0775 J0.1342
G2 X0.655 Y-0.402 I0.0775 J-0.1342
G1 F5.0 X0.505
G1 Z-0.195
G2 F20.0 X0.4975 Y-0.4063 I-0.005 J0.0
G2 Y-0.3977 I0.0025 J0.0043
G2 X0.505 Y-0.402 I0.0025 J-0.0043
G1 F5.0 X0.555
G2 F20.0 X0.4725 Y-0.4496 I-0.055 J0.0
G2 Y-0.3544 I0.0275 J0.0476
G2 X0.555 Y-0.402 I0.0275 J-0.0476
G1 F5.0 X0.655
G2 F20.0 X0.4225 Y-0.5362 I-0.155 J0.0
G2 Y-0.2678 I0.0775 J0.1342
G2 X0.655 Y-0.402 I0.0775 J-0.1342
G1 F5.0 X0.505
G1 Z-0.21
G2 F20.0 X0.4975 Y-0.4063 I-0.005 J0.0
G2 Y-0.3977 I0.0025 J0.0043
G2 X0.505 Y-0.402 I0.0025 J-0.0043
G1 F5.0 X0.555
G2 F20.0 X0.4725 Y-0.4496 I-0.055 J0.0
G2 Y-0.3544 I0.0275 J0.0476
G2 X0.555 Y-0.402 I0.0275 J-0.0476
G1 F5.0 X0.655
G2 F20.0 X0.4225 Y-0.5362 I-0.155 J0.0
G2 Y-0.2678 I0.0775 J0.1342
G2 X0.655 Y-0.402 I0.0775 J-0.1342
G1 F5.0 X0.505
G1 Z-0.225
G2 F20.0 X0.4975 Y-0.4063 I-0.005 J0.0
G2 Y-0.3977 I0.0025 J0.0043
G2 X0.505 Y-0.402 I0.0025 J-0.0043
G1 F5.0 X0.555
G2 F20.0 X0.4725 Y-0.4496 I-0.055 J0.0
G2 Y-0.3544 I0.0275 J0.0476
G2 X0.555 Y-0.402 I0.0275 J-0.0476
G1 F5.0 X0.655
G2 F20.0 X0.4225 Y-0.5362 I-0.155 J0.0
G2 Y-0.2678 I0.0775 J0.1342
G2 X0.655 Y-0.402 I0.0775 J-0.1342
G1 F5.0 X0.505
G1 Z-0.24
G2 F20.0 X0.4975 Y-0.4063 I-0.005 J0.0
G2 Y-0.3977 I0.0025 J0.0043
G2 X0.505 Y-0.402 I0.0025 J-0.0043
G1 F5.0 X0.555
G2 F20.0 X0.4725 Y-0.4496 I-0.055 J0.0
G2 Y-0.3544 I0.0275 J0.0476
G2 X0.555 Y-0.402 I0.0275 J-0.0476
G1 F5.0 X0.655
G2 F20.0 X0.4225 Y-0.5362 I-0.155 J0.0
G2 Y-0.2678 I0.0775 J0.1342
G2 X0.655 Y-0.402 I0.0775 J-0.1342
G1 F5.0 X0.505
G1 Z-0.255
G2 F20.0 X0.4975 Y-0.4063 I-0.005 J0.0
G2 Y-0.3977 I0.0025 J0.0043
G2 X0.505 Y-0.402 I0.0025 J-0.0043
G1 F5.0 X0.555
G2 F20.0 X0.4725 Y-0.4496 I-0.055 J0.0
G2 Y-0.3544 I0.0275 J0.0476
G2 X0.555 Y-0.402 I0.0275 J-0.0476
G1 F5.0 X0.655
G2 F20.0 X0.4225 Y-0.5362 I-0.155 J0.0
G2 Y-0.2678 I0.0775 J0.1342
G2 X0.655 Y-0.402 I0.0775 J-0.1342
G1 F5.0 X0.505
G1 Z-0.27
G2 F20.0 X0.4975 Y-0.4063 I-0.005 J0.0
G2 Y-0.3977 I0.0025 J0.0043
G2 X0.505 Y-0.402 I0.0025 J-0.0043
G1 F5.0 X0.555
G2 F20.0 X0.4725 Y-0.4496 I-0.055 J0.0
G2 Y-0.3544 I0.0275 J0.0476
G2 X0.555 Y-0.402 I0.0275 J-0.0476
G1 F5.0 X0.655
G2 F20.0 X0.4225 Y-0.5362 I-0.155 J0.0
G2 Y-0.2678 I0.0775 J0.1342
G2 X0.655 Y-0.402 I0.0775 J-0.1342
G1 F5.0 X0.505
G1 Z-0.285
G2 F20.0 X0.4975 Y-0.4063 I-0.005 J0.0
G2 Y-0.3977 I0.0025 J0.0043
G2 X0.505 Y-0.402 I0.0025 J-0.0043
G1 F5.0 X0.555
G2 F20.0 X0.4725 Y-0.4496 I-0.055 J0.0
G2 Y-0.3544 I0.0275 J0.0476
G2 X0.555 Y-0.402 I0.0275 J-0.0476
G1 F5.0 X0.655
G2 F20.0 X0.4225 Y-0.5362 I-0.155 J0.0
G2 Y-0.2678 I0.0775 J0.1342
G2 X0.655 Y-0.402 I0.0775 J-0.1342
G1 F5.0 X0.505
G1 Z-0.3
G2 F20.0 X0.4975 Y-0.4063 I-0.005 J0.0
G2 Y-0.3977 I0.0025 J0.0043
G2 X0.505 Y-0.402 I0.0025 J-0.0043
G1 F5.0 X0.555
G2 F20.0 X0.4725 Y-0.4496 I-0.055 J0.0
G2 Y-0.3544 I0.0275 J0.0476
G2 X0.555 Y-0.402 I0.0275 J-0.0476
G1 F5.0 X0.655
G2 F20.0 X0.4225 Y-0.5362 I-0.155 J0.0
G2 Y-0.2678 I0.0775 J0.1342
G2 X0.655 Y-0.402 I0.0775 J-0.1342
G1 F5.0 X0.505
G1 Z-0.315
G2 F20.0 X0.4975 Y-0.4063 I-0.005 J0.0
G2 Y-0.3977 I0.0025 J0.0043
G2 X0.505 Y-0.402 I0.0025 J-0.0043
G1 F5.0 X0.555
G2 F20.0 X0.4725 Y-0.4496 I-0.055 J0.0
G2 Y-0.3544 I0.0275 J0.0476
G2 X0.555 Y-0.402 I0.0275 J-0.0476
G1 F5.0 X0.655
G2 F20.0 X0.4225 Y-0.5362 I-0.155 J0.0
G2 Y-0.2678 I0.0775 J0.1342
G2 X0.655 Y-0.402 I0.0775 J-0.1342
G1 F5.0 X0.505
G1 Z-0.33
G2 F20.0 X0.4975 Y-0.4063 I-0.005 J0.0
G2 Y-0.3977 I0.0025 J0.0043
G2 X0.505 Y-0.402 I0.0025 J-0.0043
G1 F5.0 X0.555
G2 F20.0 X0.4725 Y-0.4496 I-0.055 J0.0
G2 Y-0.3544 I0.0275 J0.0476
G2 X0.555 Y-0.402 I0.0275 J-0.0476
G1 F5.0 X0.655
G2 F20.0 X0.4225 Y-0.5362 I-0.155 J0.0
G2 Y-0.2678 I0.0775 J0.1342
G2 X0.655 Y-0.402 I0.0775 J-0.1342
G1 F5.0 X0.505
G1 Z-0.345
G2 F20.0 X0.4975 Y-0.4063 I-0.005 J0.0
G2 Y-0.3977 I0.0025 J0.0043
G2 X0.505 Y-0.402 I0.0025 J-0.0043
G1 F5.0 X0.555
G2 F20.0 X0.4725 Y-0.4496 I-0.055 J0.0
G2 Y-0.3544 I0.0275 J0.0476
G2 X0.555 Y-0.402 I0.0275 J-0.0476
G1 F5.0 X0.655
G2 F20.0 X0.4225 Y-0.5362 I-0.155 J0.0
G2 Y-0.2678 I0.0775 J0.1342
G2 X0.655 Y-0.402 I0.0775 J-0.1342
G1 F5.0 X0.505
G1 Z-0.36
G2 F20.0 X0.4975 Y-0.4063 I-0.005 J0.0
G2 Y-0.3977 I0.0025 J0.0043
G2 X0.505 Y-0.402 I0.0025 J-0.0043
G1 F5.0 X0.555
G2 F20.0 X0.4725 Y-0.4496 I-0.055 J0.0
G2 Y-0.3544 I0.0275 J0.0476
G2 X0.555 Y-0.402 I0.0275 J-0.0476
G1 F5.0 X0.655
G2 F20.0 X0.4225 Y-0.5362 I-0.155 J0.0
G2 Y-0.2678 I0.0775 J0.1342
G2 X0.655 Y-0.402 I0.0775 J-0.1342
G1 F5.0 X0.505
G1 Z-0.375
G2 F20.0 X0.4975 Y-0.4063 I-0.005 J0.0
G2 Y-0.3977 I0.0025 J0.0043
G2 X0.505 Y-0.402 I0.0025 J-0.0043
G1 F5.0 X0.555
G2 F20.0 X0.4725 Y-0.4496 I-0.055 J0.0
G2 Y-0.3544 I0.0275 J0.0476
G2 X0.555 Y-0.402 I0.0275 J-0.0476
G1 F5.0 X0.655
G2 F20.0 X0.4225 Y-0.5362 I-0.155 J0.0
G2 Y-0.2678 I0.0775 J0.1342
G2 X0.655 Y-0.402 I0.0775 J-0.1342
G1 F5.0 X0.505
G1 Z-0.39
G2 F20.0 X0.4975 Y-0.4063 I-0.005 J0.0
G2 Y-0.3977 I0.0025 J0.0043
G2 X0.505 Y-0.402 I0.0025 J-0.0043
G1 F5.0 X0.555
G2 F20.0 X0.4725 Y-0.4496 I-0.055 J0.0
G2 Y-0.3544 I0.0275 J0.0476
G2 X0.555 Y-0.402 I0.0275 J-0.0476
G1 F5.0 X0.655
G2 F20.0 X0.4225 Y-0.5362 I-0.155 J0.0
G2 Y-0.2678 I0.0775 J0.1342
G2 X0.655 Y-0.402 I0.0775 J-0.1342
G1 F5.0 X0.505
G1 Z-0.405
G2 F20.0 X0.4975 Y-0.4063 I-0.005 J0.0
G2 Y-0.3977 I0.0025 J0.0043
G2 X0.505 Y-0.402 I0.0025 J-0.0043
G1 F5.0 X0.555
G2 F20.0 X0.4725 Y-0.4496 I-0.055 J0.0
G2 Y-0.3544 I0.0275 J0.0476
G2 X0.555 Y-0.402 I0.0275 J-0.0476
G1 F5.0 X0.655
G2 F20.0 X0.4225 Y-0.5362 I-0.155 J0.0
G2 Y-0.2678 I0.0775 J0.1342
G2 X0.655 Y-0.402 I0.0775 J-0.1342
G1 F5.0 X0.505
G1 Z-0.42
G2 F20.0 X0.4975 Y-0.4063 I-0.005 J0.0
G2 Y-0.3977 I0.0025 J0.0043
G2 X0.505 Y-0.402 I0.0025 J-0.0043
G1 F5.0 X0.555
G2 F20.0 X0.4725 Y-0.4496 I-0.055 J0.0
G2 Y-0.3544 I0.0275 J0.0476
G2 X0.555 Y-0.402 I0.0275 J-0.0476
G1 F5.0 X0.655
G2 F20.0 X0.4225 Y-0.5362 I-0.155 J0.0
G2 Y-0.2678 I0.0775 J0.1342
G2 X0.655 Y-0.402 I0.0775 J-0.1342
G1 F5.0 X0.505
G1 Z-0.435
G2 F20.0 X0.4975 Y-0.4063 I-0.005 J0.0
G2 Y-0.3977 I0.0025 J0.0043
G2 X0.505 Y-0.402 I0.0025 J-0.0043
G1 F5.0 X0.555
G2 F20.0 X0.4725 Y-0.4496 I-0.055 J0.0
G2 Y-0.3544 I0.0275 J0.0476
G2 X0.555 Y-0.402 I0.0275 J-0.0476
G1 F5.0 X0.655
G2 F20.0 X0.4225 Y-0.5362 I-0.155 J0.0
G2 Y-0.2678 I0.0775 J0.1342
G2 X0.655 Y-0.402 I0.0775 J-0.1342
G1 F5.0 X0.505
G1 Z-0.45
G2 F20.0 X0.4975 Y-0.4063 I-0.005 J0.0
G2 Y-0.3977 I0.0025 J0.0043
G2 X0.505 Y-0.402 I0.0025 J-0.0043
G1 F5.0 X0.555
G2 F20.0 X0.4725 Y-0.4496 I-0.055 J0.0
G2 Y-0.3544 I0.0275 J0.0476
G2 X0.555 Y-0.402 I0.0275 J-0.0476
G1 F5.0 X0.655
G2 F20.0 X0.4225 Y-0.5362 I-0.155 J0.0
G2 Y-0.2678 I0.0775 J0.1342
G2 X0.655 Y-0.402 I0.0775 J-0.1342
G0 Z0.125
M5
M30
