( Made using CamBam - http://www.cambam.co.uk )
( brackets_plated 5/31/2015 1:45:14 AM )
( T0 : 0.125 )
G20 G90 G64 G40
G0 Z0.125
( T0 : 0.125 )
T0 M6
( holes )
G17
M3 S1000
G0 X0.6664 Y5.236
G0 Z0.0625
G1 F10.0 Z-0.14
G2 F30.0 X0.5607 Y5.1749 I-0.0705 J0.0
G2 Y5.297 I0.0353 J0.0611
G2 X0.6664 Y5.236 I0.0352 J-0.0611
G1 F10.0 Z-0.27
G2 F30.0 X0.5607 Y5.1749 I-0.0705 J0.0
G2 Y5.297 I0.0353 J0.0611
G2 X0.6664 Y5.236 I0.0352 J-0.0611
G0 Z0.125
G0 X0.6009 Y6.1657
G0 Z0.0625
G1 F10.0 Z-0.14
G2 F30.0 X0.5607 Y6.1749 I-0.005 J0.0703
G2 Y6.297 I0.0353 J0.0611
G2 X0.6664 Y6.236 I0.0352 J-0.0611
G2 X0.6009 Y6.1657 I-0.0705 J0.0
G1 F10.0 Z-0.27
G2 F30.0 X0.5607 Y6.1749 I-0.005 J0.0703
G2 Y6.297 I0.0353 J0.0611
G2 X0.6664 Y6.236 I0.0352 J-0.0611
G2 X0.6009 Y6.1657 I-0.0705 J0.0
G0 Z0.125
G0 X1.0704 Y7.3774
G0 Z0.0625
G1 F10.0 Z-0.14
G2 F30.0 X1.0607 Y7.382 I0.0255 J0.0657
G2 Y7.5041 I0.0353 J0.0611
G2 X1.1664 Y7.4431 I0.0352 J-0.0611
G2 X1.0704 Y7.3774 I-0.0705 J0.0
G1 F10.0 Z-0.27
G2 F30.0 X1.0607 Y7.382 I0.0255 J0.0657
G2 Y7.5041 I0.0353 J0.0611
G2 X1.1664 Y7.4431 I0.0352 J-0.0611
G2 X1.0704 Y7.3774 I-0.0705 J0.0
G0 Z0.125
G0 X1.7545 Y8.099
G0 Z0.0625
G1 F10.0 Z-0.14
G2 F30.0 X1.7678 Y8.2113 I0.0485 J0.0512
G2 X1.8735 Y8.1502 I0.0353 J-0.0611
G2 X1.7678 Y8.0891 I-0.0705 J0.0
G2 X1.7545 Y8.099 I0.0352 J0.0611
G1 F10.0 Z-0.27
G2 F30.0 X1.7678 Y8.2113 I0.0485 J0.0512
G2 X1.8735 Y8.1502 I0.0353 J-0.0611
G2 X1.7678 Y8.0891 I-0.0705 J0.0
G2 X1.7545 Y8.099 I0.0352 J0.0611
G0 Z0.125
G0 X3.1446 Y6.656
G0 Z0.0625
G1 F10.0 Z-0.14
G2 F30.0 X3.1582 Y6.6663 I0.0489 J-0.0508
G2 X3.264 Y6.6053 I0.0352 J-0.0611
G2 X3.1582 Y6.5442 I-0.0705 J0.0
G2 X3.1446 Y6.656 I0.0353 J0.0611
G1 F10.0 Z-0.27
G2 F30.0 X3.1582 Y6.6663 I0.0489 J-0.0508
G2 X3.264 Y6.6053 I0.0352 J-0.0611
G2 X3.1582 Y6.5442 I-0.0705 J0.0
G2 X3.1446 Y6.656 I0.0353 J0.0611
G0 Z0.125
G0 X2.5326 Y5.9514
G0 Z0.0625
G1 F10.0 Z-0.14
G2 F30.0 X2.5569 Y5.8981 I-0.0462 J-0.0532
G2 X2.4511 Y5.8371 I-0.0705 J0.0
G2 Y5.9592 I0.0353 J0.0611
G2 X2.5326 Y5.9514 I0.0353 J-0.0611
G1 F10.0 Z-0.27
G2 F30.0 X2.5569 Y5.8981 I-0.0462 J-0.0532
G2 X2.4511 Y5.8371 I-0.0705 J0.0
G2 Y5.9592 I0.0353 J0.0611
G2 X2.5326 Y5.9514 I0.0353 J-0.0611
G0 Z0.125
G0 X2.2783 Y4.0881
G0 Z0.0625
G1 F10.0 Z-0.14
G2 F30.0 X2.3393 Y4.0182 I-0.0095 J-0.0699
G2 X2.2335 Y3.9572 I-0.0705 J0.0
G2 Y4.0793 I0.0353 J0.0611
G2 X2.2783 Y4.0881 I0.0352 J-0.0611
G1 F10.0 Z-0.27
G2 F30.0 X2.3393 Y4.0182 I-0.0095 J-0.0699
G2 X2.2335 Y3.9572 I-0.0705 J0.0
G2 Y4.0793 I0.0353 J0.0611
G2 X2.2783 Y4.0881 I0.0352 J-0.0611
G0 Z0.125
G0 X2.6941 Y3.1917
G0 Z0.0625
G1 F10.0 Z-0.14
G2 F30.0 X2.7943 Y3.1278 I0.0297 J-0.064
G2 X2.6885 Y3.0667 I-0.0705 J0.0
G2 Y3.1888 I0.0353 J0.0611
G2 X2.6941 Y3.1917 I0.0353 J-0.0611
G1 F10.0 Z-0.27
G2 F30.0 X2.7943 Y3.1278 I0.0297 J-0.064
G2 X2.6885 Y3.0667 I-0.0705 J0.0
G2 Y3.1888 I0.0353 J0.0611
G2 X2.6941 Y3.1917 I0.0353 J-0.0611
G0 Z0.125
G0 X3.6426 Y2.3147
G0 Z0.0625
G1 F10.0 Z-0.14
G2 F30.0 X3.6591 Y2.3279 I0.0518 J-0.0479
G2 X3.7648 Y2.2668 I0.0353 J-0.0611
G2 X3.6591 Y2.2058 I-0.0705 J0.0
G2 X3.6426 Y2.3147 I0.0353 J0.0611
G1 F10.0 Z-0.27
G2 F30.0 X3.6591 Y2.3279 I0.0518 J-0.0479
G2 X3.7648 Y2.2668 I0.0353 J-0.0611
G2 X3.6591 Y2.2058 I-0.0705 J0.0
G2 X3.6426 Y2.3147 I0.0353 J0.0611
G0 Z0.125
G0 X4.6239 Y2.2701
G0 Z0.0625
G1 F10.0 Z-0.14
G2 F30.0 X4.659 Y2.3279 I0.0704 J-0.0032
G2 X4.7648 Y2.2669 I0.0352 J-0.0611
G2 X4.659 Y2.2058 I-0.0705 J0.0
G2 X4.6239 Y2.2701 I0.0353 J0.0611
G1 F10.0 Z-0.27
G2 F30.0 X4.659 Y2.3279 I0.0704 J-0.0032
G2 X4.7648 Y2.2669 I0.0352 J-0.0611
G2 X4.659 Y2.2058 I-0.0705 J0.0
G2 X4.6239 Y2.2701 I0.0353 J0.0611
G0 Z0.125
G0 X1.3964 Y0.7035
G0 Z0.0625
G1 F10.0 Z-0.14
G2 F30.0 X1.4035 Y0.6728 I-0.0634 J-0.0308
G2 X1.2978 Y0.6117 I-0.0705 J0.0
G2 Y0.7338 I0.0353 J0.0611
G2 X1.3964 Y0.7035 I0.0353 J-0.0611
G1 F10.0 Z-0.27
G2 F30.0 X1.4035 Y0.6728 I-0.0634 J-0.0308
G2 X1.2978 Y0.6117 I-0.0705 J0.0
G2 Y0.7338 I0.0353 J0.0611
G2 X1.3964 Y0.7035 I0.0353 J-0.0611
G0 Z0.125
G0 X0.9145 Y1.5028
G0 Z0.0625
G1 F10.0 Z-0.14
G2 F30.0 X0.8428 Y1.5022 I-0.0364 J0.0604
G2 Y1.6243 I0.0353 J0.0611
G2 X0.9486 Y1.5632 I0.0353 J-0.0611
G2 X0.9145 Y1.5028 I-0.0705 J0.0
G1 F10.0 Z-0.27
G2 F30.0 X0.8428 Y1.5022 I-0.0364 J0.0604
G2 Y1.6243 I0.0353 J0.0611
G2 X0.9486 Y1.5632 I0.0353 J-0.0611
G2 X0.9145 Y1.5028 I-0.0705 J0.0
G0 Z0.125
G0 X0.6136 Y2.6677
G0 Z0.0625
G1 F10.0 Z-0.14
G2 F30.0 X0.5607 Y2.6749 I-0.0176 J0.0683
G2 Y2.797 I0.0352 J0.0611
G2 X0.6664 Y2.736 I0.0353 J-0.0611
G2 X0.6136 Y2.6677 I-0.0705 J0.0
G1 F10.0 Z-0.27
G2 F30.0 X0.5607 Y2.6749 I-0.0176 J0.0683
G2 Y2.797 I0.0352 J0.0611
G2 X0.6664 Y2.736 I0.0353 J-0.0611
G2 X0.6136 Y2.6677 I-0.0705 J0.0
G0 Z0.125
G0 X0.5971 Y3.6655
G0 Z0.0625
G1 F10.0 Z-0.14
G2 F30.0 X0.5607 Y3.6749 I-0.0012 J0.0705
G2 Y3.797 I0.0352 J0.0611
G2 X0.6664 Y3.736 I0.0353 J-0.0611
G2 X0.5971 Y3.6655 I-0.0705 J0.0
G1 F10.0 Z-0.27
G2 F30.0 X0.5607 Y3.6749 I-0.0012 J0.0705
G2 Y3.797 I0.0352 J0.0611
G2 X0.6664 Y3.736 I0.0353 J-0.0611
G2 X0.5971 Y3.6655 I-0.0705 J0.0
G0 Z0.125
G0 X4.3717 Y7.0581
G0 Z0.0625
G1 F10.0 Z-0.14
G2 F30.0 X4.3889 Y7.1663 I0.0524 J0.0471
G2 X4.4946 Y7.1053 I0.0352 J-0.0611
G2 X4.3889 Y7.0442 I-0.0705 J0.0
G2 X4.3717 Y7.0581 I0.0353 J0.0611
G1 F10.0 Z-0.27
G2 F30.0 X4.3889 Y7.1663 I0.0524 J0.0471
G2 X4.4946 Y7.1053 I0.0352 J-0.0611
G2 X4.3889 Y7.0442 I-0.0705 J0.0
G2 X4.3717 Y7.0581 I0.0353 J0.0611
G0 Z0.125
G0 X5.3537 Y7.1021
G0 Z0.0625
G1 F10.0 Z-0.14
G2 F30.0 X5.3889 Y7.1663 I0.0704 J0.0032
G2 X5.4946 Y7.1053 I0.0352 J-0.0611
G2 X5.3889 Y7.0442 I-0.0705 J0.0
G2 X5.3537 Y7.1021 I0.0353 J0.0611
G1 F10.0 Z-0.27
G2 F30.0 X5.3889 Y7.1663 I0.0704 J0.0032
G2 X5.4946 Y7.1053 I0.0352 J-0.0611
G2 X5.3889 Y7.0442 I-0.0705 J0.0
G2 X5.3537 Y7.1021 I0.0353 J0.0611
( outline )
S1000
G0 Z0.125
G0 X0.1496 Y1.7525
G0 Z0.0625
G1 F10.0 Z-0.14
G1 F30.0 X1.0597 Y-0.0284
G3 X1.1438 Y-0.0557 I0.0557 J0.0284
G1 X2.0345 Y0.3994
G3 X2.0617 Y0.4835 I-0.0284 J0.0557
G1 X1.1584 Y2.251
G1 Y4.236
G3 X1.0959 Y4.2985 I-0.0625 J0.0
G1 X0.0959
G3 X0.0334 Y4.236 I0.0 J-0.0625
G1 Y2.236
G3 X0.0351 Y2.2214 I0.0625 J0.0
G1 X0.1444 Y1.7663
G3 X0.1496 Y1.7525 I0.0608 J0.0146
G1 F10.0 Z-0.27
G1 F30.0 X1.0597 Y-0.0284
G3 X1.1438 Y-0.0557 I0.0557 J0.0284
G1 X2.0345 Y0.3994
G3 X2.0617 Y0.4835 I-0.0284 J0.0557
G1 X1.1584 Y2.251
G1 Y4.236
G3 X1.0959 Y4.2985 I-0.0625 J0.0
G1 X0.0959
G3 X0.0334 Y4.236 I0.0 J-0.0625
G1 Y2.236
G3 X0.0351 Y2.2214 I0.0625 J0.0
G1 X0.1444 Y1.7663
G3 X0.1496 Y1.7525 I0.0608 J0.0146
G0 Z0.125
G0 X2.2471 Y2.8244
G0 Z0.0625
G1 F10.0 Z-0.14
G1 F30.0 X2.4504 Y2.4266
G3 X2.4618 Y2.4109 I0.0557 J0.0284
G1 X3.1501 Y1.7226
G3 X3.1943 Y1.7043 I0.0442 J0.0442
G1 X5.1942 Y1.7044
G3 X5.2567 Y1.7669 I0.0 J0.0625
G1 Y2.7669
G3 X5.1942 Y2.8294 I-0.0625 J0.0
G1 X4.1998
G1 X3.4381 Y2.9662
G1 X2.5421 Y4.7194
G3 X2.458 Y4.7466 I-0.0557 J-0.0284
G1 X1.5675 Y4.2916
G3 X1.5403 Y4.2075 I0.0284 J-0.0557
G1 X2.2471 Y2.8244
G1 F10.0 Z-0.27
G1 F30.0 X2.4504 Y2.4266
G3 X2.4618 Y2.4109 I0.0557 J0.0284
G1 X3.1501 Y1.7226
G3 X3.1943 Y1.7043 I0.0442 J0.0442
G1 X5.1942 Y1.7044
G3 X5.2567 Y1.7669 I0.0 J0.0625
G1 Y2.7669
G3 X5.1942 Y2.8294 I-0.0625 J0.0
G1 X4.1998
G1 X3.4381 Y2.9662
G1 X2.5421 Y4.7194
G3 X2.458 Y4.7466 I-0.0557 J-0.0284
G1 X1.5675 Y4.2916
G3 X1.5403 Y4.2075 I0.0284 J-0.0557
G1 X2.2471 Y2.8244
G0 Z0.125
G0 X1.1282 Y4.6824
G0 Z0.0625
G1 F10.0 Z-0.14
G3 F30.0 X1.1584 Y4.736 I-0.0322 J0.0535
G1 Y6.7101
G1 X2.5543 Y8.106
G3 Y8.1944 I-0.0442 J0.0442
G1 X1.8472 Y8.9015
G3 X1.7588 I-0.0442 J-0.0442
G1 X0.3446 Y7.4873
G3 X0.3311 Y7.467 I0.0442 J-0.0442
G1 X0.0382 Y6.7599
G3 X0.0334 Y6.736 I0.0577 J-0.0239
G1 Y4.736
G3 X0.0959 Y4.6735 I0.0625 J0.0
G1 X1.0959
G3 X1.1282 Y4.6824 I0.0 J0.0625
G1 F10.0 Z-0.27
G3 F30.0 X1.1584 Y4.736 I-0.0322 J0.0535
G1 Y6.7101
G1 X2.5543 Y8.106
G3 Y8.1944 I-0.0442 J0.0442
G1 X1.8472 Y8.9015
G3 X1.7588 I-0.0442 J-0.0442
G1 X0.3446 Y7.4873
G3 X0.3311 Y7.467 I0.0442 J-0.0442
G1 X0.0382 Y6.7599
G3 X0.0334 Y6.736 I0.0577 J-0.0239
G1 Y4.736
G3 X0.0959 Y4.6735 I0.0625 J0.0
G1 X1.0959
G3 X1.1282 Y4.6824 I0.0 J0.0625
G0 Z0.125
G0 X2.0173 Y5.5717
G0 Z0.0625
G1 F10.0 Z-0.14
G1 F30.0 X2.4422 Y5.1468
G3 X2.5306 I0.0442 J0.0442
G1 X3.9264 Y6.5428
G1 X5.9241
G3 X5.9866 Y6.6053 I0.0 J0.0625
G1 Y7.6053
G3 X5.9241 Y7.6678 I-0.0625 J0.0
G1 X3.9242 Y7.6677
G3 X3.9009 Y7.6633 I0.0 J-0.0625
G1 X3.1702 Y7.3704
G3 X3.1493 Y7.3566 I0.0233 J-0.058
G1 X1.735 Y5.9423
G3 Y5.8539 I0.0442 J-0.0442
G1 X2.0173 Y5.5717
G1 F10.0 Z-0.27
G1 F30.0 X2.4422 Y5.1468
G3 X2.5306 I0.0442 J0.0442
G1 X3.9264 Y6.5428
G1 X5.9241
G3 X5.9866 Y6.6053 I0.0 J0.0625
G1 Y7.6053
G3 X5.9241 Y7.6678 I-0.0625 J0.0
G1 X3.9242 Y7.6677
G3 X3.9009 Y7.6633 I0.0 J-0.0625
G1 X3.1702 Y7.3704
G3 X3.1493 Y7.3566 I0.0233 J-0.058
G1 X1.735 Y5.9423
G3 Y5.8539 I0.0442 J-0.0442
G1 X2.0173 Y5.5717
G0 Z0.125
M5
M30
