( Made using CamBam - http://www.cambam.co.uk )
( panel_top_back 6/2/2015 1:00:53 AM )
( T0 : 0.125 )
G20 G90 G64 G40
G0 Z0.125
( T0 : 0.125 )
T0 M6
( Profile1 )
G17
M3 S1000
G0 X-0.0625 Y27.146
G0 Z0.0625
G1 F10.0 Z-0.145
G1 F60.0 Y0.0
G3 X0.0 Y-0.0625 I0.0625 J0.0
G1 X5.5007
G3 X5.5632 Y0.0 I0.0 J0.0625
G1 Y27.146
G3 X5.5007 Y27.2085 I-0.0625 J0.0
G1 X0.0
G3 X-0.0625 Y27.146 I0.0 J-0.0625
G1 F10.0 Z-0.28
G1 F60.0 Y0.0
G3 X0.0 Y-0.0625 I0.0625 J0.0
G1 X5.5007
G3 X5.5632 Y0.0 I0.0 J0.0625
G1 Y27.146
G3 X5.5007 Y27.2085 I-0.0625 J0.0
G1 X0.0
G3 X-0.0625 Y27.146 I0.0 J-0.0625
G0 Z0.125
M5
M30
