( Made using CamBam - http://www.cambam.co.uk )
( sides_c 6/1/2015 10:48:41 PM )
( T0 : 0.125 )
G20 G90 G64 G40
G0 Z0.125
( T0 : 0.125 )
T0 M6
( Profile1 )
G17
M3 S1000
G0 X-0.0625 Y20.8225
G0 Z0.0625
G1 F10.0 Z-0.13
G1 F20.0 Y4.8225
G3 X-0.0559 Y4.7945 I0.0625 J0.0
G1 X2.2049 Y0.292
G1 X2.2856 Y-0.0159
G3 X2.3461 Y-0.0625 I0.0605 J0.0159
G1 X20.3461
G3 X20.4086 Y0.0 I0.0 J0.0625
G1 Y0.26
G1 X20.6686
G3 X20.7311 Y0.3225 I0.0 J0.0625
G1 Y25.8225
G3 X20.6686 Y25.885 I-0.0625 J0.0
G1 X20.4086
G1 Y26.145
G3 X20.3461 Y26.2075 I-0.0625 J0.0
G1 X5.3461
G3 X5.3241 Y26.2035 I0.0 J-0.0625
G1 X5.0725 Y26.109
G3 X5.0503 Y26.0947 I0.022 J-0.0585
G1 X0.0503 Y21.0947
G3 X0.0368 Y21.0744 I0.0442 J-0.0442
G1 X-0.0577 Y20.8464
G3 X-0.0625 Y20.8225 I0.0577 J-0.0239
G1 F10.0 Z-0.26
G1 F20.0 Y4.8225
G3 X-0.0559 Y4.7945 I0.0625 J0.0
G1 X2.2049 Y0.292
G1 X2.2856 Y-0.0159
G3 X2.3461 Y-0.0625 I0.0605 J0.0159
G1 X20.3461
G3 X20.4086 Y0.0 I0.0 J0.0625
G1 Y0.26
G1 X20.6686
G3 X20.7311 Y0.3225 I0.0 J0.0625
G1 Y25.8225
G3 X20.6686 Y25.885 I-0.0625 J0.0
G1 X20.4086
G1 Y26.145
G3 X20.3461 Y26.2075 I-0.0625 J0.0
G1 X5.3461
G3 X5.3241 Y26.2035 I0.0 J-0.0625
G1 X5.0725 Y26.109
G3 X5.0503 Y26.0947 I0.022 J-0.0585
G1 X0.0503 Y21.0947
G3 X0.0368 Y21.0744 I0.0442 J-0.0442
G1 X-0.0577 Y20.8464
G3 X-0.0625 Y20.8225 I0.0577 J-0.0239
G1 F10.0 Z-0.27
G1 F20.0 Y4.8225
G3 X-0.0559 Y4.7945 I0.0625 J0.0
G1 X2.2049 Y0.292
G1 X2.2856 Y-0.0159
G3 X2.3461 Y-0.0625 I0.0605 J0.0159
G1 X20.3461
G3 X20.4086 Y0.0 I0.0 J0.0625
G1 Y0.26
G1 X20.6686
G3 X20.7311 Y0.3225 I0.0 J0.0625
G1 Y25.8225
G3 X20.6686 Y25.885 I-0.0625 J0.0
G1 X20.4086
G1 Y26.145
G3 X20.3461 Y26.2075 I-0.0625 J0.0
G1 X5.3461
G3 X5.3241 Y26.2035 I0.0 J-0.0625
G1 X5.0725 Y26.109
G3 X5.0503 Y26.0947 I0.022 J-0.0585
G1 X0.0503 Y21.0947
G3 X0.0368 Y21.0744 I0.0442 J-0.0442
G1 X-0.0577 Y20.8464
G3 X-0.0625 Y20.8225 I0.0577 J-0.0239
G0 Z0.125
M5
M30
