( Made using CamBam - http://www.cambam.co.uk )
( side_quarter_panels 6/4/2015 1:20:44 AM )
( T0 : 0.125 )
G20 G90 G64 G40
G0 Z0.125
( T0 : 0.125 )
T0 M6
( Profile1 )
G17
M3 S1000
G0 X-0.0615 Y7.146
G0 Z0.0625
G1 F10.0 Z-0.1
G1 F30.0 X-0.0625 Y0.0
G3 X0.0 Y-0.0625 I0.0625 J0.0
G1 X2.771 Y-0.0629
G3 X2.8335 Y-0.0004 I0.0 J0.0625
G1 X2.8345 Y7.1456
G3 X2.7721 Y7.2081 I-0.0625 J0.0
G1 X0.0011 Y7.2085
G3 X-0.0615 Y7.146 I0.0 J-0.0625
G1 F10.0 Z-0.2
G1 F30.0 X-0.0617 Y5.6057
G1 Y5.5557 Z-0.1
G1 Y5.4307
G1 Y5.3807 Z-0.2
G1 X-0.0622 Y2.3
G1 Y2.25 Z-0.1
G1 Y2.125
G1 Y2.075 Z-0.2
G1 X-0.0625 Y0.0
G3 X0.0 Y-0.0625 I0.0625 J0.0
G1 X1.0057 Y-0.0626
G1 X1.0557 Y-0.0627 Z-0.1
G1 X1.1807
G1 X1.2307 Z-0.2
G1 X2.771 Y-0.0629
G3 X2.8335 Y-0.0004 I0.0 J0.0625
G1 X2.8337 Y1.5399
G1 Y1.5899 Z-0.1
G1 X2.8338 Y1.7149
G1 Y1.7649 Z-0.2
G1 X2.8342 Y4.8456
G1 Y4.8956 Z-0.1
G1 Y5.0206
G1 Y5.0706 Z-0.2
G1 X2.8345 Y7.1456
G3 X2.7721 Y7.2081 I-0.0625 J0.0
G1 X1.7664 Y7.2082
G1 X1.7164 Z-0.1
G1 X1.5914
G1 X1.5414 Y7.2083 Z-0.2
G1 X0.0011 Y7.2085
G3 X-0.0615 Y7.146 I0.0 J-0.0625
G0 Z0.125
M5
M30
