( Made using CamBam - http://www.cambam.co.uk )
( 40mm_fab_extruder_bracket 11/27/2014 8:25:12 PM )
( T0 : 0.0 )
G20 G90 G64 G40
G0 Z0.125
( T0 : 0.0 )
T0 M6
( Drill1 )
G17
M3 S1000
G0 X0.0022 Y4.273
G98
G81 X0.0022 Y4.273 Z-0.075 R0.125 F10.0
G81 X2.0768 Z-0.075
G81 X2.0773 Y2.0232 Z-0.075
G81 X0.0022 Z-0.075
G81 Z-0.075
G80
( cutouts )
S1000
G0 Z0.125
G0 X0.4807 Y5.9223
G0 Z0.0625
G1 F10.0 Z-0.01
G2 F15.0 X0.404 Y5.878 I-0.0512 J0.0
G2 Y5.9666 I0.0256 J0.0443
G2 X0.4807 Y5.9223 I0.0256 J-0.0443
G1 F10.0 Z-0.02
G2 F15.0 X0.404 Y5.878 I-0.0512 J0.0
G2 Y5.9666 I0.0256 J0.0443
G2 X0.4807 Y5.9223 I0.0256 J-0.0443
G1 F10.0 Z-0.03
G2 F15.0 X0.404 Y5.878 I-0.0512 J0.0
G2 Y5.9666 I0.0256 J0.0443
G2 X0.4807 Y5.9223 I0.0256 J-0.0443
G1 F10.0 Z-0.04
G2 F15.0 X0.404 Y5.878 I-0.0512 J0.0
G2 Y5.9666 I0.0256 J0.0443
G2 X0.4807 Y5.9223 I0.0256 J-0.0443
G1 F10.0 Z-0.05
G2 F15.0 X0.404 Y5.878 I-0.0512 J0.0
G2 Y5.9666 I0.0256 J0.0443
G2 X0.4807 Y5.9223 I0.0256 J-0.0443
G1 F10.0 Z-0.06
G2 F15.0 X0.404 Y5.878 I-0.0512 J0.0
G2 Y5.9666 I0.0256 J0.0443
G2 X0.4807 Y5.9223 I0.0256 J-0.0443
G1 F10.0 Z-0.07
G2 F15.0 X0.404 Y5.878 I-0.0512 J0.0
G2 Y5.9666 I0.0256 J0.0443
G2 X0.4807 Y5.9223 I0.0256 J-0.0443
G1 F10.0 Z-0.075
G2 F15.0 X0.404 Y5.878 I-0.0512 J0.0
G2 Y5.9666 I0.0256 J0.0443
G2 X0.4807 Y5.9223 I0.0256 J-0.0443
G0 Z0.125
G0 X0.5898 Y5.8031
G0 Z0.0625
G1 F10.0 Z-0.01
G2 F15.0 X0.7065 Y5.8886 I0.4501 J-0.4921
G2 X1.7069 Y5.311 I0.3335 J-0.5776
G2 X0.7065 Y4.7334 I-0.6669 J0.0
G2 X0.5898 Y5.8031 I0.3335 J0.5776
G1 F10.0 Z-0.02
G2 F15.0 X0.7065 Y5.8886 I0.4501 J-0.4921
G2 X1.7069 Y5.311 I0.3335 J-0.5776
G2 X0.7065 Y4.7334 I-0.6669 J0.0
G2 X0.5898 Y5.8031 I0.3335 J0.5776
G1 F10.0 Z-0.03
G2 F15.0 X0.7065 Y5.8886 I0.4501 J-0.4921
G2 X1.7069 Y5.311 I0.3335 J-0.5776
G2 X0.7065 Y4.7334 I-0.6669 J0.0
G2 X0.5898 Y5.8031 I0.3335 J0.5776
G1 F10.0 Z-0.04
G2 F15.0 X0.7065 Y5.8886 I0.4501 J-0.4921
G2 X1.7069 Y5.311 I0.3335 J-0.5776
G2 X0.7065 Y4.7334 I-0.6669 J0.0
G2 X0.5898 Y5.8031 I0.3335 J0.5776
G1 F10.0 Z-0.05
G2 F15.0 X0.7065 Y5.8886 I0.4501 J-0.4921
G2 X1.7069 Y5.311 I0.3335 J-0.5776
G2 X0.7065 Y4.7334 I-0.6669 J0.0
G2 X0.5898 Y5.8031 I0.3335 J0.5776
G1 F10.0 Z-0.06
G2 F15.0 X0.7065 Y5.8886 I0.4501 J-0.4921
G2 X1.7069 Y5.311 I0.3335 J-0.5776
G2 X0.7065 Y4.7334 I-0.6669 J0.0
G2 X0.5898 Y5.8031 I0.3335 J0.5776
G1 F10.0 Z-0.07
G2 F15.0 X0.7065 Y5.8886 I0.4501 J-0.4921
G2 X1.7069 Y5.311 I0.3335 J-0.5776
G2 X0.7065 Y4.7334 I-0.6669 J0.0
G2 X0.5898 Y5.8031 I0.3335 J0.5776
G1 F10.0 Z-0.075
G2 F15.0 X0.7065 Y5.8886 I0.4501 J-0.4921
G2 X1.7069 Y5.311 I0.3335 J-0.5776
G2 X0.7065 Y4.7334 I-0.6669 J0.0
G2 X0.5898 Y5.8031 I0.3335 J0.5776
G0 Z0.125
G0 X1.5992 Y5.9159
G0 Z0.0625
G1 F10.0 Z-0.01
G2 F15.0 X1.6249 Y5.9668 I0.0518 J0.0058
G2 X1.7031 Y5.9217 I0.026 J-0.0451
G2 X1.6249 Y5.8766 I-0.0521 J0.0
G2 X1.5992 Y5.9159 I0.026 J0.0451
G1 F10.0 Z-0.02
G2 F15.0 X1.6249 Y5.9668 I0.0518 J0.0058
G2 X1.7031 Y5.9217 I0.026 J-0.0451
G2 X1.6249 Y5.8766 I-0.0521 J0.0
G2 X1.5992 Y5.9159 I0.026 J0.0451
G1 F10.0 Z-0.03
G2 F15.0 X1.6249 Y5.9668 I0.0518 J0.0058
G2 X1.7031 Y5.9217 I0.026 J-0.0451
G2 X1.6249 Y5.8766 I-0.0521 J0.0
G2 X1.5992 Y5.9159 I0.026 J0.0451
G1 F10.0 Z-0.04
G2 F15.0 X1.6249 Y5.9668 I0.0518 J0.0058
G2 X1.7031 Y5.9217 I0.026 J-0.0451
G2 X1.6249 Y5.8766 I-0.0521 J0.0
G2 X1.5992 Y5.9159 I0.026 J0.0451
G1 F10.0 Z-0.05
G2 F15.0 X1.6249 Y5.9668 I0.0518 J0.0058
G2 X1.7031 Y5.9217 I0.026 J-0.0451
G2 X1.6249 Y5.8766 I-0.0521 J0.0
G2 X1.5992 Y5.9159 I0.026 J0.0451
G1 F10.0 Z-0.06
G2 F15.0 X1.6249 Y5.9668 I0.0518 J0.0058
G2 X1.7031 Y5.9217 I0.026 J-0.0451
G2 X1.6249 Y5.8766 I-0.0521 J0.0
G2 X1.5992 Y5.9159 I0.026 J0.0451
G1 F10.0 Z-0.07
G2 F15.0 X1.6249 Y5.9668 I0.0518 J0.0058
G2 X1.7031 Y5.9217 I0.026 J-0.0451
G2 X1.6249 Y5.8766 I-0.0521 J0.0
G2 X1.5992 Y5.9159 I0.026 J0.0451
G1 F10.0 Z-0.075
G2 F15.0 X1.6249 Y5.9668 I0.0518 J0.0058
G2 X1.7031 Y5.9217 I0.026 J-0.0451
G2 X1.6249 Y5.8766 I-0.0521 J0.0
G2 X1.5992 Y5.9159 I0.026 J0.0451
G0 Z0.125
G0 X1.6482 Y4.7507
G0 Z0.0625
G1 F10.0 Z-0.01
G2 F15.0 X1.7015 Y4.6996 I0.0021 J-0.0511
G2 X1.6247 Y4.6553 I-0.0512 J0.0
G2 Y4.7439 I0.0256 J0.0443
G2 X1.6482 Y4.7507 I0.0256 J-0.0443
G1 F10.0 Z-0.02
G2 F15.0 X1.7015 Y4.6996 I0.0021 J-0.0511
G2 X1.6247 Y4.6553 I-0.0512 J0.0
G2 Y4.7439 I0.0256 J0.0443
G2 X1.6482 Y4.7507 I0.0256 J-0.0443
G1 F10.0 Z-0.03
G2 F15.0 X1.7015 Y4.6996 I0.0021 J-0.0511
G2 X1.6247 Y4.6553 I-0.0512 J0.0
G2 Y4.7439 I0.0256 J0.0443
G2 X1.6482 Y4.7507 I0.0256 J-0.0443
G1 F10.0 Z-0.04
G2 F15.0 X1.7015 Y4.6996 I0.0021 J-0.0511
G2 X1.6247 Y4.6553 I-0.0512 J0.0
G2 Y4.7439 I0.0256 J0.0443
G2 X1.6482 Y4.7507 I0.0256 J-0.0443
G1 F10.0 Z-0.05
G2 F15.0 X1.7015 Y4.6996 I0.0021 J-0.0511
G2 X1.6247 Y4.6553 I-0.0512 J0.0
G2 Y4.7439 I0.0256 J0.0443
G2 X1.6482 Y4.7507 I0.0256 J-0.0443
G1 F10.0 Z-0.06
G2 F15.0 X1.7015 Y4.6996 I0.0021 J-0.0511
G2 X1.6247 Y4.6553 I-0.0512 J0.0
G2 Y4.7439 I0.0256 J0.0443
G2 X1.6482 Y4.7507 I0.0256 J-0.0443
G1 F10.0 Z-0.07
G2 F15.0 X1.7015 Y4.6996 I0.0021 J-0.0511
G2 X1.6247 Y4.6553 I-0.0512 J0.0
G2 Y4.7439 I0.0256 J0.0443
G2 X1.6482 Y4.7507 I0.0256 J-0.0443
G1 F10.0 Z-0.075
G2 F15.0 X1.7015 Y4.6996 I0.0021 J-0.0511
G2 X1.6247 Y4.6553 I-0.0512 J0.0
G2 Y4.7439 I0.0256 J0.0443
G2 X1.6482 Y4.7507 I0.0256 J-0.0443
G0 Z0.125
G0 X0.479 Y4.7024
G0 Z0.0625
G1 F10.0 Z-0.01
G2 F15.0 X0.4791 Y4.7003 I-0.0501 J-0.0021
G2 X0.4038 Y4.6568 I-0.0502 J0.0
G2 Y4.7438 I0.0251 J0.0435
G2 X0.479 Y4.7024 I0.0251 J-0.0435
G1 F10.0 Z-0.02
G2 F15.0 X0.4791 Y4.7003 I-0.0501 J-0.0021
G2 X0.4038 Y4.6568 I-0.0502 J0.0
G2 Y4.7438 I0.0251 J0.0435
G2 X0.479 Y4.7024 I0.0251 J-0.0435
G1 F10.0 Z-0.03
G2 F15.0 X0.4791 Y4.7003 I-0.0501 J-0.0021
G2 X0.4038 Y4.6568 I-0.0502 J0.0
G2 Y4.7438 I0.0251 J0.0435
G2 X0.479 Y4.7024 I0.0251 J-0.0435
G1 F10.0 Z-0.04
G2 F15.0 X0.4791 Y4.7003 I-0.0501 J-0.0021
G2 X0.4038 Y4.6568 I-0.0502 J0.0
G2 Y4.7438 I0.0251 J0.0435
G2 X0.479 Y4.7024 I0.0251 J-0.0435
G1 F10.0 Z-0.05
G2 F15.0 X0.4791 Y4.7003 I-0.0501 J-0.0021
G2 X0.4038 Y4.6568 I-0.0502 J0.0
G2 Y4.7438 I0.0251 J0.0435
G2 X0.479 Y4.7024 I0.0251 J-0.0435
G1 F10.0 Z-0.06
G2 F15.0 X0.4791 Y4.7003 I-0.0501 J-0.0021
G2 X0.4038 Y4.6568 I-0.0502 J0.0
G2 Y4.7438 I0.0251 J0.0435
G2 X0.479 Y4.7024 I0.0251 J-0.0435
G1 F10.0 Z-0.07
G2 F15.0 X0.4791 Y4.7003 I-0.0501 J-0.0021
G2 X0.4038 Y4.6568 I-0.0502 J0.0
G2 Y4.7438 I0.0251 J0.0435
G2 X0.479 Y4.7024 I0.0251 J-0.0435
G1 F10.0 Z-0.075
G2 F15.0 X0.4791 Y4.7003 I-0.0501 J-0.0021
G2 X0.4038 Y4.6568 I-0.0502 J0.0
G2 Y4.7438 I0.0251 J0.0435
G2 X0.479 Y4.7024 I0.0251 J-0.0435
G0 Z0.125
G0 X0.4295 Y1.6466
G0 Z0.0625
G1 F10.0 Z-0.01
G2 F15.0 X0.4799 Y1.5955 I-0.0008 J-0.0512
G2 X0.4031 Y1.5512 I-0.0512 J0.0
G2 Y1.6398 I0.0256 J0.0443
G2 X0.4295 Y1.6466 I0.0256 J-0.0443
G1 F10.0 Z-0.02
G2 F15.0 X0.4799 Y1.5955 I-0.0008 J-0.0512
G2 X0.4031 Y1.5512 I-0.0512 J0.0
G2 Y1.6398 I0.0256 J0.0443
G2 X0.4295 Y1.6466 I0.0256 J-0.0443
G1 F10.0 Z-0.03
G2 F15.0 X0.4799 Y1.5955 I-0.0008 J-0.0512
G2 X0.4031 Y1.5512 I-0.0512 J0.0
G2 Y1.6398 I0.0256 J0.0443
G2 X0.4295 Y1.6466 I0.0256 J-0.0443
G1 F10.0 Z-0.04
G2 F15.0 X0.4799 Y1.5955 I-0.0008 J-0.0512
G2 X0.4031 Y1.5512 I-0.0512 J0.0
G2 Y1.6398 I0.0256 J0.0443
G2 X0.4295 Y1.6466 I0.0256 J-0.0443
G1 F10.0 Z-0.05
G2 F15.0 X0.4799 Y1.5955 I-0.0008 J-0.0512
G2 X0.4031 Y1.5512 I-0.0512 J0.0
G2 Y1.6398 I0.0256 J0.0443
G2 X0.4295 Y1.6466 I0.0256 J-0.0443
G1 F10.0 Z-0.06
G2 F15.0 X0.4799 Y1.5955 I-0.0008 J-0.0512
G2 X0.4031 Y1.5512 I-0.0512 J0.0
G2 Y1.6398 I0.0256 J0.0443
G2 X0.4295 Y1.6466 I0.0256 J-0.0443
G1 F10.0 Z-0.07
G2 F15.0 X0.4799 Y1.5955 I-0.0008 J-0.0512
G2 X0.4031 Y1.5512 I-0.0512 J0.0
G2 Y1.6398 I0.0256 J0.0443
G2 X0.4295 Y1.6466 I0.0256 J-0.0443
G1 F10.0 Z-0.075
G2 F15.0 X0.4799 Y1.5955 I-0.0008 J-0.0512
G2 X0.4031 Y1.5512 I-0.0512 J0.0
G2 Y1.6398 I0.0256 J0.0443
G2 X0.4295 Y1.6466 I0.0256 J-0.0443
G0 Z0.125
G0 X0.5875 Y1.4749
G0 Z0.0625
G1 F10.0 Z-0.01
G2 F15.0 X0.7056 Y1.5617 I0.4516 J-0.4908
G2 X1.706 Y0.9841 I0.3335 J-0.5776
G2 X0.7056 Y0.4065 I-0.6669 J0.0
G2 X0.5875 Y1.4749 I0.3335 J0.5776
G1 F10.0 Z-0.02
G2 F15.0 X0.7056 Y1.5617 I0.4516 J-0.4908
G2 X1.706 Y0.9841 I0.3335 J-0.5776
G2 X0.7056 Y0.4065 I-0.6669 J0.0
G2 X0.5875 Y1.4749 I0.3335 J0.5776
G1 F10.0 Z-0.03
G2 F15.0 X0.7056 Y1.5617 I0.4516 J-0.4908
G2 X1.706 Y0.9841 I0.3335 J-0.5776
G2 X0.7056 Y0.4065 I-0.6669 J0.0
G2 X0.5875 Y1.4749 I0.3335 J0.5776
G1 F10.0 Z-0.04
G2 F15.0 X0.7056 Y1.5617 I0.4516 J-0.4908
G2 X1.706 Y0.9841 I0.3335 J-0.5776
G2 X0.7056 Y0.4065 I-0.6669 J0.0
G2 X0.5875 Y1.4749 I0.3335 J0.5776
G1 F10.0 Z-0.05
G2 F15.0 X0.7056 Y1.5617 I0.4516 J-0.4908
G2 X1.706 Y0.9841 I0.3335 J-0.5776
G2 X0.7056 Y0.4065 I-0.6669 J0.0
G2 X0.5875 Y1.4749 I0.3335 J0.5776
G1 F10.0 Z-0.06
G2 F15.0 X0.7056 Y1.5617 I0.4516 J-0.4908
G2 X1.706 Y0.9841 I0.3335 J-0.5776
G2 X0.7056 Y0.4065 I-0.6669 J0.0
G2 X0.5875 Y1.4749 I0.3335 J0.5776
G1 F10.0 Z-0.07
G2 F15.0 X0.7056 Y1.5617 I0.4516 J-0.4908
G2 X1.706 Y0.9841 I0.3335 J-0.5776
G2 X0.7056 Y0.4065 I-0.6669 J0.0
G2 X0.5875 Y1.4749 I0.3335 J0.5776
G1 F10.0 Z-0.075
G2 F15.0 X0.7056 Y1.5617 I0.4516 J-0.4908
G2 X1.706 Y0.9841 I0.3335 J-0.5776
G2 X0.7056 Y0.4065 I-0.6669 J0.0
G2 X0.5875 Y1.4749 I0.3335 J0.5776
G0 Z0.125
G0 X1.5984 Y1.589
G0 Z0.0625
G1 F10.0 Z-0.01
G2 F15.0 X1.6241 Y1.6399 I0.0517 J0.0058
G2 X1.7022 Y1.5948 I0.026 J-0.0451
G2 X1.6241 Y1.5497 I-0.0521 J0.0
G2 X1.5984 Y1.589 I0.026 J0.0451
G1 F10.0 Z-0.02
G2 F15.0 X1.6241 Y1.6399 I0.0517 J0.0058
G2 X1.7022 Y1.5948 I0.026 J-0.0451
G2 X1.6241 Y1.5497 I-0.0521 J0.0
G2 X1.5984 Y1.589 I0.026 J0.0451
G1 F10.0 Z-0.03
G2 F15.0 X1.6241 Y1.6399 I0.0517 J0.0058
G2 X1.7022 Y1.5948 I0.026 J-0.0451
G2 X1.6241 Y1.5497 I-0.0521 J0.0
G2 X1.5984 Y1.589 I0.026 J0.0451
G1 F10.0 Z-0.04
G2 F15.0 X1.6241 Y1.6399 I0.0517 J0.0058
G2 X1.7022 Y1.5948 I0.026 J-0.0451
G2 X1.6241 Y1.5497 I-0.0521 J0.0
G2 X1.5984 Y1.589 I0.026 J0.0451
G1 F10.0 Z-0.05
G2 F15.0 X1.6241 Y1.6399 I0.0517 J0.0058
G2 X1.7022 Y1.5948 I0.026 J-0.0451
G2 X1.6241 Y1.5497 I-0.0521 J0.0
G2 X1.5984 Y1.589 I0.026 J0.0451
G1 F10.0 Z-0.06
G2 F15.0 X1.6241 Y1.6399 I0.0517 J0.0058
G2 X1.7022 Y1.5948 I0.026 J-0.0451
G2 X1.6241 Y1.5497 I-0.0521 J0.0
G2 X1.5984 Y1.589 I0.026 J0.0451
G1 F10.0 Z-0.07
G2 F15.0 X1.6241 Y1.6399 I0.0517 J0.0058
G2 X1.7022 Y1.5948 I0.026 J-0.0451
G2 X1.6241 Y1.5497 I-0.0521 J0.0
G2 X1.5984 Y1.589 I0.026 J0.0451
G1 F10.0 Z-0.075
G2 F15.0 X1.6241 Y1.6399 I0.0517 J0.0058
G2 X1.7022 Y1.5948 I0.026 J-0.0451
G2 X1.6241 Y1.5497 I-0.0521 J0.0
G2 X1.5984 Y1.589 I0.026 J0.0451
G0 Z0.125
G0 X1.6473 Y0.4239
G0 Z0.0625
G1 F10.0 Z-0.01
G2 F15.0 X1.7006 Y0.3727 I0.0021 J-0.0511
G2 X1.6238 Y0.3284 I-0.0512 J0.0
G2 Y0.4171 I0.0256 J0.0443
G2 X1.6473 Y0.4239 I0.0256 J-0.0443
G1 F10.0 Z-0.02
G2 F15.0 X1.7006 Y0.3727 I0.0021 J-0.0511
G2 X1.6238 Y0.3284 I-0.0512 J0.0
G2 Y0.4171 I0.0256 J0.0443
G2 X1.6473 Y0.4239 I0.0256 J-0.0443
G1 F10.0 Z-0.03
G2 F15.0 X1.7006 Y0.3727 I0.0021 J-0.0511
G2 X1.6238 Y0.3284 I-0.0512 J0.0
G2 Y0.4171 I0.0256 J0.0443
G2 X1.6473 Y0.4239 I0.0256 J-0.0443
G1 F10.0 Z-0.04
G2 F15.0 X1.7006 Y0.3727 I0.0021 J-0.0511
G2 X1.6238 Y0.3284 I-0.0512 J0.0
G2 Y0.4171 I0.0256 J0.0443
G2 X1.6473 Y0.4239 I0.0256 J-0.0443
G1 F10.0 Z-0.05
G2 F15.0 X1.7006 Y0.3727 I0.0021 J-0.0511
G2 X1.6238 Y0.3284 I-0.0512 J0.0
G2 Y0.4171 I0.0256 J0.0443
G2 X1.6473 Y0.4239 I0.0256 J-0.0443
G1 F10.0 Z-0.06
G2 F15.0 X1.7006 Y0.3727 I0.0021 J-0.0511
G2 X1.6238 Y0.3284 I-0.0512 J0.0
G2 Y0.4171 I0.0256 J0.0443
G2 X1.6473 Y0.4239 I0.0256 J-0.0443
G1 F10.0 Z-0.07
G2 F15.0 X1.7006 Y0.3727 I0.0021 J-0.0511
G2 X1.6238 Y0.3284 I-0.0512 J0.0
G2 Y0.4171 I0.0256 J0.0443
G2 X1.6473 Y0.4239 I0.0256 J-0.0443
G1 F10.0 Z-0.075
G2 F15.0 X1.7006 Y0.3727 I0.0021 J-0.0511
G2 X1.6238 Y0.3284 I-0.0512 J0.0
G2 Y0.4171 I0.0256 J0.0443
G2 X1.6473 Y0.4239 I0.0256 J-0.0443
G0 Z0.125
G0 X0.4791 Y0.3755
G0 Z0.0625
G1 F10.0 Z-0.01
G2 F15.0 X0.4792 Y0.3734 I-0.0511 J-0.0021
G2 X0.4024 Y0.3291 I-0.0512 J0.0
G2 Y0.4177 I0.0256 J0.0443
G2 X0.4791 Y0.3755 I0.0256 J-0.0443
G1 F10.0 Z-0.02
G2 F15.0 X0.4792 Y0.3734 I-0.0511 J-0.0021
G2 X0.4024 Y0.3291 I-0.0512 J0.0
G2 Y0.4177 I0.0256 J0.0443
G2 X0.4791 Y0.3755 I0.0256 J-0.0443
G1 F10.0 Z-0.03
G2 F15.0 X0.4792 Y0.3734 I-0.0511 J-0.0021
G2 X0.4024 Y0.3291 I-0.0512 J0.0
G2 Y0.4177 I0.0256 J0.0443
G2 X0.4791 Y0.3755 I0.0256 J-0.0443
G1 F10.0 Z-0.04
G2 F15.0 X0.4792 Y0.3734 I-0.0511 J-0.0021
G2 X0.4024 Y0.3291 I-0.0512 J0.0
G2 Y0.4177 I0.0256 J0.0443
G2 X0.4791 Y0.3755 I0.0256 J-0.0443
G1 F10.0 Z-0.05
G2 F15.0 X0.4792 Y0.3734 I-0.0511 J-0.0021
G2 X0.4024 Y0.3291 I-0.0512 J0.0
G2 Y0.4177 I0.0256 J0.0443
G2 X0.4791 Y0.3755 I0.0256 J-0.0443
G1 F10.0 Z-0.06
G2 F15.0 X0.4792 Y0.3734 I-0.0511 J-0.0021
G2 X0.4024 Y0.3291 I-0.0512 J0.0
G2 Y0.4177 I0.0256 J0.0443
G2 X0.4791 Y0.3755 I0.0256 J-0.0443
G1 F10.0 Z-0.07
G2 F15.0 X0.4792 Y0.3734 I-0.0511 J-0.0021
G2 X0.4024 Y0.3291 I-0.0512 J0.0
G2 Y0.4177 I0.0256 J0.0443
G2 X0.4791 Y0.3755 I0.0256 J-0.0443
G1 F10.0 Z-0.075
G2 F15.0 X0.4792 Y0.3734 I-0.0511 J-0.0021
G2 X0.4024 Y0.3291 I-0.0512 J0.0
G2 Y0.4177 I0.0256 J0.0443
G2 X0.4791 Y0.3755 I0.0256 J-0.0443
( outline )
S1000
G0 Z0.125
G0 X0.0656 Y6.224
G0 Z0.0625
G1 F10.0 Z-0.01
G2 F15.0 X0.1281 Y6.2865 I0.0625 J0.0
G1 X1.9529 Y6.2853
G2 X2.0154 Y6.2228 I0.0 J-0.0625
G1 X2.0134 Y0.0711
G2 X1.9508 Y0.0086 I-0.0625 J0.0
G1 X0.1272 Y0.0098
G1 X0.1265
G2 X0.0646 Y0.0723 I0.0006 J0.0625
G0 Z0.125
G0 X0.0656 Y6.224
G0 Z0.0525
G1 F10.0 Z-0.02
G2 F15.0 X0.1281 Y6.2865 I0.0625 J0.0
G1 X1.9529 Y6.2853
G2 X2.0154 Y6.2228 I0.0 J-0.0625
G1 X2.0134 Y0.0711
G2 X1.9508 Y0.0086 I-0.0625 J0.0
G1 X0.1272 Y0.0098
G1 X0.1265
G2 X0.0646 Y0.0723 I0.0006 J0.0625
G0 Z0.125
G0 X0.0656 Y6.224
G0 Z0.0425
G1 F10.0 Z-0.03
G2 F15.0 X0.1281 Y6.2865 I0.0625 J0.0
G1 X1.9529 Y6.2853
G2 X2.0154 Y6.2228 I0.0 J-0.0625
G1 X2.0134 Y0.0711
G2 X1.9508 Y0.0086 I-0.0625 J0.0
G1 X0.1272 Y0.0098
G1 X0.1265
G2 X0.0646 Y0.0723 I0.0006 J0.0625
G0 Z0.125
G0 X0.0656 Y6.224
G0 Z0.0325
G1 F10.0 Z-0.04
G2 F15.0 X0.1281 Y6.2865 I0.0625 J0.0
G1 X1.9529 Y6.2853
G2 X2.0154 Y6.2228 I0.0 J-0.0625
G1 X2.0134 Y0.0711
G2 X1.9508 Y0.0086 I-0.0625 J0.0
G1 X0.1272 Y0.0098
G1 X0.1265
G2 X0.0646 Y0.0723 I0.0006 J0.0625
G0 Z0.125
G0 X0.0656 Y6.224
G0 Z0.0225
G1 F10.0 Z-0.05
G2 F15.0 X0.1281 Y6.2865 I0.0625 J0.0
G1 X1.9529 Y6.2853
G2 X2.0154 Y6.2228 I0.0 J-0.0625
G1 X2.0134 Y0.0711
G2 X1.9508 Y0.0086 I-0.0625 J0.0
G1 X0.1272 Y0.0098
G1 X0.1265
G2 X0.0646 Y0.0723 I0.0006 J0.0625
G0 Z0.125
G0 X0.0656 Y6.224
G0 Z0.0125
G1 F10.0 Z-0.06
G2 F15.0 X0.1281 Y6.2865 I0.0625 J0.0
G1 X1.9529 Y6.2853
G2 X2.0154 Y6.2228 I0.0 J-0.0625
G1 X2.0134 Y0.0711
G2 X1.9508 Y0.0086 I-0.0625 J0.0
G1 X0.1272 Y0.0098
G1 X0.1265
G2 X0.0646 Y0.0723 I0.0006 J0.0625
G0 Z0.125
G0 X0.0656 Y6.224
G0 Z0.0025
G1 F10.0 Z-0.07
G2 F15.0 X0.1281 Y6.2865 I0.0625 J0.0
G1 X1.9529 Y6.2853
G2 X2.0154 Y6.2228 I0.0 J-0.0625
G1 X2.0134 Y0.0711
G2 X1.9508 Y0.0086 I-0.0625 J0.0
G1 X0.1272 Y0.0098
G1 X0.1265
G2 X0.0646 Y0.0723 I0.0006 J0.0625
G0 Z0.125
G0 X0.0656 Y6.224
G0 Z-0.0075
G1 F10.0 Z-0.075
G2 F15.0 X0.1281 Y6.2865 I0.0625 J0.0
G1 X1.9529 Y6.2853
G2 X2.0154 Y6.2228 I0.0 J-0.0625
G1 X2.0134 Y0.0711
G2 X1.9508 Y0.0086 I-0.0625 J0.0
G1 X0.1272 Y0.0098
G1 X0.1265
G2 X0.0646 Y0.0723 I0.0006 J0.0625
G0 Z0.125
M5
M30
