( Made using CamBam - http://www.cambam.co.uk )
( 40mm_fab_extruder_bracket 11/27/2014 8:44:43 PM )
( T0 : 0.125 )
G20 G90 G64 G40
G0 Z0.125
( T0 : 0.125 )
T0 M6
( cutout )
G17
M3 S1000
G0 X0.4786 Y5.9751
G0 Z0.0625
G1 F10.0 Z-0.01
G2 F15.0 X0.4018 Y5.9308 I-0.0512 J0.0
G2 Y6.0194 I0.0256 J0.0443
G2 X0.4786 Y5.9751 I0.0256 J-0.0443
G1 F10.0 Z-0.02
G2 F15.0 X0.4018 Y5.9308 I-0.0512 J0.0
G2 Y6.0194 I0.0256 J0.0443
G2 X0.4786 Y5.9751 I0.0256 J-0.0443
G1 F10.0 Z-0.03
G2 F15.0 X0.4018 Y5.9308 I-0.0512 J0.0
G2 Y6.0194 I0.0256 J0.0443
G2 X0.4786 Y5.9751 I0.0256 J-0.0443
G1 F10.0 Z-0.04
G2 F15.0 X0.4018 Y5.9308 I-0.0512 J0.0
G2 Y6.0194 I0.0256 J0.0443
G2 X0.4786 Y5.9751 I0.0256 J-0.0443
G1 F10.0 Z-0.05
G2 F15.0 X0.4018 Y5.9308 I-0.0512 J0.0
G2 Y6.0194 I0.0256 J0.0443
G2 X0.4786 Y5.9751 I0.0256 J-0.0443
G1 F10.0 Z-0.06
G2 F15.0 X0.4018 Y5.9308 I-0.0512 J0.0
G2 Y6.0194 I0.0256 J0.0443
G2 X0.4786 Y5.9751 I0.0256 J-0.0443
G1 F10.0 Z-0.07
G2 F15.0 X0.4018 Y5.9308 I-0.0512 J0.0
G2 Y6.0194 I0.0256 J0.0443
G2 X0.4786 Y5.9751 I0.0256 J-0.0443
G1 F10.0 Z-0.075
G2 F15.0 X0.4018 Y5.9308 I-0.0512 J0.0
G2 Y6.0194 I0.0256 J0.0443
G2 X0.4786 Y5.9751 I0.0256 J-0.0443
G0 Z0.125
G0 X0.5876 Y5.8558
G0 Z0.0625
G1 F10.0 Z-0.01
G2 F15.0 X0.7043 Y5.9413 I0.4501 J-0.4921
G2 X1.7047 Y5.3637 I0.3335 J-0.5776
G2 X0.7043 Y4.7861 I-0.6669 J0.0
G2 X0.5876 Y5.8558 I0.3335 J0.5776
G1 F10.0 Z-0.02
G2 F15.0 X0.7043 Y5.9413 I0.4501 J-0.4921
G2 X1.7047 Y5.3637 I0.3335 J-0.5776
G2 X0.7043 Y4.7861 I-0.6669 J0.0
G2 X0.5876 Y5.8558 I0.3335 J0.5776
G1 F10.0 Z-0.03
G2 F15.0 X0.7043 Y5.9413 I0.4501 J-0.4921
G2 X1.7047 Y5.3637 I0.3335 J-0.5776
G2 X0.7043 Y4.7861 I-0.6669 J0.0
G2 X0.5876 Y5.8558 I0.3335 J0.5776
G1 F10.0 Z-0.04
G2 F15.0 X0.7043 Y5.9413 I0.4501 J-0.4921
G2 X1.7047 Y5.3637 I0.3335 J-0.5776
G2 X0.7043 Y4.7861 I-0.6669 J0.0
G2 X0.5876 Y5.8558 I0.3335 J0.5776
G1 F10.0 Z-0.05
G2 F15.0 X0.7043 Y5.9413 I0.4501 J-0.4921
G2 X1.7047 Y5.3637 I0.3335 J-0.5776
G2 X0.7043 Y4.7861 I-0.6669 J0.0
G2 X0.5876 Y5.8558 I0.3335 J0.5776
G1 F10.0 Z-0.06
G2 F15.0 X0.7043 Y5.9413 I0.4501 J-0.4921
G2 X1.7047 Y5.3637 I0.3335 J-0.5776
G2 X0.7043 Y4.7861 I-0.6669 J0.0
G2 X0.5876 Y5.8558 I0.3335 J0.5776
G1 F10.0 Z-0.07
G2 F15.0 X0.7043 Y5.9413 I0.4501 J-0.4921
G2 X1.7047 Y5.3637 I0.3335 J-0.5776
G2 X0.7043 Y4.7861 I-0.6669 J0.0
G2 X0.5876 Y5.8558 I0.3335 J0.5776
G1 F10.0 Z-0.075
G2 F15.0 X0.7043 Y5.9413 I0.4501 J-0.4921
G2 X1.7047 Y5.3637 I0.3335 J-0.5776
G2 X0.7043 Y4.7861 I-0.6669 J0.0
G2 X0.5876 Y5.8558 I0.3335 J0.5776
G0 Z0.125
G0 X1.5971 Y5.9686
G0 Z0.0625
G1 F10.0 Z-0.01
G2 F15.0 X1.6228 Y6.0195 I0.0518 J0.0058
G2 X1.7009 Y5.9744 I0.026 J-0.0451
G2 X1.6228 Y5.9293 I-0.0521 J0.0
G2 X1.5971 Y5.9686 I0.026 J0.0451
G1 F10.0 Z-0.02
G2 F15.0 X1.6228 Y6.0195 I0.0518 J0.0058
G2 X1.7009 Y5.9744 I0.026 J-0.0451
G2 X1.6228 Y5.9293 I-0.0521 J0.0
G2 X1.5971 Y5.9686 I0.026 J0.0451
G1 F10.0 Z-0.03
G2 F15.0 X1.6228 Y6.0195 I0.0518 J0.0058
G2 X1.7009 Y5.9744 I0.026 J-0.0451
G2 X1.6228 Y5.9293 I-0.0521 J0.0
G2 X1.5971 Y5.9686 I0.026 J0.0451
G1 F10.0 Z-0.04
G2 F15.0 X1.6228 Y6.0195 I0.0518 J0.0058
G2 X1.7009 Y5.9744 I0.026 J-0.0451
G2 X1.6228 Y5.9293 I-0.0521 J0.0
G2 X1.5971 Y5.9686 I0.026 J0.0451
G1 F10.0 Z-0.05
G2 F15.0 X1.6228 Y6.0195 I0.0518 J0.0058
G2 X1.7009 Y5.9744 I0.026 J-0.0451
G2 X1.6228 Y5.9293 I-0.0521 J0.0
G2 X1.5971 Y5.9686 I0.026 J0.0451
G1 F10.0 Z-0.06
G2 F15.0 X1.6228 Y6.0195 I0.0518 J0.0058
G2 X1.7009 Y5.9744 I0.026 J-0.0451
G2 X1.6228 Y5.9293 I-0.0521 J0.0
G2 X1.5971 Y5.9686 I0.026 J0.0451
G1 F10.0 Z-0.07
G2 F15.0 X1.6228 Y6.0195 I0.0518 J0.0058
G2 X1.7009 Y5.9744 I0.026 J-0.0451
G2 X1.6228 Y5.9293 I-0.0521 J0.0
G2 X1.5971 Y5.9686 I0.026 J0.0451
G1 F10.0 Z-0.075
G2 F15.0 X1.6228 Y6.0195 I0.0518 J0.0058
G2 X1.7009 Y5.9744 I0.026 J-0.0451
G2 X1.6228 Y5.9293 I-0.0521 J0.0
G2 X1.5971 Y5.9686 I0.026 J0.0451
G0 Z0.125
G0 X1.646 Y4.8035
G0 Z0.0625
G1 F10.0 Z-0.01
G2 F15.0 X1.6993 Y4.7523 I0.0021 J-0.0511
G2 X1.6226 Y4.708 I-0.0512 J0.0
G2 Y4.7966 I0.0256 J0.0443
G2 X1.646 Y4.8035 I0.0256 J-0.0443
G1 F10.0 Z-0.02
G2 F15.0 X1.6993 Y4.7523 I0.0021 J-0.0511
G2 X1.6226 Y4.708 I-0.0512 J0.0
G2 Y4.7966 I0.0256 J0.0443
G2 X1.646 Y4.8035 I0.0256 J-0.0443
G1 F10.0 Z-0.03
G2 F15.0 X1.6993 Y4.7523 I0.0021 J-0.0511
G2 X1.6226 Y4.708 I-0.0512 J0.0
G2 Y4.7966 I0.0256 J0.0443
G2 X1.646 Y4.8035 I0.0256 J-0.0443
G1 F10.0 Z-0.04
G2 F15.0 X1.6993 Y4.7523 I0.0021 J-0.0511
G2 X1.6226 Y4.708 I-0.0512 J0.0
G2 Y4.7966 I0.0256 J0.0443
G2 X1.646 Y4.8035 I0.0256 J-0.0443
G1 F10.0 Z-0.05
G2 F15.0 X1.6993 Y4.7523 I0.0021 J-0.0511
G2 X1.6226 Y4.708 I-0.0512 J0.0
G2 Y4.7966 I0.0256 J0.0443
G2 X1.646 Y4.8035 I0.0256 J-0.0443
G1 F10.0 Z-0.06
G2 F15.0 X1.6993 Y4.7523 I0.0021 J-0.0511
G2 X1.6226 Y4.708 I-0.0512 J0.0
G2 Y4.7966 I0.0256 J0.0443
G2 X1.646 Y4.8035 I0.0256 J-0.0443
G1 F10.0 Z-0.07
G2 F15.0 X1.6993 Y4.7523 I0.0021 J-0.0511
G2 X1.6226 Y4.708 I-0.0512 J0.0
G2 Y4.7966 I0.0256 J0.0443
G2 X1.646 Y4.8035 I0.0256 J-0.0443
G1 F10.0 Z-0.075
G2 F15.0 X1.6993 Y4.7523 I0.0021 J-0.0511
G2 X1.6226 Y4.708 I-0.0512 J0.0
G2 Y4.7966 I0.0256 J0.0443
G2 X1.646 Y4.8035 I0.0256 J-0.0443
G0 Z0.125
G0 X0.4769 Y4.7551
G0 Z0.0625
G1 F10.0 Z-0.01
G2 F15.0 Y4.753 I-0.0501 J-0.0021
G2 X0.4016 Y4.7096 I-0.0502 J0.0
G2 Y4.7965 I0.0251 J0.0435
G2 X0.4769 Y4.7551 I0.0251 J-0.0435
G1 F10.0 Z-0.02
G2 F15.0 Y4.753 I-0.0501 J-0.0021
G2 X0.4016 Y4.7096 I-0.0502 J0.0
G2 Y4.7965 I0.0251 J0.0435
G2 X0.4769 Y4.7551 I0.0251 J-0.0435
G1 F10.0 Z-0.03
G2 F15.0 Y4.753 I-0.0501 J-0.0021
G2 X0.4016 Y4.7096 I-0.0502 J0.0
G2 Y4.7965 I0.0251 J0.0435
G2 X0.4769 Y4.7551 I0.0251 J-0.0435
G1 F10.0 Z-0.04
G2 F15.0 Y4.753 I-0.0501 J-0.0021
G2 X0.4016 Y4.7096 I-0.0502 J0.0
G2 Y4.7965 I0.0251 J0.0435
G2 X0.4769 Y4.7551 I0.0251 J-0.0435
G1 F10.0 Z-0.05
G2 F15.0 Y4.753 I-0.0501 J-0.0021
G2 X0.4016 Y4.7096 I-0.0502 J0.0
G2 Y4.7965 I0.0251 J0.0435
G2 X0.4769 Y4.7551 I0.0251 J-0.0435
G1 F10.0 Z-0.06
G2 F15.0 Y4.753 I-0.0501 J-0.0021
G2 X0.4016 Y4.7096 I-0.0502 J0.0
G2 Y4.7965 I0.0251 J0.0435
G2 X0.4769 Y4.7551 I0.0251 J-0.0435
G1 F10.0 Z-0.07
G2 F15.0 Y4.753 I-0.0501 J-0.0021
G2 X0.4016 Y4.7096 I-0.0502 J0.0
G2 Y4.7965 I0.0251 J0.0435
G2 X0.4769 Y4.7551 I0.0251 J-0.0435
G1 F10.0 Z-0.075
G2 F15.0 Y4.753 I-0.0501 J-0.0021
G2 X0.4016 Y4.7096 I-0.0502 J0.0
G2 Y4.7965 I0.0251 J0.0435
G2 X0.4769 Y4.7551 I0.0251 J-0.0435
G0 Z0.125
G0 X0.4274 Y1.6993
G0 Z0.0625
G1 F10.0 Z-0.01
G2 F15.0 X0.4777 Y1.6482 I-0.0008 J-0.0512
G2 X0.401 Y1.6039 I-0.0512 J0.0
G2 Y1.6925 I0.0256 J0.0443
G2 X0.4274 Y1.6993 I0.0256 J-0.0443
G1 F10.0 Z-0.02
G2 F15.0 X0.4777 Y1.6482 I-0.0008 J-0.0512
G2 X0.401 Y1.6039 I-0.0512 J0.0
G2 Y1.6925 I0.0256 J0.0443
G2 X0.4274 Y1.6993 I0.0256 J-0.0443
G1 F10.0 Z-0.03
G2 F15.0 X0.4777 Y1.6482 I-0.0008 J-0.0512
G2 X0.401 Y1.6039 I-0.0512 J0.0
G2 Y1.6925 I0.0256 J0.0443
G2 X0.4274 Y1.6993 I0.0256 J-0.0443
G1 F10.0 Z-0.04
G2 F15.0 X0.4777 Y1.6482 I-0.0008 J-0.0512
G2 X0.401 Y1.6039 I-0.0512 J0.0
G2 Y1.6925 I0.0256 J0.0443
G2 X0.4274 Y1.6993 I0.0256 J-0.0443
G1 F10.0 Z-0.05
G2 F15.0 X0.4777 Y1.6482 I-0.0008 J-0.0512
G2 X0.401 Y1.6039 I-0.0512 J0.0
G2 Y1.6925 I0.0256 J0.0443
G2 X0.4274 Y1.6993 I0.0256 J-0.0443
G1 F10.0 Z-0.06
G2 F15.0 X0.4777 Y1.6482 I-0.0008 J-0.0512
G2 X0.401 Y1.6039 I-0.0512 J0.0
G2 Y1.6925 I0.0256 J0.0443
G2 X0.4274 Y1.6993 I0.0256 J-0.0443
G1 F10.0 Z-0.07
G2 F15.0 X0.4777 Y1.6482 I-0.0008 J-0.0512
G2 X0.401 Y1.6039 I-0.0512 J0.0
G2 Y1.6925 I0.0256 J0.0443
G2 X0.4274 Y1.6993 I0.0256 J-0.0443
G1 F10.0 Z-0.075
G2 F15.0 X0.4777 Y1.6482 I-0.0008 J-0.0512
G2 X0.401 Y1.6039 I-0.0512 J0.0
G2 Y1.6925 I0.0256 J0.0443
G2 X0.4274 Y1.6993 I0.0256 J-0.0443
G0 Z0.125
G0 X0.5853 Y1.5276
G0 Z0.0625
G1 F10.0 Z-0.01
G2 F15.0 X0.7034 Y1.6144 I0.4516 J-0.4908
G2 X1.7038 Y1.0368 I0.3335 J-0.5776
G2 X0.7034 Y0.4592 I-0.6669 J0.0
G2 X0.5853 Y1.5276 I0.3335 J0.5776
G1 F10.0 Z-0.02
G2 F15.0 X0.7034 Y1.6144 I0.4516 J-0.4908
G2 X1.7038 Y1.0368 I0.3335 J-0.5776
G2 X0.7034 Y0.4592 I-0.6669 J0.0
G2 X0.5853 Y1.5276 I0.3335 J0.5776
G1 F10.0 Z-0.03
G2 F15.0 X0.7034 Y1.6144 I0.4516 J-0.4908
G2 X1.7038 Y1.0368 I0.3335 J-0.5776
G2 X0.7034 Y0.4592 I-0.6669 J0.0
G2 X0.5853 Y1.5276 I0.3335 J0.5776
G1 F10.0 Z-0.04
G2 F15.0 X0.7034 Y1.6144 I0.4516 J-0.4908
G2 X1.7038 Y1.0368 I0.3335 J-0.5776
G2 X0.7034 Y0.4592 I-0.6669 J0.0
G2 X0.5853 Y1.5276 I0.3335 J0.5776
G1 F10.0 Z-0.05
G2 F15.0 X0.7034 Y1.6144 I0.4516 J-0.4908
G2 X1.7038 Y1.0368 I0.3335 J-0.5776
G2 X0.7034 Y0.4592 I-0.6669 J0.0
G2 X0.5853 Y1.5276 I0.3335 J0.5776
G1 F10.0 Z-0.06
G2 F15.0 X0.7034 Y1.6144 I0.4516 J-0.4908
G2 X1.7038 Y1.0368 I0.3335 J-0.5776
G2 X0.7034 Y0.4592 I-0.6669 J0.0
G2 X0.5853 Y1.5276 I0.3335 J0.5776
G1 F10.0 Z-0.07
G2 F15.0 X0.7034 Y1.6144 I0.4516 J-0.4908
G2 X1.7038 Y1.0368 I0.3335 J-0.5776
G2 X0.7034 Y0.4592 I-0.6669 J0.0
G2 X0.5853 Y1.5276 I0.3335 J0.5776
G1 F10.0 Z-0.075
G2 F15.0 X0.7034 Y1.6144 I0.4516 J-0.4908
G2 X1.7038 Y1.0368 I0.3335 J-0.5776
G2 X0.7034 Y0.4592 I-0.6669 J0.0
G2 X0.5853 Y1.5276 I0.3335 J0.5776
G0 Z0.125
G0 X1.5962 Y1.6417
G0 Z0.0625
G1 F10.0 Z-0.01
G2 F15.0 X1.6219 Y1.6926 I0.0517 J0.0058
G2 X1.7 Y1.6475 I0.026 J-0.0451
G2 X1.6219 Y1.6024 I-0.0521 J0.0
G2 X1.5962 Y1.6417 I0.026 J0.0451
G1 F10.0 Z-0.02
G2 F15.0 X1.6219 Y1.6926 I0.0517 J0.0058
G2 X1.7 Y1.6475 I0.026 J-0.0451
G2 X1.6219 Y1.6024 I-0.0521 J0.0
G2 X1.5962 Y1.6417 I0.026 J0.0451
G1 F10.0 Z-0.03
G2 F15.0 X1.6219 Y1.6926 I0.0517 J0.0058
G2 X1.7 Y1.6475 I0.026 J-0.0451
G2 X1.6219 Y1.6024 I-0.0521 J0.0
G2 X1.5962 Y1.6417 I0.026 J0.0451
G1 F10.0 Z-0.04
G2 F15.0 X1.6219 Y1.6926 I0.0517 J0.0058
G2 X1.7 Y1.6475 I0.026 J-0.0451
G2 X1.6219 Y1.6024 I-0.0521 J0.0
G2 X1.5962 Y1.6417 I0.026 J0.0451
G1 F10.0 Z-0.05
G2 F15.0 X1.6219 Y1.6926 I0.0517 J0.0058
G2 X1.7 Y1.6475 I0.026 J-0.0451
G2 X1.6219 Y1.6024 I-0.0521 J0.0
G2 X1.5962 Y1.6417 I0.026 J0.0451
G1 F10.0 Z-0.06
G2 F15.0 X1.6219 Y1.6926 I0.0517 J0.0058
G2 X1.7 Y1.6475 I0.026 J-0.0451
G2 X1.6219 Y1.6024 I-0.0521 J0.0
G2 X1.5962 Y1.6417 I0.026 J0.0451
G1 F10.0 Z-0.07
G2 F15.0 X1.6219 Y1.6926 I0.0517 J0.0058
G2 X1.7 Y1.6475 I0.026 J-0.0451
G2 X1.6219 Y1.6024 I-0.0521 J0.0
G2 X1.5962 Y1.6417 I0.026 J0.0451
G1 F10.0 Z-0.075
G2 F15.0 X1.6219 Y1.6926 I0.0517 J0.0058
G2 X1.7 Y1.6475 I0.026 J-0.0451
G2 X1.6219 Y1.6024 I-0.0521 J0.0
G2 X1.5962 Y1.6417 I0.026 J0.0451
G0 Z0.125
G0 X1.6451 Y0.4766
G0 Z0.0625
G1 F10.0 Z-0.01
G2 F15.0 X1.6984 Y0.4255 I0.0021 J-0.0511
G2 X1.6217 Y0.3812 I-0.0512 J0.0
G2 Y0.4698 I0.0256 J0.0443
G2 X1.6451 Y0.4766 I0.0256 J-0.0443
G1 F10.0 Z-0.02
G2 F15.0 X1.6984 Y0.4255 I0.0021 J-0.0511
G2 X1.6217 Y0.3812 I-0.0512 J0.0
G2 Y0.4698 I0.0256 J0.0443
G2 X1.6451 Y0.4766 I0.0256 J-0.0443
G1 F10.0 Z-0.03
G2 F15.0 X1.6984 Y0.4255 I0.0021 J-0.0511
G2 X1.6217 Y0.3812 I-0.0512 J0.0
G2 Y0.4698 I0.0256 J0.0443
G2 X1.6451 Y0.4766 I0.0256 J-0.0443
G1 F10.0 Z-0.04
G2 F15.0 X1.6984 Y0.4255 I0.0021 J-0.0511
G2 X1.6217 Y0.3812 I-0.0512 J0.0
G2 Y0.4698 I0.0256 J0.0443
G2 X1.6451 Y0.4766 I0.0256 J-0.0443
G1 F10.0 Z-0.05
G2 F15.0 X1.6984 Y0.4255 I0.0021 J-0.0511
G2 X1.6217 Y0.3812 I-0.0512 J0.0
G2 Y0.4698 I0.0256 J0.0443
G2 X1.6451 Y0.4766 I0.0256 J-0.0443
G1 F10.0 Z-0.06
G2 F15.0 X1.6984 Y0.4255 I0.0021 J-0.0511
G2 X1.6217 Y0.3812 I-0.0512 J0.0
G2 Y0.4698 I0.0256 J0.0443
G2 X1.6451 Y0.4766 I0.0256 J-0.0443
G1 F10.0 Z-0.07
G2 F15.0 X1.6984 Y0.4255 I0.0021 J-0.0511
G2 X1.6217 Y0.3812 I-0.0512 J0.0
G2 Y0.4698 I0.0256 J0.0443
G2 X1.6451 Y0.4766 I0.0256 J-0.0443
G1 F10.0 Z-0.075
G2 F15.0 X1.6984 Y0.4255 I0.0021 J-0.0511
G2 X1.6217 Y0.3812 I-0.0512 J0.0
G2 Y0.4698 I0.0256 J0.0443
G2 X1.6451 Y0.4766 I0.0256 J-0.0443
G0 Z0.125
G0 X0.477 Y0.4283
G0 Z0.0625
G1 F10.0 Z-0.01
G2 F15.0 Y0.4261 I-0.0511 J-0.0021
G2 X0.4003 Y0.3818 I-0.0512 J0.0
G2 Y0.4705 I0.0256 J0.0443
G2 X0.477 Y0.4283 I0.0256 J-0.0443
G1 F10.0 Z-0.02
G2 F15.0 Y0.4261 I-0.0511 J-0.0021
G2 X0.4003 Y0.3818 I-0.0512 J0.0
G2 Y0.4705 I0.0256 J0.0443
G2 X0.477 Y0.4283 I0.0256 J-0.0443
G1 F10.0 Z-0.03
G2 F15.0 Y0.4261 I-0.0511 J-0.0021
G2 X0.4003 Y0.3818 I-0.0512 J0.0
G2 Y0.4705 I0.0256 J0.0443
G2 X0.477 Y0.4283 I0.0256 J-0.0443
G1 F10.0 Z-0.04
G2 F15.0 Y0.4261 I-0.0511 J-0.0021
G2 X0.4003 Y0.3818 I-0.0512 J0.0
G2 Y0.4705 I0.0256 J0.0443
G2 X0.477 Y0.4283 I0.0256 J-0.0443
G1 F10.0 Z-0.05
G2 F15.0 Y0.4261 I-0.0511 J-0.0021
G2 X0.4003 Y0.3818 I-0.0512 J0.0
G2 Y0.4705 I0.0256 J0.0443
G2 X0.477 Y0.4283 I0.0256 J-0.0443
G1 F10.0 Z-0.06
G2 F15.0 Y0.4261 I-0.0511 J-0.0021
G2 X0.4003 Y0.3818 I-0.0512 J0.0
G2 Y0.4705 I0.0256 J0.0443
G2 X0.477 Y0.4283 I0.0256 J-0.0443
G1 F10.0 Z-0.07
G2 F15.0 Y0.4261 I-0.0511 J-0.0021
G2 X0.4003 Y0.3818 I-0.0512 J0.0
G2 Y0.4705 I0.0256 J0.0443
G2 X0.477 Y0.4283 I0.0256 J-0.0443
G1 F10.0 Z-0.075
G2 F15.0 Y0.4261 I-0.0511 J-0.0021
G2 X0.4003 Y0.3818 I-0.0512 J0.0
G2 Y0.4705 I0.0256 J0.0443
G2 X0.477 Y0.4283 I0.0256 J-0.0443
( OUTLINE )
S1000
G0 Z0.125
G0 X0.126 Y6.4642
G0 Z0.0625
G1 F10.0 Z-0.01
G3 F30.0 X-0.0615 Y6.2767 I-0.0001 J-0.1875
G1 X-0.0625 Y0.125
G3 X0.1249 Y-0.0625 I0.1875 J0.0
G1 X1.9486 Y-0.0636
G3 X2.1362 Y0.1238 I0.0001 J0.1875
G1 X2.1383 Y6.2755
G3 X1.9509 Y6.463 I-0.1875 J0.0001
G1 X0.126 Y6.4642
G1 F10.0 Z-0.02
G3 F30.0 X-0.0615 Y6.2767 I-0.0001 J-0.1875
G1 X-0.0625 Y0.125
G3 X0.1249 Y-0.0625 I0.1875 J0.0
G1 X1.9486 Y-0.0636
G3 X2.1362 Y0.1238 I0.0001 J0.1875
G1 X2.1383 Y6.2755
G3 X1.9509 Y6.463 I-0.1875 J0.0001
G1 X0.126 Y6.4642
G1 F10.0 Z-0.03
G3 F30.0 X-0.0615 Y6.2767 I-0.0001 J-0.1875
G1 X-0.0625 Y0.125
G3 X0.1249 Y-0.0625 I0.1875 J0.0
G1 X1.9486 Y-0.0636
G3 X2.1362 Y0.1238 I0.0001 J0.1875
G1 X2.1383 Y6.2755
G3 X1.9509 Y6.463 I-0.1875 J0.0001
G1 X0.126 Y6.4642
G1 F10.0 Z-0.04
G3 F30.0 X-0.0615 Y6.2767 I-0.0001 J-0.1875
G1 X-0.0625 Y0.125
G3 X0.1249 Y-0.0625 I0.1875 J0.0
G1 X1.9486 Y-0.0636
G3 X2.1362 Y0.1238 I0.0001 J0.1875
G1 X2.1383 Y6.2755
G3 X1.9509 Y6.463 I-0.1875 J0.0001
G1 X0.126 Y6.4642
G1 F10.0 Z-0.05
G3 F30.0 X-0.0615 Y6.2767 I-0.0001 J-0.1875
G1 X-0.0625 Y0.125
G3 X0.1249 Y-0.0625 I0.1875 J0.0
G1 X1.9486 Y-0.0636
G3 X2.1362 Y0.1238 I0.0001 J0.1875
G1 X2.1383 Y6.2755
G3 X1.9509 Y6.463 I-0.1875 J0.0001
G1 X0.126 Y6.4642
G1 F10.0 Z-0.06
G3 F30.0 X-0.0615 Y6.2767 I-0.0001 J-0.1875
G1 X-0.0625 Y0.125
G3 X0.1249 Y-0.0625 I0.1875 J0.0
G1 X1.9486 Y-0.0636
G3 X2.1362 Y0.1238 I0.0001 J0.1875
G1 X2.1383 Y6.2755
G3 X1.9509 Y6.463 I-0.1875 J0.0001
G1 X0.126 Y6.4642
G1 F10.0 Z-0.07
G3 F30.0 X-0.0615 Y6.2767 I-0.0001 J-0.1875
G1 X-0.0625 Y0.125
G3 X0.1249 Y-0.0625 I0.1875 J0.0
G1 X1.9486 Y-0.0636
G3 X2.1362 Y0.1238 I0.0001 J0.1875
G1 X2.1383 Y6.2755
G3 X1.9509 Y6.463 I-0.1875 J0.0001
G1 X0.126 Y6.4642
G1 F10.0 Z-0.075
G3 F30.0 X-0.0615 Y6.2767 I-0.0001 J-0.1875
G1 X-0.0625 Y0.125
G3 X0.1249 Y-0.0625 I0.1875 J0.0
G1 X1.9486 Y-0.0636
G3 X2.1362 Y0.1238 I0.0001 J0.1875
G1 X2.1383 Y6.2755
G3 X1.9509 Y6.463 I-0.1875 J0.0001
G1 X0.126 Y6.4642
( Drill1 )
S1000
G0 Z0.125
G0 X0.0001 Y4.3257
G98
G81 X0.0001 Y4.3257 Z-0.075 R0.125 F10.0
G81 X2.0746 Z-0.075
G81 X2.0752 Y2.076 Z-0.075
G81 X0.0001 Z-0.075
G81 Z-0.075
G80
G0 Z0.125
M5
M30
