; generated by Slic3r 1.1.7 on 2014-10-31 at 02:17:30

; perimeters extrusion width = 0.50mm
; infill extrusion width = 0.52mm
; solid infill extrusion width = 0.52mm
; top infill extrusion width = 0.52mm

G21 ; set units to millimeters
M107
M104 S200 ; set temperature
G28 ; home all axes
G1 Z5 F5000 ; lift nozzle

M109 S200 ; wait for temperature to be reached
G90 ; use absolute coordinates
G92 E0
M82 ; use absolute distances for extrusion
G1 F1800.000 E-1.00000
G92 E0
G1 Z0.350 F7800.000
G1 X69.484 Y76.691 F7800.000
G1 E1.00000 F1800.000
G1 X71.237 Y75.205 E1.07480 F1080.000
G1 X73.392 Y74.403 E1.14960
G1 X74.600 Y74.293 E1.18906
G1 X125.400 Y74.293 E2.84184
G1 X127.665 Y74.690 E2.91664
G1 X129.659 Y75.834 E2.99144 F1080.000
G1 X131.145 Y77.587 E3.06625
G1 X131.947 Y79.742 E3.14105
G1 X132.057 Y80.950 E3.18050
G1 X132.057 Y119.050 E4.42009
G1 X131.660 Y121.315 E4.49489
G1 X130.516 Y123.309 E4.56969
G1 X128.763 Y124.795 E4.64449
G1 X126.608 Y125.597 E4.71929
G1 X125.400 Y125.707 E4.75875
G1 X74.600 Y125.707 E6.41154
G1 X72.335 Y125.310 E6.48634
G1 X70.341 Y124.166 E6.56114
G1 X68.855 Y122.413 E6.63594
G1 X68.053 Y120.258 E6.71074
G1 X67.943 Y119.050 E6.75019
G1 X67.943 Y80.950 E7.98978
G1 X68.340 Y78.685 E8.06458
G1 X69.446 Y76.756 E8.13695
G1 F1800.000 E7.13695
G92 E0
G1 X103.989 Y103.989 F7800.000
G1 E1.00000 F1800.000
G1 X102.821 Y104.885 E1.04791 F540.000
G1 X101.460 Y105.449 E1.09582
G1 X100.000 Y105.641 E1.14373
G1 X98.540 Y105.449 E1.19164
G1 X97.180 Y104.885 E1.23955
G1 X96.011 Y103.989 E1.28746
G1 X95.115 Y102.820 E1.33537
G1 X94.551 Y101.460 E1.38328
G1 X94.359 Y100.000 E1.43120
G1 X94.551 Y98.540 E1.47910
G1 X95.115 Y97.179 E1.52702
G1 X96.011 Y96.011 E1.57493
G1 X97.179 Y95.115 E1.62283
G1 X98.540 Y94.551 E1.67075
G1 X100.000 Y94.359 E1.71866
G1 X100.245 Y94.391 E1.72671
G1 X101.460 Y94.551 E1.76657 F540.000
G1 X102.820 Y95.115 E1.81448
G1 X103.989 Y96.011 E1.86239
G1 X104.885 Y97.180 E1.91030
G1 X105.449 Y98.540 E1.95821
G1 X105.641 Y100.000 E2.00612
G1 X105.449 Y101.460 E2.05403
G1 X104.885 Y102.821 E2.10195
G1 X104.034 Y103.929 E2.14741
G1 X103.520 Y103.520 F7800.000
G1 X102.489 Y104.311 E2.18969 F540.000
G1 X101.288 Y104.809 E2.23198
G1 X100.000 Y104.978 E2.27426
G1 X98.712 Y104.809 E2.31654
G1 X97.511 Y104.311 E2.35882
G1 X96.480 Y103.520 E2.40110
G1 X95.689 Y102.489 E2.44338
G1 X95.191 Y101.288 E2.48566
G1 X95.022 Y100.000 E2.52795
G1 X95.191 Y98.712 E2.57023
G1 X95.689 Y97.511 E2.61251
G1 X96.480 Y96.480 E2.65479
G1 X97.511 Y95.689 E2.69707
G1 X98.712 Y95.191 E2.73936
G1 X98.871 Y95.170 E2.74460
G1 X100.000 Y95.022 E2.78164 F540.000
G1 X101.288 Y95.191 E2.82392
G1 X102.489 Y95.689 E2.86620
G1 X103.520 Y96.480 E2.90848
G1 X104.311 Y97.511 E2.95076
G1 X104.809 Y98.712 E2.99304
G1 X104.978 Y100.000 E3.03533
G1 X104.809 Y101.288 E3.07761
G1 X104.311 Y102.489 E3.11989
G1 X103.566 Y103.461 E3.15973
G1 X103.051 Y103.051 F7800.000
G1 X102.158 Y103.737 E3.19638 F378.000
G1 X101.117 Y104.168 E3.23304
G1 X100.000 Y104.315 E3.26969
G1 X98.883 Y104.168 E3.30634
G1 X97.842 Y103.737 E3.34299
G1 X96.949 Y103.051 E3.37965
G1 X96.263 Y102.158 E3.41630
G1 X95.832 Y101.117 E3.45295
G1 X95.685 Y100.000 E3.48960
G1 X95.832 Y98.883 E3.52626
G1 X96.263 Y97.842 E3.56291
G1 X96.949 Y96.949 E3.59956
G1 X97.842 Y96.263 E3.63621
G1 X98.883 Y95.832 E3.67287
G1 X100.000 Y95.685 E3.70952
G1 X100.074 Y95.694 E3.71195
G1 X101.117 Y95.832 E3.74617 F378.000
G1 X102.158 Y96.263 E3.78282
G1 X103.051 Y96.949 E3.81948
G1 X103.737 Y97.842 E3.85613
G1 X104.168 Y98.883 E3.89278
G1 X104.315 Y100.000 E3.92944
G1 X104.168 Y101.117 E3.96609
G1 X103.737 Y102.158 E4.00274
G1 X103.097 Y102.992 E4.03695
G1 F1800.000 E3.03695
G92 E0
G1 X100.032 Y95.196 F7800.000
G1 X123.736 Y117.386 F7800.000
G1 E1.00000 F1800.000
G1 X76.264 Y117.386 E2.54450 F540.000
G1 X76.264 Y82.614 E3.67581
G1 X123.736 Y82.614 E5.22031
G1 X123.736 Y117.311 E6.34917
G1 X124.393 Y118.043 F7800.000
G1 X75.607 Y118.043 E7.93643 F540.000
G1 X75.607 Y81.957 E9.11049
G1 X124.393 Y81.957 E10.69775
G1 X124.393 Y117.968 E11.86937
G1 X125.050 Y118.700 F7800.000
G1 X74.950 Y118.700 E13.49938 F378.000
G1 X74.950 Y81.300 E14.71620
G1 X125.050 Y81.300 E16.34621
G1 X125.050 Y118.625 E17.56059
G1 X124.617 Y118.450 F7800.000
G1 X98.419 Y105.893 F7800.000
G1 X109.456 Y116.929 E18.06841 F1080.000
G1 X110.390 Y116.929 E18.09880
G1 X99.496 Y106.035 E18.60008
G1 X100.439 Y106.043 E18.63076
G1 X111.325 Y116.929 E19.13164
G1 X112.259 Y116.929 E19.16204
G1 X101.264 Y105.935 E19.66792
G1 X101.988 Y105.724 E19.69244
G1 X113.193 Y116.929 E20.20801
G1 X114.127 Y116.929 E20.23841
G1 X102.648 Y105.451 E20.76657
G1 X103.257 Y105.125 E20.78903
G1 X115.061 Y116.929 E21.33216
G1 X115.995 Y116.929 E21.36255
G1 X103.786 Y104.720 E21.92434
G1 X104.314 Y104.314 E21.94602
G1 X116.929 Y116.929 E22.52647
G1 X117.864 Y116.929 E22.55686
G1 X104.720 Y103.786 E23.16163
G1 X105.125 Y103.257 E23.18331
G1 X118.798 Y116.929 E23.81240
G1 X119.732 Y116.929 E23.84279
G1 X105.451 Y102.648 E24.49991
G1 X105.724 Y101.988 E24.52317
G1 X120.666 Y116.929 E25.21068
G1 X121.600 Y116.929 E25.24107
G1 X105.935 Y101.264 E25.96186
G1 X106.043 Y100.439 E25.98895
G1 X122.534 Y116.929 E26.74773
G1 X123.279 Y116.740 E26.77274
G1 X106.035 Y99.496 E27.56620
G1 X105.893 Y98.419 E27.60152
G1 X123.279 Y115.806 E28.40151
G1 X123.279 Y114.872 E28.43190
G1 X105.043 Y96.635 E29.27100
G1 X103.365 Y94.957 F7800.000
G1 X91.478 Y83.071 E29.81792 F1080.000
G1 X92.412 Y83.071 E29.84832
G1 X123.279 Y113.938 E31.26858
G1 X123.279 Y113.004 E31.29897
G1 X93.346 Y83.071 E32.67625
G1 X94.280 Y83.071 E32.70664
G1 X123.279 Y112.070 E34.04093
G1 X123.279 Y111.135 E34.07133
G1 X95.215 Y83.071 E35.36264
G1 X96.149 Y83.071 E35.39303
G1 X123.279 Y110.201 E36.64136
G1 X123.279 Y109.267 E36.67176
G1 X97.083 Y83.071 E37.87711
G1 X98.017 Y83.071 E37.90750
G1 X123.279 Y108.333 E39.06986
G1 X123.279 Y107.399 E39.10026
G1 X98.951 Y83.071 E40.21964
G1 X99.885 Y83.071 E40.25003
G1 X123.279 Y106.465 E41.32643
G1 X123.279 Y105.530 E41.35683
G1 X100.820 Y83.071 E42.39025
G1 X101.754 Y83.071 E42.42064
G1 X123.279 Y104.596 E43.41108
G1 X123.279 Y103.662 E43.44147
G1 X102.688 Y83.071 E44.38892
G1 X103.622 Y83.071 E44.41932
G1 X123.279 Y102.728 E45.32379
G1 X123.279 Y101.794 E45.35418
G1 X104.556 Y83.071 E46.21567
G1 X105.490 Y83.071 E46.24606
G1 X123.279 Y100.860 E47.06457
G1 X123.279 Y99.925 E47.09496
G1 X106.425 Y83.071 E47.87049
G1 X107.359 Y83.071 E47.90088
G1 X123.279 Y98.991 E48.63342
G1 X123.279 Y98.057 E48.66381
G1 X108.293 Y83.071 E49.35337
G1 X109.227 Y83.071 E49.38377
G1 X123.279 Y97.123 E50.03034
G1 X123.279 Y96.189 E50.06074
G1 X110.161 Y83.071 E50.66433
G1 X111.095 Y83.071 E50.69472
G1 X123.279 Y95.255 E51.25533
G1 X123.279 Y94.320 E51.28573
G1 X112.030 Y83.071 E51.80336
G1 X112.964 Y83.071 E51.83375
G1 X123.279 Y93.386 E52.30840
G1 X123.279 Y92.452 E52.33879
G1 X113.898 Y83.071 E52.77046
G1 X114.832 Y83.071 E52.80085
G1 X123.279 Y91.518 E53.18953
G1 X123.279 Y90.584 E53.21992
G1 X115.766 Y83.071 E53.56562
G1 X116.700 Y83.071 E53.59602
G1 X123.279 Y89.650 E53.89873
G1 X123.279 Y88.715 E53.92913
G1 X117.635 Y83.071 E54.18886
G1 X118.569 Y83.071 E54.21926
G1 X123.279 Y87.781 E54.43601
G1 X123.279 Y86.847 E54.46640
G1 X119.503 Y83.071 E54.64017
G1 X120.437 Y83.071 E54.67056
G1 X123.279 Y85.913 E54.80135
G1 X123.279 Y84.979 E54.83175
G1 X121.371 Y83.071 E54.91955
G1 X122.305 Y83.071 E54.94994
G1 X123.279 Y84.045 E54.99477
G1 X123.279 Y83.111 E55.02516
G1 X123.239 Y83.071 E55.02700
G1 X101.581 Y94.107 F7800.000
G1 X90.544 Y83.071 E55.53482 F1080.000
G1 X89.610 Y83.071 E55.56521
G1 X100.504 Y93.965 E56.06650
G1 X99.561 Y93.957 E56.09717
G1 X88.675 Y83.071 E56.59806
G1 X87.741 Y83.071 E56.62845
G1 X98.736 Y94.065 E57.13433
G1 X98.012 Y94.276 E57.15885
G1 X86.807 Y83.071 E57.67443
G1 X85.873 Y83.071 E57.70482
G1 X97.352 Y94.549 E58.23299
G1 X96.743 Y94.875 E58.25545
G1 X84.939 Y83.071 E58.79857
G1 X84.005 Y83.071 E58.82897
G1 X96.214 Y95.280 E59.39076
G1 X95.686 Y95.686 E59.41243
G1 X83.071 Y83.071 E59.99288
G1 X82.136 Y83.071 E60.02327
G1 X95.280 Y96.214 E60.62805
G1 X94.875 Y96.743 E60.64972
G1 X81.202 Y83.071 E61.27881
G1 X80.268 Y83.071 E61.30921
G1 X94.549 Y97.352 E61.96632
G1 X94.276 Y98.012 E61.98958
G1 X79.334 Y83.071 E62.67709
G1 X78.400 Y83.071 E62.70748
G1 X94.065 Y98.736 E63.42828
G1 X93.957 Y99.561 E63.45537
G1 X77.466 Y83.071 E64.21414
G1 X76.721 Y83.260 E64.23915
G1 X93.965 Y100.504 E65.03261
G1 X94.107 Y101.581 E65.06793
G1 X76.721 Y84.194 E65.86792
G1 X76.721 Y85.128 E65.89831
G1 X94.957 Y103.365 E66.73741
G1 X96.635 Y105.043 F7800.000
G1 X108.522 Y116.929 E67.28433 F1080.000
G1 X107.588 Y116.929 E67.31473
G1 X76.721 Y86.062 E68.73499
G1 X76.721 Y86.996 E68.76538
G1 X106.654 Y116.929 E70.14266
G1 X105.720 Y116.929 E70.17305
G1 X76.721 Y87.930 E71.50735
G1 X76.721 Y88.865 E71.53774
G1 X104.785 Y116.929 E72.82905
G1 X103.851 Y116.929 E72.85945
G1 X76.721 Y89.799 E74.10778
G1 X76.721 Y90.733 E74.13817
G1 X102.917 Y116.929 E75.34352
G1 X101.983 Y116.929 E75.37391
G1 X76.721 Y91.667 E76.53628
G1 X76.721 Y92.601 E76.56667
G1 X101.049 Y116.929 E77.68605
G1 X100.115 Y116.929 E77.71645
G1 X76.721 Y93.535 E78.79285
G1 X76.721 Y94.470 E78.82324
G1 X99.180 Y116.929 E79.85666
G1 X98.246 Y116.929 E79.88705
G1 X76.721 Y95.404 E80.87749
G1 X76.721 Y96.338 E80.90788
G1 X97.312 Y116.929 E81.85533
G1 X96.378 Y116.929 E81.88573
G1 X76.721 Y97.272 E82.79020
G1 X76.721 Y98.206 E82.82059
G1 X95.444 Y116.929 E83.68208
G1 X94.510 Y116.929 E83.71247
G1 X76.721 Y99.140 E84.53098
G1 X76.721 Y100.075 E84.56137
G1 X93.575 Y116.929 E85.33690
G1 X92.641 Y116.929 E85.36729
G1 X76.721 Y101.009 E86.09983
G1 X76.721 Y101.943 E86.13023
G1 X91.707 Y116.929 E86.81978
G1 X90.773 Y116.929 E86.85018
G1 X76.721 Y102.877 E87.49675
G1 X76.721 Y103.811 E87.52715
G1 X89.839 Y116.929 E88.13074
G1 X88.905 Y116.929 E88.16113
G1 X76.721 Y104.745 E88.72175
G1 X76.721 Y105.680 E88.75214
G1 X87.970 Y116.929 E89.26977
G1 X87.036 Y116.929 E89.30016
G1 X76.721 Y106.614 E89.77481
G1 X76.721 Y107.548 E89.80520
G1 X86.102 Y116.929 E90.23687
G1 X85.168 Y116.929 E90.26726
G1 X76.721 Y108.482 E90.65594
G1 X76.721 Y109.416 E90.68634
G1 X84.234 Y116.929 E91.03204
G1 X83.300 Y116.929 E91.06243
G1 X76.721 Y110.350 E91.36515
G1 X76.721 Y111.285 E91.39554
G1 X82.365 Y116.929 E91.65527
G1 X81.431 Y116.929 E91.68567
G1 X76.721 Y112.219 E91.90242
G1 X76.721 Y113.153 E91.93281
G1 X80.497 Y116.929 E92.10658
G1 X79.563 Y116.929 E92.13698
G1 X76.721 Y114.087 E92.26776
G1 X76.721 Y115.021 E92.29816
G1 X78.629 Y116.929 E92.38596
G1 X77.695 Y116.929 E92.41636
G1 X76.721 Y115.955 E92.46118
G1 X76.721 Y116.889 E92.49157
G1 X76.761 Y116.929 E92.49341
G1 F1800.000 E91.49341
G92 E0
G1 Z0.750 F7800.000
G1 X104.360 Y102.824 F7800.000
G1 E1.00000 F1800.000
G1 X103.693 Y103.693 E1.03100 F1800.000
G1 X102.612 Y104.523 E1.06958
G1 X101.352 Y105.045 E1.10816
G1 X100.000 Y105.223 E1.14674
G1 X98.648 Y105.045 E1.18532
G1 X97.388 Y104.523 E1.22390
G1 X96.307 Y103.693 E1.26248
G1 X95.477 Y102.612 E1.30106
G1 X94.955 Y101.352 E1.33964
G1 X94.777 Y100.000 E1.37822
G1 X94.955 Y98.648 E1.41680
G1 X95.477 Y97.388 E1.45538
G1 X96.307 Y96.307 E1.49396
G1 X97.388 Y95.477 E1.53254
G1 X98.648 Y94.955 E1.57112
G1 X100.000 Y94.777 E1.60970
G1 X100.252 Y94.810 E1.61689
G1 X101.352 Y94.955 E1.64828 F1800.000
G1 X102.612 Y95.477 E1.68686
G1 X103.693 Y96.307 E1.72544
G1 X104.523 Y97.388 E1.76402
G1 X105.045 Y98.648 E1.80260
G1 X105.223 Y100.000 E1.84118
G1 X105.045 Y101.352 E1.87976
G1 X104.523 Y102.612 E1.91834
G1 X104.406 Y102.765 E1.92380
G1 X103.964 Y102.520 F7800.000
G1 X103.337 Y103.337 E1.95293 F1800.000
G1 X102.359 Y104.087 E1.98779
G1 X101.221 Y104.558 E2.02264
G1 X100.000 Y104.719 E2.05750
G1 X98.779 Y104.558 E2.09235
G1 X97.641 Y104.087 E2.12721
G1 X96.663 Y103.337 E2.16206
G1 X95.913 Y102.359 E2.19691
G1 X95.442 Y101.221 E2.23177
G1 X95.281 Y100.000 E2.26662
G1 X95.442 Y98.779 E2.30148
G1 X95.913 Y97.641 E2.33633
G1 X96.663 Y96.663 E2.37119
G1 X97.641 Y95.913 E2.40604
G1 X98.779 Y95.442 E2.44090
G1 X98.965 Y95.417 E2.44623
G1 X100.000 Y95.281 E2.47575 F1800.000
G1 X101.221 Y95.442 E2.51061
G1 X102.359 Y95.913 E2.54546
G1 X103.337 Y96.663 E2.58032
G1 X104.087 Y97.641 E2.61517
G1 X104.558 Y98.779 E2.65003
G1 X104.719 Y100.000 E2.68488
G1 X104.558 Y101.221 E2.71974
G1 X104.087 Y102.359 E2.75459
G1 X104.009 Y102.460 E2.75819
G1 X103.567 Y102.215 F7800.000
G1 X102.980 Y102.980 E2.78546 F1260.000
G1 X102.107 Y103.650 E2.81659
G1 X101.091 Y104.071 E2.84772
G1 X100.000 Y104.215 E2.87885
G1 X98.909 Y104.071 E2.90998
G1 X97.893 Y103.650 E2.94111
G1 X97.020 Y102.980 E2.97224
G1 X96.350 Y102.107 E3.00337
G1 X95.929 Y101.091 E3.03450
G1 X95.785 Y100.000 E3.06563
G1 X95.929 Y98.909 E3.09676
G1 X96.350 Y97.893 E3.12789
G1 X97.020 Y97.020 E3.15902
G1 X97.893 Y96.350 E3.19015
G1 X98.909 Y95.929 E3.22128
G1 X100.000 Y95.785 E3.25241
G1 X100.121 Y95.801 E3.25588
G1 X101.091 Y95.929 E3.28354 F1260.000
G1 X102.107 Y96.350 E3.31467
G1 X102.980 Y97.020 E3.34580
G1 X103.650 Y97.893 E3.37693
G1 X104.071 Y98.909 E3.40806
G1 X104.215 Y100.000 E3.43919
G1 X104.071 Y101.091 E3.47032
G1 X103.650 Y102.107 E3.50145
G1 X103.613 Y102.156 E3.50319
G1 F1800.000 E2.50319
G92 E0
G1 X100.080 Y95.303 F7800.000
G1 X124.150 Y117.800 F7800.000
G1 E1.00000 F1800.000
G1 X75.850 Y117.800 E2.36661 F1800.000
G1 X75.850 Y82.200 E3.37388
G1 X124.150 Y82.200 E4.74050
G1 X124.150 Y117.725 E5.74565
G1 X124.650 Y118.300 F7800.000
G1 X75.350 Y118.300 E7.14055 F1800.000
G1 X75.350 Y81.700 E8.17612
G1 X124.650 Y81.700 E9.57103
G1 X124.650 Y118.225 E10.60447
G1 X125.150 Y118.800 F7800.000
G1 X74.850 Y118.800 E12.02767 F1260.000
G1 X74.850 Y81.200 E13.09153
G1 X125.150 Y81.200 E14.51473
G1 X125.150 Y118.725 E15.57647
G1 X124.717 Y118.550 F7800.000
G1 X123.803 Y117.413 F7800.000
G1 X123.763 Y117.453 E15.57814 F3600.000
G1 X123.027 Y117.453 E15.59978
G1 X123.803 Y116.677 E15.63205
G1 X123.803 Y115.941 E15.65369
G1 X122.291 Y117.453 E15.71657
G1 X121.555 Y117.453 E15.73821
G1 X123.803 Y115.205 E15.83170
G1 X123.803 Y114.469 E15.85334
G1 X120.819 Y117.453 E15.97743
G1 X120.083 Y117.453 E15.99907
G1 X123.803 Y113.733 E16.15377
G1 X123.803 Y112.997 E16.17541
G1 X119.347 Y117.453 E16.36072
G1 X118.611 Y117.453 E16.38236
G1 X123.803 Y112.261 E16.59827
G1 X123.803 Y111.525 E16.61992
G1 X117.875 Y117.453 E16.86644
G1 X117.139 Y117.453 E16.88808
G1 X123.803 Y110.789 E17.16520
G1 X123.803 Y110.053 E17.18685
G1 X116.403 Y117.453 E17.49458
G1 X115.667 Y117.453 E17.51622
G1 X123.803 Y109.317 E17.85456
G1 X123.803 Y108.581 E17.87621
G1 X114.931 Y117.453 E18.24515
G1 X114.195 Y117.453 E18.26680
G1 X123.803 Y107.845 E18.66635
G1 X123.803 Y107.109 E18.68799
G1 X113.459 Y117.453 E19.11815
G1 X112.723 Y117.453 E19.13980
G1 X123.803 Y106.373 E19.60057
G1 X123.803 Y105.637 E19.62221
G1 X111.987 Y117.453 E20.11358
G1 X111.251 Y117.453 E20.13523
G1 X123.803 Y104.901 E20.65721
G1 X123.803 Y104.165 E20.67885
G1 X110.515 Y117.453 E21.23144
G1 X109.779 Y117.453 E21.25308
G1 X123.803 Y103.429 E21.83628
G1 X123.803 Y102.693 E21.85792
G1 X109.043 Y117.453 E22.47173
G1 X108.307 Y117.453 E22.49337
G1 X123.803 Y101.957 E23.13778
G1 X123.803 Y101.221 E23.15942
G1 X107.571 Y117.453 E23.83444
G1 X106.835 Y117.453 E23.85608
G1 X123.803 Y100.485 E24.56171
G1 X123.803 Y99.749 E24.58335
G1 X106.099 Y117.453 E25.31958
G1 X105.363 Y117.453 E25.34122
G1 X123.803 Y99.013 E26.10806
G1 X123.803 Y98.277 E26.12970
G1 X104.627 Y117.453 E26.92715
G1 X103.891 Y117.453 E26.94879
G1 X123.803 Y97.541 E27.77685
G1 X123.803 Y96.805 E27.79849
G1 X103.155 Y117.453 E28.65715
G1 X102.419 Y117.453 E28.67879
G1 X123.803 Y96.069 E29.56806
G1 X123.803 Y95.333 E29.58970
G1 X101.683 Y117.453 E30.50957
G1 X100.947 Y117.453 E30.53122
G1 X123.803 Y94.597 E31.48170
G1 X123.803 Y93.861 E31.50334
G1 X100.211 Y117.453 E32.48443
G1 X99.475 Y117.453 E32.50607
G1 X123.803 Y93.125 E33.51776
G1 X123.803 Y92.389 E33.53941
G1 X98.739 Y117.453 E34.58171
G1 X98.003 Y117.453 E34.60335
G1 X123.803 Y91.653 E35.67626
G1 X123.803 Y90.917 E35.69790
G1 X97.267 Y117.453 E36.80142
