( Made using CamBam - http://www.cambam.co.uk )
( bed_leveler_bracket 10/21/2014 2:59:29 PM )
( T0 : 0.125 )
G20 G90 G64 G40
G0 Z0.125
( T0 : 0.125 )
T0 M6
( cutout )
G17
M3 S1000
G0 X0.8263 Y1.2083
G0 Z0.0625
G1 F10.0 Z-0.015
G2 F15.0 X0.7576 Y1.1687 I-0.0458 J0.0
G2 Y1.2479 I0.0229 J0.0396
G2 X0.8263 Y1.2083 I0.0229 J-0.0396
G1 F10.0 Z-0.03
G2 F15.0 X0.7576 Y1.1687 I-0.0458 J0.0
G2 Y1.2479 I0.0229 J0.0396
G2 X0.8263 Y1.2083 I0.0229 J-0.0396
G1 F10.0 Z-0.045
G2 F15.0 X0.7576 Y1.1687 I-0.0458 J0.0
G2 Y1.2479 I0.0229 J0.0396
G2 X0.8263 Y1.2083 I0.0229 J-0.0396
G1 F10.0 Z-0.06
G2 F15.0 X0.7576 Y1.1687 I-0.0458 J0.0
G2 Y1.2479 I0.0229 J0.0396
G2 X0.8263 Y1.2083 I0.0229 J-0.0396
G1 F10.0 Z-0.075
G2 F15.0 X0.7576 Y1.1687 I-0.0458 J0.0
G2 Y1.2479 I0.0229 J0.0396
G2 X0.8263 Y1.2083 I0.0229 J-0.0396
( Drill1 )
S1000
G0 Z0.125
G0 X0.5778 Y0.2605
G98
G81 X0.5778 Y0.2605 Z-0.075 R0.125 F10.0
G81 X0.2028 Z-0.075
G80
( outline )
S1000
G0 Z0.125
G0 X0.7729 Y1.418
G0 Z0.0625
G1 F10.0 Z-0.015
G1 F15.0 X0.2168 Y1.3495
G3 X0.0645 Y1.2302 I0.0229 J-0.1861
G1 X-0.042 Y0.9508
G3 X-0.0625 Y0.8395 I0.292 J-0.1113
G1 Y0.125
G3 X0.125 Y-0.0625 I0.1875 J0.0
G1 X0.6555
G3 X0.843 Y0.125 I0.0 J0.1875
G1 Y0.8078
G2 X0.876 Y0.9141 I0.1875 J0.0
G1 X0.9576 Y1.0326
G3 X0.9906 Y1.1389 I-0.1545 J0.1063
G1 Y1.2083
G3 X0.7805 Y1.4185 I-0.2101 J0.0
G3 X0.7729 Y1.418 I0.0 J-0.0625
G1 F10.0 Z-0.03
G1 F15.0 X0.2168 Y1.3495
G3 X0.0645 Y1.2302 I0.0229 J-0.1861
G1 X-0.042 Y0.9508
G3 X-0.0625 Y0.8395 I0.292 J-0.1113
G1 Y0.125
G3 X0.125 Y-0.0625 I0.1875 J0.0
G1 X0.6555
G3 X0.843 Y0.125 I0.0 J0.1875
G1 Y0.8078
G2 X0.876 Y0.9141 I0.1875 J0.0
G1 X0.9576 Y1.0326
G3 X0.9906 Y1.1389 I-0.1545 J0.1063
G1 Y1.2083
G3 X0.7805 Y1.4185 I-0.2101 J0.0
G3 X0.7729 Y1.418 I0.0 J-0.0625
G1 F10.0 Z-0.045
G1 F15.0 X0.2168 Y1.3495
G3 X0.0645 Y1.2302 I0.0229 J-0.1861
G1 X-0.042 Y0.9508
G3 X-0.0625 Y0.8395 I0.292 J-0.1113
G1 Y0.125
G3 X0.125 Y-0.0625 I0.1875 J0.0
G1 X0.6555
G3 X0.843 Y0.125 I0.0 J0.1875
G1 Y0.8078
G2 X0.876 Y0.9141 I0.1875 J0.0
G1 X0.9576 Y1.0326
G3 X0.9906 Y1.1389 I-0.1545 J0.1063
G1 Y1.2083
G3 X0.7805 Y1.4185 I-0.2101 J0.0
G3 X0.7729 Y1.418 I0.0 J-0.0625
G1 F10.0 Z-0.06
G1 F15.0 X0.2168 Y1.3495
G3 X0.0645 Y1.2302 I0.0229 J-0.1861
G1 X-0.042 Y0.9508
G3 X-0.0625 Y0.8395 I0.292 J-0.1113
G1 Y0.125
G3 X0.125 Y-0.0625 I0.1875 J0.0
G1 X0.6555
G3 X0.843 Y0.125 I0.0 J0.1875
G1 Y0.8078
G2 X0.876 Y0.9141 I0.1875 J0.0
G1 X0.9576 Y1.0326
G3 X0.9906 Y1.1389 I-0.1545 J0.1063
G1 Y1.2083
G3 X0.7805 Y1.4185 I-0.2101 J0.0
G3 X0.7729 Y1.418 I0.0 J-0.0625
G1 F10.0 Z-0.075
G1 F15.0 X0.2168 Y1.3495
G3 X0.0645 Y1.2302 I0.0229 J-0.1861
G1 X-0.042 Y0.9508
G3 X-0.0625 Y0.8395 I0.292 J-0.1113
G1 Y0.125
G3 X0.125 Y-0.0625 I0.1875 J0.0
G1 X0.6555
G3 X0.843 Y0.125 I0.0 J0.1875
G1 Y0.8078
G2 X0.876 Y0.9141 I0.1875 J0.0
G1 X0.9576 Y1.0326
G3 X0.9906 Y1.1389 I-0.1545 J0.1063
G1 Y1.2083
G3 X0.7805 Y1.4185 I-0.2101 J0.0
G3 X0.7729 Y1.418 I0.0 J-0.0625
G0 Z0.125
M5
M30
