( Made using CamBam - http://www.cambam.co.uk )
( bed_cablechain_brackets 3/9/2015 12:25:34 AM )
( T0 : 0.125 )
G20 G90 G64 G40
G0 Z0.125
( T0 : 0.125 )
T0 M6
( Drill1 )
G17
M3 S1000
G0 X0.5379 Y2.435
G98
G81 X0.5379 Y2.435 Z-0.07 R0.125 F10.0
G81 Y2.0413 Z-0.07
G81 X0.5544 Y0.8942 Z-0.07
G81 Y0.5005 Z-0.07
G81 X1.9294 Y0.2741 Z-0.07
G81 Y0.8222 Z-0.07
G81 X1.7234 Y1.5952 Z-0.07
G81 Y2.6371 Z-0.07
G81 Y3.1371 Z-0.07
G81 Y4.179 Z-0.07
G81 Y4.679 Z-0.07
G81 Y5.7209 Z-0.07
G81 Y6.2208 Z-0.07
G81 Y7.2627 Z-0.07
G80
( holes )
S1000
G0 Z0.125
G0 X3.0754 Y2.1161
G0 Z0.0625
G1 F10.0 Z-0.01
G2 F15.0 X2.9352 Y2.0351 I-0.0935 J0.0
G2 Y2.1971 I0.0467 J0.081
G2 X3.0754 Y2.1161 I0.0467 J-0.081
G1 F10.0 Z-0.02
G2 F15.0 X2.9352 Y2.0351 I-0.0935 J0.0
G2 Y2.1971 I0.0467 J0.081
G2 X3.0754 Y2.1161 I0.0467 J-0.081
G1 F10.0 Z-0.03
G2 F15.0 X2.9352 Y2.0351 I-0.0935 J0.0
G2 Y2.1971 I0.0467 J0.081
G2 X3.0754 Y2.1161 I0.0467 J-0.081
G1 F10.0 Z-0.04
G2 F15.0 X2.9352 Y2.0351 I-0.0935 J0.0
G2 Y2.1971 I0.0467 J0.081
G2 X3.0754 Y2.1161 I0.0467 J-0.081
G1 F10.0 Z-0.05
G2 F15.0 X2.9352 Y2.0351 I-0.0935 J0.0
G2 Y2.1971 I0.0467 J0.081
G2 X3.0754 Y2.1161 I0.0467 J-0.081
G1 F10.0 Z-0.06
G2 F15.0 X2.9352 Y2.0351 I-0.0935 J0.0
G2 Y2.1971 I0.0467 J0.081
G2 X3.0754 Y2.1161 I0.0467 J-0.081
G1 F10.0 Z-0.07
G2 F15.0 X2.9352 Y2.0351 I-0.0935 J0.0
G2 Y2.1971 I0.0467 J0.081
G2 X3.0754 Y2.1161 I0.0467 J-0.081
G0 Z0.125
G0 X2.9876 Y3.5647
G0 Z0.0625
G1 F10.0 Z-0.01
G2 F15.0 X2.9352 Y3.577 I-0.0057 J0.0933
G2 Y3.739 I0.0467 J0.081
G2 X3.0754 Y3.658 I0.0467 J-0.081
G2 X2.9876 Y3.5647 I-0.0935 J0.0
G1 F10.0 Z-0.02
G2 F15.0 X2.9352 Y3.577 I-0.0057 J0.0933
G2 Y3.739 I0.0467 J0.081
G2 X3.0754 Y3.658 I0.0467 J-0.081
G2 X2.9876 Y3.5647 I-0.0935 J0.0
G1 F10.0 Z-0.03
G2 F15.0 X2.9352 Y3.577 I-0.0057 J0.0933
G2 Y3.739 I0.0467 J0.081
G2 X3.0754 Y3.658 I0.0467 J-0.081
G2 X2.9876 Y3.5647 I-0.0935 J0.0
G1 F10.0 Z-0.04
G2 F15.0 X2.9352 Y3.577 I-0.0057 J0.0933
G2 Y3.739 I0.0467 J0.081
G2 X3.0754 Y3.658 I0.0467 J-0.081
G2 X2.9876 Y3.5647 I-0.0935 J0.0
G1 F10.0 Z-0.05
G2 F15.0 X2.9352 Y3.577 I-0.0057 J0.0933
G2 Y3.739 I0.0467 J0.081
G2 X3.0754 Y3.658 I0.0467 J-0.081
G2 X2.9876 Y3.5647 I-0.0935 J0.0
G1 F10.0 Z-0.06
G2 F15.0 X2.9352 Y3.577 I-0.0057 J0.0933
G2 Y3.739 I0.0467 J0.081
G2 X3.0754 Y3.658 I0.0467 J-0.081
G2 X2.9876 Y3.5647 I-0.0935 J0.0
G1 F10.0 Z-0.07
G2 F15.0 X2.9352 Y3.577 I-0.0057 J0.0933
G2 Y3.739 I0.0467 J0.081
G2 X3.0754 Y3.658 I0.0467 J-0.081
G2 X2.9876 Y3.5647 I-0.0935 J0.0
G0 Z0.125
G0 X2.9822 Y5.1064
G0 Z0.0625
G1 F10.0 Z-0.01
G2 F15.0 X2.9351 Y5.1189 I-0.0003 J0.0935
G2 Y5.2809 I0.0467 J0.081
G2 X3.0754 Y5.1999 I0.0467 J-0.081
G2 X2.9822 Y5.1064 I-0.0935 J0.0
G1 F10.0 Z-0.02
G2 F15.0 X2.9351 Y5.1189 I-0.0003 J0.0935
G2 Y5.2809 I0.0467 J0.081
G2 X3.0754 Y5.1999 I0.0467 J-0.081
G2 X2.9822 Y5.1064 I-0.0935 J0.0
G1 F10.0 Z-0.03
G2 F15.0 X2.9351 Y5.1189 I-0.0003 J0.0935
G2 Y5.2809 I0.0467 J0.081
G2 X3.0754 Y5.1999 I0.0467 J-0.081
G2 X2.9822 Y5.1064 I-0.0935 J0.0
G1 F10.0 Z-0.04
G2 F15.0 X2.9351 Y5.1189 I-0.0003 J0.0935
G2 Y5.2809 I0.0467 J0.081
G2 X3.0754 Y5.1999 I0.0467 J-0.081
G2 X2.9822 Y5.1064 I-0.0935 J0.0
G1 F10.0 Z-0.05
G2 F15.0 X2.9351 Y5.1189 I-0.0003 J0.0935
G2 Y5.2809 I0.0467 J0.081
G2 X3.0754 Y5.1999 I0.0467 J-0.081
G2 X2.9822 Y5.1064 I-0.0935 J0.0
G1 F10.0 Z-0.06
G2 F15.0 X2.9351 Y5.1189 I-0.0003 J0.0935
G2 Y5.2809 I0.0467 J0.081
G2 X3.0754 Y5.1999 I0.0467 J-0.081
G2 X2.9822 Y5.1064 I-0.0935 J0.0
G1 F10.0 Z-0.07
G2 F15.0 X2.9351 Y5.1189 I-0.0003 J0.0935
G2 Y5.2809 I0.0467 J0.081
G2 X3.0754 Y5.1999 I0.0467 J-0.081
G2 X2.9822 Y5.1064 I-0.0935 J0.0
G0 Z0.125
G0 X2.9819 Y6.6483
G0 Z0.0625
G1 F10.0 Z-0.01
G2 F15.0 X2.9351 Y6.6608 I0.0 J0.0935
G2 Y6.8228 I0.0467 J0.081
G2 X3.0754 Y6.7418 I0.0467 J-0.081
G2 X2.9819 Y6.6483 I-0.0935 J0.0
G1 F10.0 Z-0.02
G2 F15.0 X2.9351 Y6.6608 I0.0 J0.0935
G2 Y6.8228 I0.0467 J0.081
G2 X3.0754 Y6.7418 I0.0467 J-0.081
G2 X2.9819 Y6.6483 I-0.0935 J0.0
G1 F10.0 Z-0.03
G2 F15.0 X2.9351 Y6.6608 I0.0 J0.0935
G2 Y6.8228 I0.0467 J0.081
G2 X3.0754 Y6.7418 I0.0467 J-0.081
G2 X2.9819 Y6.6483 I-0.0935 J0.0
G1 F10.0 Z-0.04
G2 F15.0 X2.9351 Y6.6608 I0.0 J0.0935
G2 Y6.8228 I0.0467 J0.081
G2 X3.0754 Y6.7418 I0.0467 J-0.081
G2 X2.9819 Y6.6483 I-0.0935 J0.0
G1 F10.0 Z-0.05
G2 F15.0 X2.9351 Y6.6608 I0.0 J0.0935
G2 Y6.8228 I0.0467 J0.081
G2 X3.0754 Y6.7418 I0.0467 J-0.081
G2 X2.9819 Y6.6483 I-0.0935 J0.0
G1 F10.0 Z-0.06
G2 F15.0 X2.9351 Y6.6608 I0.0 J0.0935
G2 Y6.8228 I0.0467 J0.081
G2 X3.0754 Y6.7418 I0.0467 J-0.081
G2 X2.9819 Y6.6483 I-0.0935 J0.0
G1 F10.0 Z-0.07
G2 F15.0 X2.9351 Y6.6608 I0.0 J0.0935
G2 Y6.8228 I0.0467 J0.081
G2 X3.0754 Y6.7418 I0.0467 J-0.081
G2 X2.9819 Y6.6483 I-0.0935 J0.0
( Profile1 )
S1000
G0 Z0.125
G0 X0.0451 Y4.8039
G0 Z0.0625
G1 F10.0 Z-0.01
G3 F15.0 X0.2326 Y4.6164 I0.1875 J0.0
G1 X3.6069 Y4.6165
G3 X3.7944 Y4.804 I0.0 J0.1875
G1 Y5.5958
G3 X3.6069 Y5.7833 I-0.1875 J0.0
G1 X0.2326
G3 X0.0451 Y5.5958 I0.0 J-0.1875
G1 Y4.8039
G1 F10.0 Z-0.02
G3 F15.0 X0.2326 Y4.6164 I0.1875 J0.0
G1 X3.6069 Y4.6165
G3 X3.7944 Y4.804 I0.0 J0.1875
G1 Y5.5958
G3 X3.6069 Y5.7833 I-0.1875 J0.0
G1 X0.2326
G3 X0.0451 Y5.5958 I0.0 J-0.1875
G1 Y4.8039
G1 F10.0 Z-0.03
G3 F15.0 X0.2326 Y4.6164 I0.1875 J0.0
G1 X3.6069 Y4.6165
G3 X3.7944 Y4.804 I0.0 J0.1875
G1 Y5.5958
G3 X3.6069 Y5.7833 I-0.1875 J0.0
G1 X0.2326
G3 X0.0451 Y5.5958 I0.0 J-0.1875
G1 Y4.8039
G1 F10.0 Z-0.04
G3 F15.0 X0.2326 Y4.6164 I0.1875 J0.0
G1 X3.6069 Y4.6165
G3 X3.7944 Y4.804 I0.0 J0.1875
G1 Y5.5958
G3 X3.6069 Y5.7833 I-0.1875 J0.0
G1 X0.2326
G3 X0.0451 Y5.5958 I0.0 J-0.1875
G1 Y4.8039
G1 F10.0 Z-0.05
G3 F15.0 X0.2326 Y4.6164 I0.1875 J0.0
G1 X3.6069 Y4.6165
G3 X3.7944 Y4.804 I0.0 J0.1875
G1 Y5.5958
G3 X3.6069 Y5.7833 I-0.1875 J0.0
G1 X0.2326
G3 X0.0451 Y5.5958 I0.0 J-0.1875
G1 Y4.8039
G1 F10.0 Z-0.06
G3 F15.0 X0.2326 Y4.6164 I0.1875 J0.0
G1 X3.6069 Y4.6165
G3 X3.7944 Y4.804 I0.0 J0.1875
G1 Y5.5958
G3 X3.6069 Y5.7833 I-0.1875 J0.0
G1 X0.2326
G3 X0.0451 Y5.5958 I0.0 J-0.1875
G1 Y4.8039
G1 F10.0 Z-0.07
G3 F15.0 X0.2326 Y4.6164 I0.1875 J0.0
G1 X3.6069 Y4.6165
G3 X3.7944 Y4.804 I0.0 J0.1875
G1 Y5.5958
G3 X3.6069 Y5.7833 I-0.1875 J0.0
G1 X0.2326
G3 X0.0451 Y5.5958 I0.0 J-0.1875
G1 Y4.8039
G0 Z0.125
G0 X0.1871 Y4.2358
G0 Z0.0625
G1 F10.0 Z-0.01
G3 F15.0 X0.0451 Y4.0539 I0.0455 J-0.1819
G1 Y3.262
G3 X0.2326 Y3.0745 I0.1875 J0.0
G1 X3.6069 Y3.0746
G3 X3.7944 Y3.2621 I0.0 J0.1875
G1 Y4.054
G3 X3.6069 Y4.2415 I-0.1875 J0.0
G1 X0.2326 Y4.2414
G3 X0.1871 Y4.2358 I0.0 J-0.1875
G1 F10.0 Z-0.02
G3 F15.0 X0.0451 Y4.0539 I0.0455 J-0.1819
G1 Y3.262
G3 X0.2326 Y3.0745 I0.1875 J0.0
G1 X3.6069 Y3.0746
G3 X3.7944 Y3.2621 I0.0 J0.1875
G1 Y4.054
G3 X3.6069 Y4.2415 I-0.1875 J0.0
G1 X0.2326 Y4.2414
G3 X0.1871 Y4.2358 I0.0 J-0.1875
G1 F10.0 Z-0.03
G3 F15.0 X0.0451 Y4.0539 I0.0455 J-0.1819
G1 Y3.262
G3 X0.2326 Y3.0745 I0.1875 J0.0
G1 X3.6069 Y3.0746
G3 X3.7944 Y3.2621 I0.0 J0.1875
G1 Y4.054
G3 X3.6069 Y4.2415 I-0.1875 J0.0
G1 X0.2326 Y4.2414
G3 X0.1871 Y4.2358 I0.0 J-0.1875
G1 F10.0 Z-0.04
G3 F15.0 X0.0451 Y4.0539 I0.0455 J-0.1819
G1 Y3.262
G3 X0.2326 Y3.0745 I0.1875 J0.0
G1 X3.6069 Y3.0746
G3 X3.7944 Y3.2621 I0.0 J0.1875
G1 Y4.054
G3 X3.6069 Y4.2415 I-0.1875 J0.0
G1 X0.2326 Y4.2414
G3 X0.1871 Y4.2358 I0.0 J-0.1875
G1 F10.0 Z-0.05
G3 F15.0 X0.0451 Y4.0539 I0.0455 J-0.1819
G1 Y3.262
G3 X0.2326 Y3.0745 I0.1875 J0.0
G1 X3.6069 Y3.0746
G3 X3.7944 Y3.2621 I0.0 J0.1875
G1 Y4.054
G3 X3.6069 Y4.2415 I-0.1875 J0.0
G1 X0.2326 Y4.2414
G3 X0.1871 Y4.2358 I0.0 J-0.1875
G1 F10.0 Z-0.06
G3 F15.0 X0.0451 Y4.0539 I0.0455 J-0.1819
G1 Y3.262
G3 X0.2326 Y3.0745 I0.1875 J0.0
G1 X3.6069 Y3.0746
G3 X3.7944 Y3.2621 I0.0 J0.1875
G1 Y4.054
G3 X3.6069 Y4.2415 I-0.1875 J0.0
G1 X0.2326 Y4.2414
G3 X0.1871 Y4.2358 I0.0 J-0.1875
G1 F10.0 Z-0.07
G3 F15.0 X0.0451 Y4.0539 I0.0455 J-0.1819
G1 Y3.262
G3 X0.2326 Y3.0745 I0.1875 J0.0
G1 X3.6069 Y3.0746
G3 X3.7944 Y3.2621 I0.0 J0.1875
G1 Y4.054
G3 X3.6069 Y4.2415 I-0.1875 J0.0
G1 X0.2326 Y4.2414
G3 X0.1871 Y4.2358 I0.0 J-0.1875
G0 Z0.125
G0 X0.2277 Y2.6995
G0 Z0.0625
G1 F10.0 Z-0.01
G3 F15.0 X0.0451 Y2.512 I0.0049 J-0.1874
G1 Y1.7201
G3 X0.2326 Y1.5326 I0.1875 J0.0
G1 X3.6069 Y1.5327
G3 X3.7944 Y1.7202 I0.0 J0.1875
G1 Y2.5121
G3 X3.6069 Y2.6996 I-0.1875 J0.0
G1 X0.2326 Y2.6995
G3 X0.2277 I0.0 J-0.1875
G1 F10.0 Z-0.02
G3 F15.0 X0.0451 Y2.512 I0.0049 J-0.1874
G1 Y1.7201
G3 X0.2326 Y1.5326 I0.1875 J0.0
G1 X3.6069 Y1.5327
G3 X3.7944 Y1.7202 I0.0 J0.1875
G1 Y2.5121
G3 X3.6069 Y2.6996 I-0.1875 J0.0
G1 X0.2326 Y2.6995
G3 X0.2277 I0.0 J-0.1875
G1 F10.0 Z-0.03
G3 F15.0 X0.0451 Y2.512 I0.0049 J-0.1874
G1 Y1.7201
G3 X0.2326 Y1.5326 I0.1875 J0.0
G1 X3.6069 Y1.5327
G3 X3.7944 Y1.7202 I0.0 J0.1875
G1 Y2.5121
G3 X3.6069 Y2.6996 I-0.1875 J0.0
G1 X0.2326 Y2.6995
G3 X0.2277 I0.0 J-0.1875
G1 F10.0 Z-0.04
G3 F15.0 X0.0451 Y2.512 I0.0049 J-0.1874
G1 Y1.7201
G3 X0.2326 Y1.5326 I0.1875 J0.0
G1 X3.6069 Y1.5327
G3 X3.7944 Y1.7202 I0.0 J0.1875
G1 Y2.5121
G3 X3.6069 Y2.6996 I-0.1875 J0.0
G1 X0.2326 Y2.6995
G3 X0.2277 I0.0 J-0.1875
G1 F10.0 Z-0.05
G3 F15.0 X0.0451 Y2.512 I0.0049 J-0.1874
G1 Y1.7201
G3 X0.2326 Y1.5326 I0.1875 J0.0
G1 X3.6069 Y1.5327
G3 X3.7944 Y1.7202 I0.0 J0.1875
G1 Y2.5121
G3 X3.6069 Y2.6996 I-0.1875 J0.0
G1 X0.2326 Y2.6995
G3 X0.2277 I0.0 J-0.1875
G1 F10.0 Z-0.06
G3 F15.0 X0.0451 Y2.512 I0.0049 J-0.1874
G1 Y1.7201
G3 X0.2326 Y1.5326 I0.1875 J0.0
G1 X3.6069 Y1.5327
G3 X3.7944 Y1.7202 I0.0 J0.1875
G1 Y2.5121
G3 X3.6069 Y2.6996 I-0.1875 J0.0
G1 X0.2326 Y2.6995
G3 X0.2277 I0.0 J-0.1875
G1 F10.0 Z-0.07
G3 F15.0 X0.0451 Y2.512 I0.0049 J-0.1874
G1 Y1.7201
G3 X0.2326 Y1.5326 I0.1875 J0.0
G1 X3.6069 Y1.5327
G3 X3.7944 Y1.7202 I0.0 J0.1875
G1 Y2.5121
G3 X3.6069 Y2.6996 I-0.1875 J0.0
G1 X0.2326 Y2.6995
G3 X0.2277 I0.0 J-0.1875
G0 Z0.125
G0 X0.2466 Y1.1587
G0 Z0.0625
G1 F10.0 Z-0.01
G3 F15.0 X0.0615 Y0.971 I0.0023 J-0.1875
G1 X0.0625 Y0.1248
G3 X0.25 Y-0.0625 I0.1875 J0.0002
G1 X2.3044
G3 X2.3669 Y0.0 I0.0 J0.0625
G1 Y1.0962
G3 X2.3044 Y1.1587 I-0.0625 J0.0
G1 X0.249
G3 X0.2466 I0.0 J-0.1875
G1 F10.0 Z-0.02
G3 F15.0 X0.0615 Y0.971 I0.0023 J-0.1875
G1 X0.0625 Y0.1248
G3 X0.25 Y-0.0625 I0.1875 J0.0002
G1 X2.3044
G3 X2.3669 Y0.0 I0.0 J0.0625
G1 Y1.0962
G3 X2.3044 Y1.1587 I-0.0625 J0.0
G1 X0.249
G3 X0.2466 I0.0 J-0.1875
G1 F10.0 Z-0.03
G3 F15.0 X0.0615 Y0.971 I0.0023 J-0.1875
G1 X0.0625 Y0.1248
G3 X0.25 Y-0.0625 I0.1875 J0.0002
G1 X2.3044
G3 X2.3669 Y0.0 I0.0 J0.0625
G1 Y1.0962
G3 X2.3044 Y1.1587 I-0.0625 J0.0
G1 X0.249
G3 X0.2466 I0.0 J-0.1875
G1 F10.0 Z-0.04
G3 F15.0 X0.0615 Y0.971 I0.0023 J-0.1875
G1 X0.0625 Y0.1248
G3 X0.25 Y-0.0625 I0.1875 J0.0002
G1 X2.3044
G3 X2.3669 Y0.0 I0.0 J0.0625
G1 Y1.0962
G3 X2.3044 Y1.1587 I-0.0625 J0.0
G1 X0.249
G3 X0.2466 I0.0 J-0.1875
G1 F10.0 Z-0.05
G3 F15.0 X0.0615 Y0.971 I0.0023 J-0.1875
G1 X0.0625 Y0.1248
G3 X0.25 Y-0.0625 I0.1875 J0.0002
G1 X2.3044
G3 X2.3669 Y0.0 I0.0 J0.0625
G1 Y1.0962
G3 X2.3044 Y1.1587 I-0.0625 J0.0
G1 X0.249
G3 X0.2466 I0.0 J-0.1875
G1 F10.0 Z-0.06
G3 F15.0 X0.0615 Y0.971 I0.0023 J-0.1875
G1 X0.0625 Y0.1248
G3 X0.25 Y-0.0625 I0.1875 J0.0002
G1 X2.3044
G3 X2.3669 Y0.0 I0.0 J0.0625
G1 Y1.0962
G3 X2.3044 Y1.1587 I-0.0625 J0.0
G1 X0.249
G3 X0.2466 I0.0 J-0.1875
G1 F10.0 Z-0.07
G3 F15.0 X0.0615 Y0.971 I0.0023 J-0.1875
G1 X0.0625 Y0.1248
G3 X0.25 Y-0.0625 I0.1875 J0.0002
G1 X2.3044
G3 X2.3669 Y0.0 I0.0 J0.0625
G1 Y1.0962
G3 X2.3044 Y1.1587 I-0.0625 J0.0
G1 X0.249
G3 X0.2466 I0.0 J-0.1875
G0 Z0.125
G0 Y6.1583
G0 Z0.0625
G1 F10.0 Z-0.01
G1 F15.0 X3.6069
G3 X3.7944 Y6.3458 I0.0 J0.1875
G1 Y7.1377
G3 X3.6069 Y7.3252 I-0.1875 J0.0
G1 X0.2326
G3 X0.0451 Y7.1377 I0.0 J-0.1875
G1 Y6.3458
G3 X0.2326 Y6.1583 I0.1875 J0.0
G1 X0.2466
G1 F10.0 Z-0.02
G1 F15.0 X3.6069
G3 X3.7944 Y6.3458 I0.0 J0.1875
G1 Y7.1377
G3 X3.6069 Y7.3252 I-0.1875 J0.0
G1 X0.2326
G3 X0.0451 Y7.1377 I0.0 J-0.1875
G1 Y6.3458
G3 X0.2326 Y6.1583 I0.1875 J0.0
G1 X0.2466
G1 F10.0 Z-0.03
G1 F15.0 X3.6069
G3 X3.7944 Y6.3458 I0.0 J0.1875
G1 Y7.1377
G3 X3.6069 Y7.3252 I-0.1875 J0.0
G1 X0.2326
G3 X0.0451 Y7.1377 I0.0 J-0.1875
G1 Y6.3458
G3 X0.2326 Y6.1583 I0.1875 J0.0
G1 X0.2466
G1 F10.0 Z-0.04
G1 F15.0 X3.6069
G3 X3.7944 Y6.3458 I0.0 J0.1875
G1 Y7.1377
G3 X3.6069 Y7.3252 I-0.1875 J0.0
G1 X0.2326
G3 X0.0451 Y7.1377 I0.0 J-0.1875
G1 Y6.3458
G3 X0.2326 Y6.1583 I0.1875 J0.0
G1 X0.2466
G1 F10.0 Z-0.05
G1 F15.0 X3.6069
G3 X3.7944 Y6.3458 I0.0 J0.1875
G1 Y7.1377
G3 X3.6069 Y7.3252 I-0.1875 J0.0
G1 X0.2326
G3 X0.0451 Y7.1377 I0.0 J-0.1875
G1 Y6.3458
G3 X0.2326 Y6.1583 I0.1875 J0.0
G1 X0.2466
G1 F10.0 Z-0.06
G1 F15.0 X3.6069
G3 X3.7944 Y6.3458 I0.0 J0.1875
G1 Y7.1377
G3 X3.6069 Y7.3252 I-0.1875 J0.0
G1 X0.2326
G3 X0.0451 Y7.1377 I0.0 J-0.1875
G1 Y6.3458
G3 X0.2326 Y6.1583 I0.1875 J0.0
G1 X0.2466
G1 F10.0 Z-0.07
G1 F15.0 X3.6069
G3 X3.7944 Y6.3458 I0.0 J0.1875
G1 Y7.1377
G3 X3.6069 Y7.3252 I-0.1875 J0.0
G1 X0.2326
G3 X0.0451 Y7.1377 I0.0 J-0.1875
G1 Y6.3458
G3 X0.2326 Y6.1583 I0.1875 J0.0
G1 X0.2466
G0 Z0.125
M5
M30
