( Made using CamBam - http://www.cambam.co.uk )
( endstops_brackets_nested 10/19/2014 11:42:55 PM )
( T0 : 0.0 )
G20 G90 G64 G40
G0 Z0.125
( T0 : 0.0 )
T0 M6
( Drill1 )
G17
M3 S1000
G0 X1.2276 Y0.551
G98
G81 X1.2276 Y0.551 Z-0.042 R0.125 F10.0
G81 X0.834 Y0.8775 Z-0.042
G81 X0.5 Y0.7 Z-0.042
G81 X0.7285 Y0.435 Z-0.042
G81 X0.1775 Z-0.042
G81 X1.2278 Y0.0 Z-0.042
G81 X2.051 Y0.7 Z-0.042
G81 X2.2604 Z-0.042
G81 X1.935 Y0.8775 Z-0.042
G81 Y1.4285 Z-0.042
G81 X2.0512 Y1.606 Z-0.042
G81 X2.2389 Z-0.042
G81 X0.834 Y1.4285 Z-0.042
G81 X0.5 Y1.606 Z-0.042
G80
( cutout )
S1000
G0 Z0.125
G0 X1.4294 Y0.2755
G0 Z0.0625
G1 F10.0 Z-0.015
G2 F15.0 X1.3756 Y0.2444 I-0.0359 J0.0
G2 Y0.3066 I0.018 J0.0311
G2 X1.4294 Y0.2755 I0.018 J-0.0311
G1 F10.0 Z-0.03
G2 F15.0 X1.3756 Y0.2444 I-0.0359 J0.0
G2 Y0.3066 I0.018 J0.0311
G2 X1.4294 Y0.2755 I0.018 J-0.0311
G1 F10.0 Z-0.042
G2 F15.0 X1.3756 Y0.2444 I-0.0359 J0.0
G2 Y0.3066 I0.018 J0.0311
G2 X1.4294 Y0.2755 I0.018 J-0.0311
G0 Z0.125
G0 X0.2907 Y0.904
G0 Z0.0625
G1 F10.0 Z-0.015
G2 F15.0 X0.2268 Y0.8862 I-0.0407 J0.0225
G2 Y0.9668 I0.0233 J0.0403
G2 X0.2965 Y0.9265 I0.0233 J-0.0403
G2 X0.2907 Y0.904 I-0.0465 J0.0
G1 F10.0 Z-0.03
G2 F15.0 X0.2268 Y0.8862 I-0.0407 J0.0225
G2 Y0.9668 I0.0233 J0.0403
G2 X0.2965 Y0.9265 I0.0233 J-0.0403
G2 X0.2907 Y0.904 I-0.0465 J0.0
G1 F10.0 Z-0.042
G2 F15.0 X0.2268 Y0.8862 I-0.0407 J0.0225
G2 Y0.9668 I0.0233 J0.0403
G2 X0.2965 Y0.9265 I0.0233 J-0.0403
G2 X0.2907 Y0.904 I-0.0465 J0.0
G0 Z0.125
G0 X0.2539 Y1.334
G0 Z0.0625
G1 F10.0 Z-0.015
G2 F15.0 X0.2272 Y1.34 I-0.0039 J0.0455
G2 Y1.419 I0.0228 J0.0395
G2 X0.2957 Y1.3795 I0.0228 J-0.0395
G2 X0.2539 Y1.334 I-0.0457 J0.0
G1 F10.0 Z-0.03
G2 F15.0 X0.2272 Y1.34 I-0.0039 J0.0455
G2 Y1.419 I0.0228 J0.0395
G2 X0.2957 Y1.3795 I0.0228 J-0.0395
G2 X0.2539 Y1.334 I-0.0457 J0.0
G1 F10.0 Z-0.042
G2 F15.0 X0.2272 Y1.34 I-0.0039 J0.0455
G2 Y1.419 I0.0228 J0.0395
G2 X0.2957 Y1.3795 I0.0228 J-0.0395
G2 X0.2539 Y1.334 I-0.0457 J0.0
G0 Z0.125
G0 X2.5532 Y1.022
G0 Z0.0625
G1 F10.0 Z-0.015
G2 F15.0 X2.5991 Y1.0904 I0.0927 J-0.0126
G2 X2.7394 Y1.0094 I0.0468 J-0.081
G2 X2.5991 Y0.9285 I-0.0935 J0.0
G2 X2.5532 Y1.022 I0.0468 J0.081
G1 F10.0 Z-0.03
G2 F15.0 X2.5991 Y1.0904 I0.0927 J-0.0126
G2 X2.7394 Y1.0094 I0.0468 J-0.081
G2 X2.5991 Y0.9285 I-0.0935 J0.0
G2 X2.5532 Y1.022 I0.0468 J0.081
G1 F10.0 Z-0.042
G2 F15.0 X2.5991 Y1.0904 I0.0927 J-0.0126
G2 X2.7394 Y1.0094 I0.0468 J-0.081
G2 X2.5991 Y0.9285 I-0.0935 J0.0
G2 X2.5532 Y1.022 I0.0468 J0.081
( outlint )
S1000
G0 Z0.125
G0 X1.4375 Y1.606
G0 Z0.0625
G1 F10.0 Z-0.015
G1 F15.0 Y0.7
G3 X1.5 Y0.6375 I0.0625 J0.0
G1 X3.0209
G3 X3.0834 Y0.7 I0.0 J0.0625
G1 Y1.606
G3 X3.0209 Y1.6685 I-0.0625 J0.0
G1 X1.5
G3 X1.4375 Y1.606 I0.0 J-0.0625
G0 Z0.125
G0 X1.3315
G0 Z0.0625
G1 F10.0 Z-0.015
G3 F15.0 X1.269 Y1.6685 I-0.0625 J0.0
G1 X0.0
G3 X-0.0625 Y1.606 I0.0 J-0.0625
G1 Y0.7
G3 X0.0 Y0.6375 I0.0625 J0.0
G1 X1.269
G3 X1.3315 Y0.7 I0.0 J0.0625
G1 Y1.606
G0 Z0.125
G0 X1.3316 Y0.6137
G0 Z0.0625
G1 F10.0 Z-0.015
G1 F15.0 X0.0 Y0.6135
G3 X-0.0625 Y0.551 I0.0 J-0.0625
G1 Y0.0
G3 X0.0 Y-0.0625 I0.0625 J0.0
G1 X1.6692
G3 X1.7317 Y0.0 I0.0 J0.0625
G1 X1.7315 Y0.5512
G3 X1.669 Y0.6137 I-0.0625 J0.0
G1 X1.3316
G1 F10.0 Z-0.03
G1 F15.0 X0.0 Y0.6135
G3 X-0.0625 Y0.551 I0.0 J-0.0625
G1 Y0.0
G3 X0.0 Y-0.0625 I0.0625 J0.0
G1 X1.6692
G3 X1.7317 Y0.0 I0.0 J0.0625
G1 X1.7315 Y0.5512
G3 X1.669 Y0.6137 I-0.0625 J0.0
G1 X1.3316
G1 F10.0 X1.3057 Y0.6494
G3 F15.0 X1.3315 Y0.7 I-0.0367 J0.0506
G1 Y1.606
G3 X1.269 Y1.6685 I-0.0625 J0.0
G1 X0.0
G3 X-0.0625 Y1.606 I0.0 J-0.0625
G1 Y0.7
G3 X0.0 Y0.6375 I0.0625 J0.0
G1 X1.269
G3 X1.3057 Y0.6494 I0.0 J0.0625
G1 F10.0 Z-0.042
G3 F15.0 X1.3315 Y0.7 I-0.0367 J0.0506
G1 Y1.606
G3 X1.269 Y1.6685 I-0.0625 J0.0
G1 X0.0
G3 X-0.0625 Y1.606 I0.0 J-0.0625
G1 Y0.7
G3 X0.0 Y0.6375 I0.0625 J0.0
G1 X1.269
G3 X1.3057 Y0.6494 I0.0 J0.0625
G0 Z0.125
G0 X1.4395 Y0.6843
G0 Z0.0475
G1 F10.0 Z-0.03
G3 F15.0 X1.5 Y0.6375 I0.0605 J0.0157
G1 X3.0209
G3 X3.0834 Y0.7 I0.0 J0.0625
G1 Y1.606
G3 X3.0209 Y1.6685 I-0.0625 J0.0
G1 X1.5
G3 X1.4375 Y1.606 I0.0 J-0.0625
G1 Y0.7
G3 X1.4395 Y0.6843 I0.0625 J0.0
G1 F10.0 Z-0.042
G3 F15.0 X1.5 Y0.6375 I0.0605 J0.0157
G1 X3.0209
G3 X3.0834 Y0.7 I0.0 J0.0625
G1 Y1.606
G3 X3.0209 Y1.6685 I-0.0625 J0.0
G1 X1.5
G3 X1.4375 Y1.606 I0.0 J-0.0625
G1 Y0.7
G3 X1.4395 Y0.6843 I0.0625 J0.0
G1 F10.0 Y0.6137
G1 F15.0 X0.0 Y0.6135
G3 X-0.0625 Y0.551 I0.0 J-0.0625
G1 Y0.0
G3 X0.0 Y-0.0625 I0.0625 J0.0
G1 X1.6692
G3 X1.7317 Y0.0 I0.0 J0.0625
G1 X1.7315 Y0.5512
G3 X1.669 Y0.6137 I-0.0625 J0.0
G1 X1.4395
G0 Z0.125
M5
M30
