( Made using CamBam - http://www.cambam.co.uk )
( extruder_support_bracket_flat 10/24/2014 10:35:16 PM )
( T0 : 0.125 )
G20 G90 G64 G40
G0 Z0.125
( T0 : 0.125 )
T0 M6
( cutout )
G17
M3 S1000
G0 X1.1008 Y0.8888
G0 Z0.0625
G1 F10.0 Z-0.015
G1 F15.0 X3.0227 Y2.201
G2 X3.0266 Y2.199 I0.0014 J-0.0021
G1 Y1.8517
G2 X3.0253 Y1.8495 I-0.0025 J0.0
G1 X1.1671 Y0.7829
G2 X1.1008 Y0.8888 I-0.0311 J0.0542
G1 F10.0 Z-0.03
G1 F15.0 X3.0227 Y2.201
G2 X3.0266 Y2.199 I0.0014 J-0.0021
G1 Y1.8517
G2 X3.0253 Y1.8495 I-0.0025 J0.0
G1 X1.1671 Y0.7829
G2 X1.1008 Y0.8888 I-0.0311 J0.0542
G1 F10.0 Z-0.045
G1 F15.0 X3.0227 Y2.201
G2 X3.0266 Y2.199 I0.0014 J-0.0021
G1 Y1.8517
G2 X3.0253 Y1.8495 I-0.0025 J0.0
G1 X1.1671 Y0.7829
G2 X1.1008 Y0.8888 I-0.0311 J0.0542
G1 F10.0 Z-0.06
G1 F15.0 X3.0227 Y2.201
G2 X3.0266 Y2.199 I0.0014 J-0.0021
G1 Y1.8517
G2 X3.0253 Y1.8495 I-0.0025 J0.0
G1 X1.1671 Y0.7829
G2 X1.1008 Y0.8888 I-0.0311 J0.0542
G1 F10.0 Z-0.075
G1 F15.0 X3.0227 Y2.201
G2 X3.0266 Y2.199 I0.0014 J-0.0021
G1 Y1.8517
G2 X3.0253 Y1.8495 I-0.0025 J0.0
G1 X1.1671 Y0.7829
G2 X1.1008 Y0.8888 I-0.0311 J0.0542
( Drill1 )
S1000
G0 Z0.125
G0 X3.6586 Y1.8666
G98
G81 X3.6586 Y1.8666 Z-0.075 R0.125 F10.0
G81 X3.2354 Y1.5182 Z-0.075
G81 X3.6585 Y2.5684 Z-0.075
G81 X3.2354 Y2.8184 Z-0.075
G81 X1.0 Y0.4349 Z-0.075
G81 Z-0.075
G81 X0.75 Y0.2175 Z-0.075
G81 X0.25 Z-0.075
G81 X0.0 Y0.435 Z-0.075
G80
( outline )
S1000
G0 Z0.125
G0 X3.1983 Y2.8687
G0 Z0.0625
G1 F10.0 Z-0.015
G1 F15.0 X-0.0371 Y0.4853
G3 X-0.0625 Y0.435 I0.0371 J-0.0503
G1 Y0.0
G3 X0.0 Y-0.0625 I0.0625 J0.0
G1 X1.0
G3 X1.0625 Y0.0 I0.0 J0.0625
G1 Y0.3958
G1 X3.2497 Y1.4557
G1 X4.0036
G3 X4.0661 Y1.5182 I0.0 J0.0625
G1 Y2.8184
G3 X4.0036 Y2.8809 I-0.0625 J0.0
G1 X3.2354
G3 X3.1983 Y2.8687 I0.0 J-0.0625
G1 F10.0 Z-0.03
G1 F15.0 X-0.0371 Y0.4853
G3 X-0.0625 Y0.435 I0.0371 J-0.0503
G1 Y0.0
G3 X0.0 Y-0.0625 I0.0625 J0.0
G1 X1.0
G3 X1.0625 Y0.0 I0.0 J0.0625
G1 Y0.3958
G1 X3.2497 Y1.4557
G1 X4.0036
G3 X4.0661 Y1.5182 I0.0 J0.0625
G1 Y2.8184
G3 X4.0036 Y2.8809 I-0.0625 J0.0
G1 X3.2354
G3 X3.1983 Y2.8687 I0.0 J-0.0625
G1 F10.0 Z-0.045
G1 F15.0 X-0.0371 Y0.4853
G3 X-0.0625 Y0.435 I0.0371 J-0.0503
G1 Y0.0
G3 X0.0 Y-0.0625 I0.0625 J0.0
G1 X1.0
G3 X1.0625 Y0.0 I0.0 J0.0625
G1 Y0.3958
G1 X3.2497 Y1.4557
G1 X4.0036
G3 X4.0661 Y1.5182 I0.0 J0.0625
G1 Y2.8184
G3 X4.0036 Y2.8809 I-0.0625 J0.0
G1 X3.2354
G3 X3.1983 Y2.8687 I0.0 J-0.0625
G1 F10.0 Z-0.06
G1 F15.0 X-0.0371 Y0.4853
G3 X-0.0625 Y0.435 I0.0371 J-0.0503
G1 Y0.0
G3 X0.0 Y-0.0625 I0.0625 J0.0
G1 X1.0
G3 X1.0625 Y0.0 I0.0 J0.0625
G1 Y0.3958
G1 X3.2497 Y1.4557
G1 X4.0036
G3 X4.0661 Y1.5182 I0.0 J0.0625
G1 Y2.8184
G3 X4.0036 Y2.8809 I-0.0625 J0.0
G1 X3.2354
G3 X3.1983 Y2.8687 I0.0 J-0.0625
G1 F10.0 Z-0.075
G1 F15.0 X-0.0371 Y0.4853
G3 X-0.0625 Y0.435 I0.0371 J-0.0503
G1 Y0.0
G3 X0.0 Y-0.0625 I0.0625 J0.0
G1 X1.0
G3 X1.0625 Y0.0 I0.0 J0.0625
G1 Y0.3958
G1 X3.2497 Y1.4557
G1 X4.0036
G3 X4.0661 Y1.5182 I0.0 J0.0625
G1 Y2.8184
G3 X4.0036 Y2.8809 I-0.0625 J0.0
G1 X3.2354
G3 X3.1983 Y2.8687 I0.0 J-0.0625
G0 Z0.125
M5
M30
