; generated by Slic3r 1.1.7 on 2014-10-29 at 00:52:58

; perimeters extrusion width = 0.40mm
; infill extrusion width = 0.42mm
; solid infill extrusion width = 0.42mm
; top infill extrusion width = 0.42mm
; support material extrusion width = 0.40mm

G21 ; set units to millimeters
M107
M104 S185 ; set temperature
G28
G29
G1 Z5 F5000 ; lift nozzle

M109 S185 ; wait for temperature to be reached
G90 ; use absolute coordinates
G92 E0
M82 ; use absolute distances for extrusion
M204 S900
G1 F1800.000 E-1.00000
G92 E0
G1 Z0.350 F7800.000
G1 X120.371 Y121.615 F7800.000
G1 E1.00000 F1800.000
G1 X122.145 Y119.993 E1.22231 F1080.000
G1 X124.351 Y119.038 E1.44461
G1 X126.097 Y118.825 E1.60729
G1 X173.903 Y118.825 E6.02898
G1 X176.274 Y119.223 E6.25129
G1 X178.385 Y120.371 E6.47359 F1080.000
G1 X180.007 Y122.145 E6.69590
G1 X180.962 Y124.351 E6.91820
G1 X181.175 Y126.097 E7.08088
G1 X181.175 Y173.903 E11.50258
G1 X180.777 Y176.274 E11.72488
G1 X179.629 Y178.385 E11.94719
G1 X177.855 Y180.007 E12.16949
G1 X175.649 Y180.962 E12.39180
G1 X173.903 Y181.175 E12.55448
G1 X126.097 Y181.175 E16.97617
G1 X123.726 Y180.777 E17.19848
G1 X121.615 Y179.629 E17.42078
G1 X119.993 Y177.855 E17.64309
G1 X119.038 Y175.649 E17.86539
G1 X118.825 Y173.903 E18.02807
G1 X118.825 Y126.097 E22.44976
G1 X119.223 Y123.726 E22.67207
G1 X120.342 Y121.667 E22.88883
G1 X120.945 Y121.944 F7800.000
G1 X121.001 Y121.846 E22.89935 F1080.000
G1 X122.755 Y120.364 E23.11165
G1 X124.908 Y119.568 E23.32394
G1 X126.097 Y119.461 E23.43437
G1 X173.903 Y119.461 E27.85606
G1 X176.164 Y119.858 E28.06836
G1 X178.154 Y121.001 E28.28065 F1080.000
G1 X179.636 Y122.755 E28.49295
G1 X180.432 Y124.908 E28.70525
G1 X180.539 Y126.097 E28.81567
G1 X180.539 Y173.903 E33.23737
G1 X180.142 Y176.164 E33.44966
G1 X178.999 Y178.154 E33.66196
G1 X177.245 Y179.636 E33.87426
G1 X175.092 Y180.432 E34.08655
G1 X173.903 Y180.539 E34.19698
G1 X126.097 Y180.539 E38.61867
G1 X123.836 Y180.142 E38.83097
G1 X121.846 Y178.999 E39.04327
G1 X120.364 Y177.245 E39.25556
G1 X119.568 Y175.092 E39.46786
G1 X119.461 Y173.903 E39.57828
G1 X119.461 Y126.097 E43.99998
G1 X119.858 Y123.836 E44.21227
G1 X120.915 Y121.996 E44.40850
G1 F1800.000 E43.40850
G92 E0
G1 X125.779 Y125.965 F7800.000
G1 E1.00000 F1800.000
G1 X125.965 Y125.779 E1.02435 F1080.000
G1 X174.035 Y125.779 E5.47040
G1 X174.221 Y125.965 E5.49475
G1 X174.221 Y174.035 E9.94079
G1 X174.035 Y174.221 E9.96514
G1 X125.965 Y174.221 E14.41119
G1 X125.779 Y174.035 E14.43554
G1 X125.779 Y126.025 E18.87604
G1 F1800.000 E17.87604
G92 E0
G1 X173.553 Y173.553 F7800.000
G1 E1.00000 F1800.000
G1 X126.447 Y173.553 E5.35695 F378.000
G1 X126.447 Y126.447 E9.71390
G1 X173.553 Y126.447 E14.07085
G1 X173.553 Y173.493 E18.42225
G1 X173.207 Y173.353 F7800.000
G1 X172.918 Y172.918 F7800.000
G1 X127.082 Y172.918 E22.66162 F540.000
G1 X127.082 Y127.082 E26.90100
G1 X172.918 Y127.082 E31.14037
G1 X172.918 Y172.858 E35.37419
G1 X172.437 Y127.523 F7800.000
G1 X172.477 Y127.563 E35.37942 F1080.000
G1 X172.477 Y128.470 E35.46335
G1 X171.530 Y127.523 E35.58726
G1 X170.622 Y127.523 E35.67118
G1 X172.477 Y129.378 E35.91378
G1 X172.477 Y130.285 E35.99770
G1 X169.715 Y127.523 E36.35899
G1 X168.808 Y127.523 E36.44291
G1 X172.477 Y131.192 E36.92287
G1 X172.477 Y132.100 E37.00680
G1 X167.900 Y127.523 E37.60545
G1 X166.993 Y127.523 E37.68937
G1 X172.477 Y133.007 E38.40670
G1 X172.477 Y133.915 E38.49062
G1 X166.086 Y127.523 E39.32664
G1 X165.178 Y127.523 E39.41056
G1 X172.477 Y134.822 E40.36526
G1 X172.477 Y135.729 E40.44918
G1 X164.271 Y127.523 E41.52256
G1 X163.363 Y127.523 E41.60649
G1 X172.477 Y136.637 E42.79855
G1 X172.477 Y137.544 E42.88248
G1 X162.456 Y127.523 E44.19323
G1 X161.549 Y127.523 E44.27715
G1 X172.477 Y138.451 E45.70658
G1 X172.477 Y139.359 E45.79050
G1 X160.641 Y127.523 E47.33862
G1 X159.734 Y127.523 E47.42254
G1 X172.477 Y140.266 E49.08934
G1 X172.477 Y141.173 E49.17326
G1 X158.827 Y127.523 E50.95875
G1 X157.919 Y127.523 E51.04267
G1 X172.477 Y142.081 E52.94683
G1 X172.477 Y142.988 E53.03076
G1 X157.012 Y127.523 E55.05361
G1 X156.105 Y127.523 E55.13753
G1 X172.477 Y143.895 E57.27906
G1 X172.477 Y144.803 E57.36298
G1 X155.197 Y127.523 E59.62320
G1 X154.290 Y127.523 E59.70712
G1 X172.477 Y145.710 E62.08602
G1 X172.477 Y146.617 E62.16995
G1 X153.383 Y127.523 E64.66753
G1 X152.475 Y127.523 E64.75145
G1 X172.477 Y147.525 E67.36772
G1 X172.477 Y148.432 E67.45164
G1 X151.568 Y127.523 E70.18659
G1 X150.661 Y127.523 E70.27051
G1 X172.477 Y149.339 E73.12415
G1 X172.477 Y150.247 E73.20807
G1 X149.753 Y127.523 E76.18039
G1 X148.846 Y127.523 E76.26431
G1 X172.477 Y151.154 E79.35531
G1 X172.477 Y152.062 E79.43923
G1 X147.938 Y127.523 E82.64892
G1 X147.031 Y127.523 E82.73284
G1 X172.477 Y152.969 E86.06121
G1 X172.477 Y153.876 E86.14513
G1 X146.124 Y127.523 E89.59218
G1 X145.216 Y127.523 E89.67610
G1 X172.477 Y154.784 E93.24184
G1 X172.477 Y155.691 E93.32576
G1 X144.309 Y127.523 E97.01018
G1 X143.402 Y127.523 E97.09410
G1 X172.477 Y156.598 E100.89720
G1 X172.477 Y157.506 E100.98113
G1 X142.494 Y127.523 E104.90291
G1 X141.587 Y127.523 E104.98683
G1 X172.477 Y158.413 E109.02730
G1 X172.477 Y159.320 E109.11122
G1 X140.680 Y127.523 E113.27038
G1 X139.772 Y127.523 E113.35430
G1 X172.477 Y160.228 E117.63213
G1 X172.477 Y161.135 E117.71605
G1 X138.865 Y127.523 E122.11257
G1 X137.958 Y127.523 E122.19650
G1 X172.477 Y162.042 E126.71170
G1 X172.477 Y162.950 E126.79562
G1 X137.050 Y127.523 E131.42951
G1 X136.143 Y127.523 E131.51343
G1 X172.477 Y163.857 E136.26600
G1 X172.477 Y164.764 E136.34992
G1 X135.236 Y127.523 E141.22117
G1 X134.328 Y127.523 E141.30509
G1 X172.477 Y165.672 E146.29503
G1 X172.477 Y166.579 E146.37895
G1 X133.421 Y127.523 E151.48757
G1 X132.513 Y127.523 E151.57149
G1 X172.477 Y167.487 E156.79880
G1 X172.477 Y168.394 E156.88272
G1 X131.606 Y127.523 E162.22870
G1 X130.699 Y127.523 E162.31263
G1 X172.477 Y169.301 E167.77730
G1 X172.477 Y170.209 E167.86122
G1 X129.791 Y127.523 E173.44457
G1 X128.884 Y127.523 E173.52849
G1 X172.477 Y171.116 E179.23053
G1 X172.477 Y172.023 E179.31445
G1 X127.977 Y127.523 E185.13517
G1 X127.523 Y127.977 E185.19451
G1 X172.023 Y172.477 E191.01523
G1 X171.116 Y172.477 E191.09916
G1 X127.523 Y128.884 E196.80119
G1 X127.523 Y129.791 E196.88511
G1 X170.209 Y172.477 E202.46847
G1 X169.301 Y172.477 E202.55239
G1 X127.523 Y130.699 E208.01706
G1 X127.523 Y131.606 E208.10098
G1 X168.394 Y172.477 E213.44697
G1 X167.487 Y172.477 E213.53089
G1 X127.523 Y132.513 E218.75819
G1 X127.523 Y133.421 E218.84211
G1 X166.579 Y172.477 E223.95073
G1 X165.672 Y172.477 E224.03466
G1 X127.523 Y134.328 E229.02459
G1 X127.523 Y135.236 E229.10851
G1 X164.764 Y172.477 E233.97977
G1 X163.857 Y172.477 E234.06369
G1 X127.523 Y136.143 E238.81626
G1 X127.523 Y137.050 E238.90018
G1 X162.950 Y172.477 E243.53407
G1 X162.042 Y172.477 E243.61799
G1 X127.523 Y137.958 E248.13319
G1 X127.523 Y138.865 E248.21711
G1 X161.135 Y172.477 E252.61363
G1 X160.228 Y172.477 E252.69755
G1 X127.523 Y139.772 E256.97539
G1 X127.523 Y140.680 E257.05931
G1 X159.320 Y172.477 E261.21846
G1 X158.413 Y172.477 E261.30238
G1 X127.523 Y141.587 E265.34285
G1 X127.523 Y142.494 E265.42677
G1 X157.506 Y172.477 E269.34856
G1 X156.598 Y172.477 E269.43248
G1 X127.523 Y143.402 E273.23558
G1 X127.523 Y144.309 E273.31951
G1 X155.691 Y172.477 E277.00392
G1 X154.784 Y172.477 E277.08785
G1 X127.523 Y145.216 E280.65358
G1 X127.523 Y146.124 E280.73750
G1 X153.876 Y172.477 E284.18455
G1 X152.969 Y172.477 E284.26848
G1 X127.523 Y147.031 E287.59684
G1 X127.523 Y147.938 E287.68077
G1 X152.062 Y172.477 E290.89045
G1 X151.154 Y172.477 E290.97437
G1 X127.523 Y148.846 E294.06537
G1 X127.523 Y149.753 E294.14930
G1 X150.247 Y172.477 E297.12161
G1 X149.339 Y172.477 E297.20554
G1 X127.523 Y150.661 E300.05917
G1 X127.523 Y151.568 E300.14309
G1 X148.432 Y172.477 E302.87804
G1 X147.525 Y172.477 E302.96196
G1 X127.523 Y152.475 E305.57823
G1 X127.523 Y153.383 E305.66215
G1 X146.617 Y172.477 E308.15974
G1 X145.710 Y172.477 E308.24366
G1 X127.523 Y154.290 E310.62256
G1 X127.523 Y155.197 E310.70648
G1 X144.803 Y172.477 E312.96670
G1 X143.895 Y172.477 E313.05062
G1 X127.523 Y156.105 E315.19216
G1 X127.523 Y157.012 E315.27608
G1 X142.988 Y172.477 E317.29893
G1 X142.081 Y172.477 E317.38285
G1 X127.523 Y157.919 E319.28702
G1 X127.523 Y158.827 E319.37094
G1 X141.173 Y172.477 E321.15642
G1 X140.266 Y172.477 E321.24034
G1 X127.523 Y159.734 E322.90714
G1 X127.523 Y160.641 E322.99107
G1 X139.359 Y172.477 E324.53918
G1 X138.451 Y172.477 E324.62310
G1 X127.523 Y161.549 E326.05254
G1 X127.523 Y162.456 E326.13646
G1 X137.544 Y172.477 E327.44721
G1 X136.637 Y172.477 E327.53113
G1 X127.523 Y163.363 E328.72320
G1 X127.523 Y164.271 E328.80712
G1 X135.729 Y172.477 E329.88050
G1 X134.822 Y172.477 E329.96442
G1 X127.523 Y165.178 E330.91912
G1 X127.523 Y166.086 E331.00304
G1 X133.915 Y172.477 E331.83906
G1 X133.007 Y172.477 E331.92298
G1 X127.523 Y166.993 E332.64032
G1 X127.523 Y167.900 E332.72424
G1 X132.100 Y172.477 E333.32289
G1 X131.192 Y172.477 E333.40681
G1 X127.523 Y168.808 E333.88677
G1 X127.523 Y169.715 E333.97070
G1 X130.285 Y172.477 E334.33198
G1 X129.378 Y172.477 E334.41590
G1 X127.523 Y170.622 E334.65850
G1 X127.523 Y171.530 E334.74242
G1 X128.470 Y172.477 E334.86634
G1 X127.563 Y172.477 E334.95026
G1 X127.523 Y172.437 E334.95549
M204 S900
M104 S180 ; set temperature
M204 S900
G1 F1800.000 E333.95549
G92 E0
G1 Z0.500 F7800.000
M204 S900
G1 Z0.650 F7800.000
G1 X173.236 Y173.236 F7800.000
G1 E1.00000 F1800.000
M204 S900
G1 X126.764 Y173.236 E3.31853 F1800.000
G1 X126.764 Y126.764 E5.63706
G1 X173.236 Y126.764 E7.95559
G1 X173.236 Y173.176 E10.27113
M204 S900
G1 X173.636 Y173.636 F7800.000
M204 S900
G1 X126.364 Y173.636 E12.62957 F1260.000
G1 X126.364 Y126.364 E14.98801
G1 X173.636 Y126.364 E17.34646
G1 X173.636 Y173.576 E19.70190
M204 S900
G1 X173.290 Y173.436 F7800.000
G1 X172.962 Y172.922 F7800.000
M204 S900
G1 X172.922 Y172.962 E19.70486 F3600.000
G1 X172.326 Y172.962 E19.73599
G1 X172.962 Y172.326 E19.78298
G1 X172.962 Y171.730 E19.81411
G1 X171.730 Y172.962 E19.90512
G1 X171.134 Y172.962 E19.93625
G1 X172.962 Y171.134 E20.07129
G1 X172.962 Y170.539 E20.10243
G1 X170.539 Y172.962 E20.28149
G1 X169.943 Y172.962 E20.31263
G1 X172.962 Y169.943 E20.53572
G1 X172.962 Y169.347 E20.56686
G1 X169.347 Y172.962 E20.83398
G1 X168.751 Y172.962 E20.86511
G1 X172.962 Y168.751 E21.17627
G1 X172.962 Y168.155 E21.20740
G1 X168.155 Y172.962 E21.56258
G1 X167.559 Y172.962 E21.59371
G1 X172.962 Y167.559 E21.99292
G1 X172.962 Y166.963 E22.02406
G1 X166.963 Y172.962 E22.46729
G1 X166.367 Y172.962 E22.49843
G1 X172.962 Y166.367 E22.98569
G1 X172.962 Y165.771 E23.01683
G1 X165.771 Y172.962 E23.54812
G1 X165.175 Y172.962 E23.57925
G1 X172.962 Y165.175 E24.15458
G1 X172.962 Y164.580 E24.18571
G1 X164.580 Y172.962 E24.80506
G1 X163.984 Y172.962 E24.83619
G1 X172.962 Y163.984 E25.49957
G1 X172.962 Y163.388 E25.53070
G1 X163.388 Y172.962 E26.23811
G1 X162.792 Y172.962 E26.26924
G1 X172.962 Y162.792 E27.02068
G1 X172.962 Y162.196 E27.05181
G1 X162.196 Y172.962 E27.84728
G1 X161.600 Y172.962 E27.87841
G1 X172.962 Y161.600 E28.71790
G1 X172.962 Y161.004 E28.74903
G1 X161.004 Y172.962 E29.63255
G1 X160.408 Y172.962 E29.66369
G1 X172.962 Y160.408 E30.59123
G1 X172.962 Y159.812 E30.62237
G1 X159.812 Y172.962 E31.59394
G1 X159.216 Y172.962 E31.62508
G1 X172.962 Y159.216 E32.64068
G1 X172.962 Y158.621 E32.67181
G1 X158.621 Y172.962 E33.73145
G1 X158.025 Y172.962 E33.76258
G1 X172.962 Y158.025 E34.86624
G1 X172.962 Y157.429 E34.89737
G1 X157.429 Y172.962 E36.04506
G1 X156.833 Y172.962 E36.07620
G1 X172.962 Y156.833 E37.26791
G1 X172.962 Y156.237 E37.29905
G1 X156.237 Y172.962 E38.53479
G1 X155.641 Y172.962 E38.56593
G1 X172.962 Y155.641 E39.84570
G1 X172.962 Y155.045 E39.87683
G1 X155.045 Y172.962 E41.20064
G1 X154.449 Y172.962 E41.23177
G1 X172.962 Y154.449 E42.59960
G1 X172.962 Y153.853 E42.63073
G1 X153.853 Y172.962 E44.04259
G1 X153.257 Y172.962 E44.07372
G1 X172.962 Y153.257 E45.52961
G1 X172.962 Y152.662 E45.56075
G1 X152.662 Y172.962 E47.06066
G1 X152.066 Y172.962 E47.09179
G1 X172.962 Y152.066 E48.63574
G1 X172.962 Y151.470 E48.66687
G1 X151.470 Y172.962 E50.25484
G1 X150.874 Y172.962 E50.28598
G1 X172.962 Y150.874 E51.91798
G1 X172.962 Y150.278 E51.94911
G1 X150.278 Y172.962 E53.62514
G1 X149.682 Y172.962 E53.65627
G1 X172.962 Y149.682 E55.37633
G1 X172.962 Y149.086 E55.40746
G1 X149.086 Y172.962 E57.17154
G1 X148.490 Y172.962 E57.20268
G1 X172.962 Y148.490 E59.01079
G1 X172.962 Y147.894 E59.04192
G1 X147.894 Y172.962 E60.89407
G1 X147.298 Y172.962 E60.92520
G1 X172.962 Y147.298 E62.82137
G1 X172.962 Y146.703 E62.85250
G1 X146.703 Y172.962 E64.79270
G1 X146.107 Y172.962 E64.82383
G1 X172.962 Y146.107 E66.80806
G1 X172.962 Y145.511 E66.83919
G1 X145.511 Y172.962 E68.86745
G1 X144.915 Y172.962 E68.89858
G1 X172.962 Y144.915 E70.97086
G1 X172.962 Y144.319 E71.00199
G1 X144.319 Y172.962 E73.11830
G1 X143.723 Y172.962 E73.14944
G1 X172.962 Y143.723 E75.30978
G1 X172.962 Y143.127 E75.34091
G1 X143.127 Y172.962 E77.54528
G1 X142.531 Y172.962 E77.57641
G1 X172.962 Y142.531 E79.82481
G1 X172.962 Y141.935 E79.85594
G1 X141.935 Y172.962 E82.14836
G1 X141.339 Y172.962 E82.17950
G1 X172.962 Y141.339 E84.51595
G1 X172.962 Y140.744 E84.54708
G1 X140.744 Y172.962 E86.92756
G1 X140.148 Y172.962 E86.95869
G1 X172.962 Y140.148 E89.38320
G1 X172.962 Y139.552 E89.41434
G1 X139.552 Y172.962 E91.88287
G1 X138.956 Y172.962 E91.91401
G1 X172.962 Y138.956 E94.42657
G1 X172.962 Y138.360 E94.45770
G1 X138.360 Y172.962 E97.01430
G1 X137.764 Y172.962 E97.04543
G1 X172.962 Y137.764 E99.64605
G1 X172.962 Y137.168 E99.67718
G1 X137.168 Y172.962 E102.32183
G1 X136.572 Y172.962 E102.35297
G1 X172.962 Y136.572 E105.04165
G1 X172.962 Y135.976 E105.07278
G1 X135.976 Y172.962 E107.80548
G1 X135.380 Y172.962 E107.83662
G1 X172.962 Y135.380 E110.61335
G1 X172.962 Y134.785 E110.64448
G1 X134.785 Y172.962 E113.46525
G1 X134.189 Y172.962 E113.49638
G1 X172.962 Y134.189 E116.36117
G1 X172.962 Y133.593 E116.39230
G1 X133.593 Y172.962 E119.30112
G1 X132.997 Y172.962 E119.33226
G1 X172.962 Y132.997 E122.28510
G1 X172.962 Y132.401 E122.31624
G1 X132.401 Y172.962 E125.31311
G1 X131.805 Y172.962 E125.34425
G1 X172.962 Y131.805 E128.38515
G1 X172.962 Y131.209 E128.41628
G1 X131.209 Y172.962 E131.50122
G1 X130.613 Y172.962 E131.53235
G1 X172.962 Y130.613 E134.66131
G1 X172.962 Y130.017 E134.69244
G1 X130.017 Y172.962 E137.86543
G1 X129.421 Y172.962 E137.89656
G1 X172.962 Y129.421 E141.11358
G1 X172.962 Y128.826 E141.14471
G1 X128.826 Y172.962 E144.40576
G1 X128.230 Y172.962 E144.43689
G1 X172.962 Y128.230 E147.74196
G1 X172.962 Y127.634 E147.77310
G1 X127.634 Y172.962 E151.12220
G1 X127.058 Y172.942 E151.15231
G1 X172.942 Y127.058 E154.54248
G1 X172.366 Y127.038 E154.57259
G1 X127.038 Y172.366 E157.92169
G1 X127.038 Y171.770 E157.95282
G1 X171.770 Y127.038 E161.25789
G1 X171.174 Y127.038 E161.28903
G1 X127.038 Y171.174 E164.55007
G1 X127.038 Y170.579 E164.58120
G1 X170.579 Y127.038 E167.79822
G1 X169.983 Y127.038 E167.82935
G1 X127.038 Y169.983 E171.00234
G1 X127.038 Y169.387 E171.03348
G1 X169.387 Y127.038 E174.16244
G1 X168.791 Y127.038 E174.19357
G1 X127.038 Y168.791 E177.27850
G1 X127.038 Y168.195 E177.30963
G1 X168.195 Y127.038 E180.35054
G1 X167.599 Y127.038 E180.38167
G1 X127.038 Y167.599 E183.37855
G1 X127.038 Y167.003 E183.40968
G1 X167.003 Y127.038 E186.36253
G1 X166.407 Y127.038 E186.39366
G1 X127.038 Y166.407 E189.30248
G1 X127.038 Y165.811 E189.33361
G1 X165.811 Y127.038 E192.19840
G1 X165.215 Y127.038 E192.22953
G1 X127.038 Y165.215 E195.05030
G1 X127.038 Y164.620 E195.08143
G1 X164.620 Y127.038 E197.85816
G1 X164.024 Y127.038 E197.88930
G1 X127.038 Y164.024 E200.62200
G1 X127.038 Y163.428 E200.65314
G1 X163.428 Y127.038 E203.34181
G1 X162.832 Y127.038 E203.37295
G1 X127.038 Y162.832 E206.01760
G1 X127.038 Y162.236 E206.04873
G1 X162.236 Y127.038 E208.64935
G1 X161.640 Y127.038 E208.68048
G1 X127.038 Y161.640 E211.23708
G1 X127.038 Y161.044 E211.26821
G1 X161.044 Y127.038 E213.78077
