; generated by Slic3r 1.1.7 on 2014-10-29 at 21:32:26

; perimeters extrusion width = 0.40mm
; infill extrusion width = 0.42mm
; solid infill extrusion width = 0.42mm
; top infill extrusion width = 0.42mm
; support material extrusion width = 0.40mm

G21 ; set units to millimeters
M107
M104 S185 ; set temperature
G28
G29
G1 Z5 F5000 ; lift nozzle

M109 S185 ; wait for temperature to be reached
G90 ; use absolute coordinates
G92 E0
M82 ; use absolute distances for extrusion
M204 S900
G1 F1800.000 E-1.00000
G92 E0
G1 Z0.350 F7800.000
G1 X121.196 Y121.615 F7800.000
G1 E1.00000 F1800.000
G1 X122.970 Y119.993 E1.22231 F1080.000
G1 X125.176 Y119.038 E1.44461
G1 X126.922 Y118.825 E1.60729
G1 X173.114 Y118.825 E5.87962
G1 X175.484 Y119.223 E6.10193
G1 X177.596 Y120.371 E6.32423 F1080.000
G1 X179.218 Y122.145 E6.54654
G1 X180.173 Y124.351 E6.76884
G1 X180.385 Y126.097 E6.93152
G1 X180.385 Y173.903 E11.35321
G1 X179.988 Y176.274 E11.57552
G1 X178.840 Y178.385 E11.79782
G1 X177.066 Y180.007 E12.02013
G1 X174.860 Y180.962 E12.24244
G1 X173.114 Y181.175 E12.40511
G1 X126.922 Y181.175 E16.67745
G1 X124.552 Y180.777 E16.89975
G1 X122.440 Y179.629 E17.12206
G1 X120.818 Y177.855 E17.34436
G1 X119.864 Y175.649 E17.56667
G1 X119.651 Y173.903 E17.72934
G1 X119.651 Y126.097 E22.15104
G1 X120.048 Y123.726 E22.37334
G1 X121.168 Y121.667 E22.59010
G1 X121.770 Y121.944 F7800.000
G1 X121.827 Y121.846 E22.60062 F1080.000
G1 X123.580 Y120.364 E22.81292
G1 X125.733 Y119.568 E23.02522
G1 X126.922 Y119.461 E23.13564
G1 X173.114 Y119.461 E27.40797
G1 X175.375 Y119.858 E27.62027
G1 X177.365 Y121.001 E27.83257 F1080.000
G1 X178.847 Y122.755 E28.04486
G1 X179.642 Y124.908 E28.25716
G1 X179.750 Y126.097 E28.36759
G1 X179.750 Y173.903 E32.78928
G1 X179.353 Y176.164 E33.00158
G1 X178.209 Y178.154 E33.21387
G1 X176.456 Y179.636 E33.42617
G1 X174.303 Y180.432 E33.63846
G1 X173.114 Y180.539 E33.74889
G1 X126.922 Y180.539 E38.02122
G1 X124.661 Y180.142 E38.23352
G1 X122.671 Y178.999 E38.44581
G1 X121.190 Y177.245 E38.65811
G1 X120.394 Y175.092 E38.87041
G1 X120.286 Y173.903 E38.98083
G1 X120.286 Y126.097 E43.40253
G1 X120.683 Y123.836 E43.61482
G1 X121.740 Y121.996 E43.81105
G1 F1800.000 E42.81105
G92 E0
G1 X126.604 Y125.965 F7800.000
G1 E1.00000 F1800.000
G1 X126.790 Y125.779 E1.02435 F1080.000
G1 X173.246 Y125.779 E5.32103
G1 X173.432 Y125.965 E5.34539
G1 X173.432 Y174.035 E9.79143
G1 X173.246 Y174.221 E9.81578
G1 X126.790 Y174.221 E14.11246
G1 X126.604 Y174.035 E14.13682
G1 X126.604 Y126.025 E18.57731
G1 F1800.000 E17.57731
G92 E0
G1 X172.764 Y173.553 F7800.000
G1 E1.00000 F1800.000
G1 X127.272 Y173.553 E5.20759 F378.000
G1 X127.272 Y126.447 E9.56454
G1 X172.764 Y126.447 E13.77213
G1 X172.764 Y173.493 E18.12353
G1 X172.418 Y173.353 F7800.000
G1 X172.128 Y172.918 F7800.000
G1 X127.908 Y172.918 E22.21354 F540.000
G1 X127.908 Y127.082 E26.45291
G1 X172.128 Y127.082 E30.54292
G1 X172.128 Y172.858 E34.77674
G1 X128.389 Y172.477 F7800.000
G1 X128.349 Y172.437 E34.78197 F1080.000
G1 X128.349 Y171.537 E34.86523
G1 X129.289 Y172.477 E34.98820
G1 X130.189 Y172.477 E35.07145
G1 X128.349 Y170.637 E35.31216
G1 X128.349 Y169.737 E35.39542
G1 X131.089 Y172.477 E35.75387
G1 X131.989 Y172.477 E35.83712
G1 X128.349 Y168.836 E36.31331
G1 X128.349 Y167.936 E36.39656
G1 X132.889 Y172.477 E36.99049
G1 X133.789 Y172.477 E37.07374
G1 X128.349 Y167.036 E37.78541
G1 X128.349 Y166.136 E37.86867
G1 X134.689 Y172.477 E38.69807
G1 X135.590 Y172.477 E38.78133
G1 X128.349 Y165.236 E39.72847
G1 X128.349 Y164.336 E39.81172
G1 X136.490 Y172.477 E40.87661
G1 X137.390 Y172.477 E40.95986
G1 X128.349 Y163.436 E42.14248
G1 X128.349 Y162.536 E42.22574
G1 X138.290 Y172.477 E43.52610
G1 X139.190 Y172.477 E43.60935
G1 X128.349 Y161.635 E45.02746
G1 X128.349 Y160.735 E45.11071
G1 X140.090 Y172.477 E46.64655
G1 X140.990 Y172.477 E46.72980
G1 X128.349 Y159.835 E48.38338
G1 X128.349 Y158.935 E48.46664
G1 X141.891 Y172.477 E50.23795
G1 X142.791 Y172.477 E50.32121
G1 X128.349 Y158.035 E52.21027
G1 X128.349 Y157.135 E52.29352
G1 X143.691 Y172.477 E54.30032
G1 X144.591 Y172.477 E54.38357
G1 X128.349 Y156.235 E56.50811
G1 X128.349 Y155.334 E56.59136
G1 X145.491 Y172.477 E58.83363
G1 X146.391 Y172.477 E58.91689
G1 X128.349 Y154.434 E61.27690
G1 X128.349 Y153.534 E61.36016
G1 X147.291 Y172.477 E63.83791
G1 X148.191 Y172.477 E63.92116
G1 X128.349 Y152.634 E66.51665
G1 X128.349 Y151.734 E66.59991
G1 X149.092 Y172.477 E69.31314
G1 X149.992 Y172.477 E69.39639
G1 X128.349 Y150.834 E72.22736
G1 X128.349 Y149.934 E72.31062
G1 X150.892 Y172.477 E75.25933
G1 X151.792 Y172.477 E75.34258
G1 X128.349 Y149.034 E78.40903
G1 X128.349 Y148.133 E78.49228
G1 X152.692 Y172.477 E81.67647
G1 X153.592 Y172.477 E81.75972
G1 X128.349 Y147.233 E85.06165
G1 X128.349 Y146.333 E85.14490
G1 X154.492 Y172.477 E88.56457
G1 X155.393 Y172.477 E88.64782
G1 X128.349 Y145.433 E92.18523
G1 X128.349 Y144.533 E92.26848
G1 X156.293 Y172.477 E95.92362
G1 X157.193 Y172.477 E96.00688
G1 X128.349 Y143.633 E99.77976
G1 X128.349 Y142.733 E99.86301
G1 X158.093 Y172.477 E103.75364
G1 X158.993 Y172.477 E103.83689
G1 X128.349 Y141.832 E107.84525
G1 X128.349 Y140.932 E107.92850
G1 X159.893 Y172.477 E112.05460
G1 X160.793 Y172.477 E112.13786
G1 X128.349 Y140.032 E116.38170
G1 X128.349 Y139.132 E116.46495
G1 X161.693 Y172.477 E120.82653
G1 X162.594 Y172.477 E120.90978
G1 X128.349 Y138.232 E125.38910
G1 X128.349 Y137.332 E125.47235
G1 X163.494 Y172.477 E130.06941
G1 X164.394 Y172.477 E130.15266
G1 X128.349 Y136.432 E134.86746
G1 X128.349 Y135.532 E134.95071
G1 X165.294 Y172.477 E139.78325
G1 X166.194 Y172.477 E139.86650
G1 X128.349 Y134.631 E144.81677
G1 X128.349 Y133.731 E144.90003
G1 X167.094 Y172.477 E149.96804
G1 X167.994 Y172.477 E150.05129
G1 X128.349 Y132.831 E155.23704
G1 X128.349 Y131.931 E155.32030
G1 X168.894 Y172.477 E160.62379
G1 X169.795 Y172.477 E160.70704
G1 X128.349 Y131.031 E166.12827
G1 X128.349 Y130.131 E166.21153
G1 X170.695 Y172.477 E171.75049
G1 X171.595 Y172.477 E171.83375
G1 X128.349 Y129.231 E177.49046
G1 X128.349 Y128.330 E177.57371
G1 X171.688 Y171.670 E183.24254
G1 X171.688 Y170.769 E183.32580
G1 X128.441 Y127.523 E188.98250
G1 X129.341 Y127.523 E189.06576
G1 X171.688 Y169.869 E194.60473
G1 X171.688 Y168.969 E194.68798
G1 X130.241 Y127.523 E200.10921
G1 X131.142 Y127.523 E200.19246
G1 X171.688 Y168.069 E205.49595
G1 X171.688 Y167.169 E205.57921
G1 X132.042 Y127.523 E210.76496
G1 X132.942 Y127.523 E210.84821
G1 X171.688 Y166.269 E215.91623
G1 X171.688 Y165.369 E215.99948
G1 X133.842 Y127.523 E220.94975
G1 X134.742 Y127.523 E221.03301
G1 X171.688 Y164.468 E225.86554
G1 X171.688 Y163.568 E225.94880
G1 X135.642 Y127.523 E230.66359
G1 X136.542 Y127.523 E230.74684
G1 X171.688 Y162.668 E235.34390
G1 X171.688 Y161.768 E235.42715
G1 X137.443 Y127.523 E239.90647
G1 X138.343 Y127.523 E239.98973
G1 X171.688 Y160.868 E244.35130
G1 X171.688 Y159.968 E244.43456
G1 X139.243 Y127.523 E248.67840
G1 X140.143 Y127.523 E248.76165
G1 X171.688 Y159.068 E252.88775
G1 X171.688 Y158.168 E252.97100
G1 X141.043 Y127.523 E256.97936
G1 X141.943 Y127.523 E257.06262
G1 X171.688 Y157.267 E260.95324
G1 X171.688 Y156.367 E261.03649
G1 X142.843 Y127.523 E264.80938
G1 X143.743 Y127.523 E264.89263
G1 X171.688 Y155.467 E268.54777
G1 X171.688 Y154.567 E268.63103
G1 X144.644 Y127.523 E272.16843
G1 X145.544 Y127.523 E272.25169
G1 X171.688 Y153.667 E275.67135
G1 X171.688 Y152.767 E275.75461
G1 X146.444 Y127.523 E279.05653
G1 X147.344 Y127.523 E279.13979
G1 X171.688 Y151.867 E282.32397
G1 X171.688 Y150.966 E282.40723
G1 X148.244 Y127.523 E285.47368
G1 X149.144 Y127.523 E285.55693
G1 X171.688 Y150.066 E288.50564
G1 X171.688 Y149.166 E288.58889
G1 X150.044 Y127.523 E291.41986
G1 X150.945 Y127.523 E291.50312
G1 X171.688 Y148.266 E294.21635
G1 X171.688 Y147.366 E294.29960
G1 X151.845 Y127.523 E296.89509
G1 X152.745 Y127.523 E296.97835
G1 X171.688 Y146.466 E299.45610
G1 X171.688 Y145.566 E299.53935
G1 X153.645 Y127.523 E301.89937
G1 X154.545 Y127.523 E301.98262
G1 X171.688 Y144.666 E304.22490
G1 X171.688 Y143.765 E304.30815
G1 X155.445 Y127.523 E306.43269
G1 X156.345 Y127.523 E306.51594
G1 X171.688 Y142.865 E308.52274
G1 X171.688 Y141.965 E308.60599
G1 X157.245 Y127.523 E310.49505
G1 X158.146 Y127.523 E310.57830
G1 X171.688 Y141.065 E312.34962
G1 X171.688 Y140.165 E312.43288
G1 X159.046 Y127.523 E314.08645
G1 X159.946 Y127.523 E314.16971
G1 X171.688 Y139.265 E315.70555
G1 X171.688 Y138.365 E315.78880
G1 X160.846 Y127.523 E317.20690
G1 X161.746 Y127.523 E317.29016
G1 X171.688 Y137.464 E318.59052
G1 X171.688 Y136.564 E318.67377
G1 X162.646 Y127.523 E319.85640
G1 X163.546 Y127.523 E319.93965
G1 X171.688 Y135.664 E321.00454
G1 X171.688 Y134.764 E321.08779
G1 X164.447 Y127.523 E322.03493
G1 X165.347 Y127.523 E322.11819
G1 X171.688 Y133.864 E322.94759
G1 X171.688 Y132.964 E323.03085
G1 X166.247 Y127.523 E323.74251
G1 X167.147 Y127.523 E323.82577
G1 X171.688 Y132.064 E324.41970
G1 X171.688 Y131.164 E324.50295
G1 X168.047 Y127.523 E324.97914
G1 X168.947 Y127.523 E325.06239
G1 X171.688 Y130.263 E325.42084
G1 X171.688 Y129.363 E325.50410
G1 X169.847 Y127.523 E325.74481
G1 X170.747 Y127.523 E325.82806
G1 X171.688 Y128.463 E325.95103
G1 X171.688 Y127.563 E326.03429
G1 X171.648 Y127.523 E326.03952
M204 S900
M104 S180 ; set temperature
M204 S900
G1 F1800.000 E325.03952
G92 E0
G1 Z0.500 F7800.000
M204 S900
G1 Z0.650 F7800.000
G1 X172.514 Y173.236 F7800.000
G1 E1.00000 F1800.000
M204 S900
G1 X127.589 Y173.236 E3.24131 F1800.000
G1 X127.589 Y126.764 E5.55984
G1 X172.514 Y126.764 E7.80115
G1 X172.514 Y173.176 E10.11669
M204 S900
G1 X172.914 Y173.636 F7800.000
M204 S900
G1 X127.189 Y173.636 E12.39791 F1260.000
G1 X127.189 Y126.364 E14.75635
G1 X172.914 Y126.364 E17.03757
G1 X172.914 Y173.576 E19.39302
M204 S900
G1 X172.568 Y173.436 F7800.000
G1 X172.240 Y172.922 F7800.000
M204 S900
G1 X172.200 Y172.962 E19.39597 F3600.000
G1 X171.606 Y172.962 E19.42699
G1 X172.240 Y172.329 E19.47380
G1 X172.240 Y171.735 E19.50481
G1 X171.013 Y172.962 E19.59547
G1 X170.419 Y172.962 E19.62648
G1 X172.240 Y171.141 E19.76100
G1 X172.240 Y170.548 E19.79201
G1 X169.826 Y172.962 E19.97039
G1 X169.232 Y172.962 E20.00140
G1 X172.240 Y169.954 E20.22363
G1 X172.240 Y169.361 E20.25464
G1 X168.638 Y172.962 E20.52073
G1 X168.045 Y172.962 E20.55174
G1 X172.240 Y168.767 E20.86168
G1 X172.240 Y168.174 E20.89269
G1 X167.451 Y172.962 E21.24649
G1 X166.858 Y172.962 E21.27750
G1 X172.240 Y167.580 E21.67515
G1 X172.240 Y166.987 E21.70616
G1 X166.264 Y172.962 E22.14767
G1 X165.671 Y172.962 E22.17868
G1 X172.240 Y166.393 E22.66404
G1 X172.240 Y165.799 E22.69505
G1 X165.077 Y172.962 E23.22427
G1 X164.484 Y172.962 E23.25528
G1 X172.240 Y165.206 E23.82835
G1 X172.240 Y164.612 E23.85936
G1 X163.890 Y172.962 E24.47629
G1 X163.296 Y172.962 E24.50730
G1 X172.240 Y164.019 E25.16808
G1 X172.240 Y163.425 E25.19909
G1 X162.703 Y172.962 E25.90373
G1 X162.109 Y172.962 E25.93474
G1 X172.240 Y162.832 E26.68324
G1 X172.240 Y162.238 E26.71425
G1 X161.516 Y172.962 E27.50659
G1 X160.922 Y172.962 E27.53761
G1 X172.240 Y161.645 E28.37381
G1 X172.240 Y161.051 E28.40482
G1 X160.329 Y172.962 E29.28488
G1 X159.735 Y172.962 E29.31589
G1 X172.240 Y160.457 E30.23980
G1 X172.240 Y159.864 E30.27081
G1 X159.142 Y172.962 E31.23858
G1 X158.548 Y172.962 E31.26959
G1 X172.240 Y159.270 E32.28122
G1 X172.240 Y158.677 E32.31223
G1 X157.954 Y172.962 E33.36771
G1 X157.361 Y172.962 E33.39872
G1 X172.240 Y158.083 E34.49805
G1 X172.240 Y157.490 E34.52906
G1 X156.767 Y172.962 E35.67225
G1 X156.174 Y172.962 E35.70326
G1 X172.240 Y156.896 E36.89031
G1 X172.240 Y156.303 E36.92132
G1 X155.580 Y172.962 E38.15222
G1 X154.987 Y172.962 E38.18323
G1 X172.240 Y155.709 E39.45799
G1 X172.240 Y155.115 E39.48900
G1 X154.393 Y172.962 E40.80761
G1 X153.800 Y172.962 E40.83862
G1 X172.240 Y154.522 E42.20108
G1 X172.240 Y153.928 E42.23209
G1 X153.206 Y172.962 E43.63842
G1 X152.612 Y172.962 E43.66943
G1 X172.240 Y153.335 E45.11960
G1 X172.240 Y152.741 E45.15061
G1 X152.019 Y172.962 E46.64464
G1 X151.425 Y172.962 E46.67566
G1 X172.240 Y152.148 E48.21354
G1 X172.240 Y151.554 E48.24455
G1 X150.832 Y172.962 E49.82629
G1 X150.238 Y172.962 E49.85730
G1 X172.240 Y150.961 E51.48290
G1 X172.240 Y150.367 E51.51391
G1 X149.645 Y172.962 E53.18336
G1 X149.051 Y172.962 E53.21437
G1 X172.240 Y149.773 E54.92768
G1 X172.240 Y149.180 E54.95869
G1 X148.458 Y172.962 E56.71586
G1 X147.864 Y172.962 E56.74687
G1 X172.240 Y148.586 E58.54788
G1 X172.240 Y147.993 E58.57889
G1 X147.270 Y172.962 E60.42377
G1 X146.677 Y172.962 E60.45478
G1 X172.240 Y147.399 E62.34351
G1 X172.240 Y146.806 E62.37452
G1 X146.083 Y172.962 E64.30710
G1 X145.490 Y172.962 E64.33811
G1 X172.240 Y146.212 E66.31455
G1 X172.240 Y145.619 E66.34556
G1 X144.896 Y172.962 E68.36585
G1 X144.303 Y172.962 E68.39686
G1 X172.240 Y145.025 E70.46101
G1 X172.240 Y144.431 E70.49202
G1 X143.709 Y172.962 E72.60003
G1 X143.116 Y172.962 E72.63104
G1 X172.240 Y143.838 E74.78290
G1 X172.240 Y143.244 E74.81391
G1 X142.522 Y172.962 E77.00962
G1 X141.928 Y172.962 E77.04063
G1 X172.240 Y142.651 E79.28020
G1 X172.240 Y142.057 E79.31121
G1 X141.335 Y172.962 E81.59464
G1 X140.741 Y172.962 E81.62565
G1 X172.240 Y141.464 E83.95293
G1 X172.240 Y140.870 E83.98394
G1 X140.148 Y172.962 E86.35507
G1 X139.554 Y172.962 E86.38608
G1 X172.240 Y140.276 E88.80107
G1 X172.240 Y139.683 E88.83208
G1 X138.961 Y172.962 E91.29093
G1 X138.367 Y172.962 E91.32194
G1 X172.240 Y139.089 E93.82464
G1 X172.240 Y138.496 E93.85565
G1 X137.774 Y172.962 E96.40221
G1 X137.180 Y172.962 E96.43322
G1 X172.240 Y137.902 E99.02363
G1 X172.240 Y137.309 E99.05464
G1 X136.586 Y172.962 E101.68890
G1 X135.993 Y172.962 E101.71991
G1 X172.240 Y136.715 E104.39804
G1 X172.240 Y136.122 E104.42905
G1 X135.399 Y172.962 E107.15102
G1 X134.806 Y172.962 E107.18203
G1 X172.240 Y135.528 E109.94786
G1 X172.240 Y134.934 E109.97887
G1 X134.212 Y172.962 E112.78856
G1 X133.619 Y172.962 E112.81957
G1 X172.240 Y134.341 E115.67311
G1 X172.240 Y133.747 E115.70412
G1 X133.025 Y172.962 E118.60152
G1 X132.431 Y172.962 E118.63253
G1 X172.240 Y133.154 E121.57378
G1 X172.240 Y132.560 E121.60480
G1 X131.838 Y172.962 E124.58990
G1 X131.244 Y172.962 E124.62091
G1 X172.240 Y131.967 E127.64988
G1 X172.240 Y131.373 E127.68089
G1 X130.651 Y172.962 E130.75370
G1 X130.057 Y172.962 E130.78472
G1 X172.240 Y130.780 E133.90139
G1 X172.240 Y130.186 E133.93240
G1 X129.464 Y172.962 E137.09293
G1 X128.870 Y172.962 E137.12394
G1 X172.240 Y129.592 E140.32832
G1 X172.240 Y128.999 E140.35933
G1 X128.277 Y172.962 E143.60757
G1 X127.863 Y172.782 E143.63112
G1 X172.240 Y128.405 E146.90989
G1 X172.240 Y127.812 E146.94090
G1 X127.863 Y172.188 E150.21967
G1 X127.863 Y171.595 E150.25068
G1 X172.240 Y127.218 E153.52945
G1 X171.827 Y127.038 E153.55301
G1 X127.863 Y171.001 E156.80124
G1 X127.863 Y170.408 E156.83225
G1 X171.233 Y127.038 E160.03664
G1 X170.639 Y127.038 E160.06765
G1 X127.863 Y169.814 E163.22818
G1 X127.863 Y169.220 E163.25919
G1 X170.046 Y127.038 E166.37586
G1 X169.452 Y127.038 E166.40687
G1 X127.863 Y168.627 E169.47969
G1 X127.863 Y168.033 E169.51070
G1 X168.859 Y127.038 E172.53966
G1 X168.265 Y127.038 E172.57067
G1 X127.863 Y167.440 E175.55578
G1 X127.863 Y166.846 E175.58679
G1 X167.672 Y127.038 E178.52804
G1 X167.078 Y127.038 E178.55905
G1 X127.863 Y166.253 E181.45645
G1 X127.863 Y165.659 E181.48746
G1 X166.485 Y127.038 E184.34100
G1 X165.891 Y127.038 E184.37201
G1 X127.863 Y165.066 E187.18170
G1 X127.863 Y164.472 E187.21271
G1 X165.297 Y127.038 E189.97854
G1 X164.704 Y127.038 E190.00955
G1 X127.863 Y163.878 E192.73153
G1 X127.863 Y163.285 E192.76254
G1 X164.110 Y127.038 E195.44066
G1 X163.517 Y127.038 E195.47167
G1 X127.863 Y162.691 E198.10594
G1 X127.863 Y162.098 E198.13695
G1 X162.923 Y127.038 E200.72736
G1 X162.330 Y127.038 E200.75837
G1 X127.863 Y161.504 E203.30492
G1 X127.863 Y160.911 E203.33594
G1 X161.736 Y127.038 E205.83864
G1 X161.143 Y127.038 E205.86965
G1 X127.863 Y160.317 E208.32849
G1 X127.863 Y159.724 E208.35950
G1 X160.549 Y127.038 E210.77449
G1 X159.955 Y127.038 E210.80550
G1 X127.863 Y159.130 E213.17664
