( Made using CamBam - http://www.cambam.co.uk )
( spacer_blocks_nested 10/20/2014 9:16:49 PM )
( T0 : 0.125 )
G20 G90 G64 G40
G0 Z0.125
( T0 : 0.125 )
T0 M6
( cutout )
G17
M3 S1000
G0 X0.3875 Y1.3181
G0 Z0.0625
G1 F10.0 Z-0.065
G2 F30.0 X0.1812 Y1.1991 I-0.1375 J0.0
G2 Y1.4372 I0.0688 J0.1191
G2 X0.3875 Y1.3181 I0.0688 J-0.1191
G1 F10.0 Z-0.13
G2 F30.0 X0.1812 Y1.1991 I-0.1375 J0.0
G2 Y1.4372 I0.0688 J0.1191
G2 X0.3875 Y1.3181 I0.0688 J-0.1191
G1 F10.0 Z-0.195
G2 F30.0 X0.1812 Y1.1991 I-0.1375 J0.0
G2 Y1.4372 I0.0688 J0.1191
G2 X0.3875 Y1.3181 I0.0688 J-0.1191
G1 F10.0 Z-0.26
G2 F30.0 X0.1812 Y1.1991 I-0.1375 J0.0
G2 Y1.4372 I0.0688 J0.1191
G2 X0.3875 Y1.3181 I0.0688 J-0.1191
G0 Z0.125
G0 X1.1125
G0 Z0.0625
G1 F10.0 Z-0.065
G2 F30.0 X1.1812 Y1.4372 I0.1375 J0.0
G2 X1.3875 Y1.3181 I0.0687 J-0.1191
G2 X1.1812 Y1.1991 I-0.1375 J0.0
G2 X1.1125 Y1.3181 I0.0688 J0.1191
G1 F10.0 Z-0.13
G2 F30.0 X1.1812 Y1.4372 I0.1375 J0.0
G2 X1.3875 Y1.3181 I0.0687 J-0.1191
G2 X1.1812 Y1.1991 I-0.1375 J0.0
G2 X1.1125 Y1.3181 I0.0688 J0.1191
G1 F10.0 Z-0.195
G2 F30.0 X1.1812 Y1.4372 I0.1375 J0.0
G2 X1.3875 Y1.3181 I0.0687 J-0.1191
G2 X1.1812 Y1.1991 I-0.1375 J0.0
G2 X1.1125 Y1.3181 I0.0688 J0.1191
G1 F10.0 Z-0.26
G2 F30.0 X1.1812 Y1.4372 I0.1375 J0.0
G2 X1.3875 Y1.3181 I0.0687 J-0.1191
G2 X1.1812 Y1.1991 I-0.1375 J0.0
G2 X1.1125 Y1.3181 I0.0688 J0.1191
G0 Z0.125
G0 X1.23 Y0.5168
G0 Z0.0625
G1 F10.0 Z-0.065
G2 F30.0 X1.3875 Y0.3808 I0.02 J-0.136
G2 X1.1812 Y0.2617 I-0.1375 J0.0
G2 Y0.4999 I0.0688 J0.1191
G2 X1.23 Y0.5168 I0.0687 J-0.1191
G1 F10.0 Z-0.13
G2 F30.0 X1.3875 Y0.3808 I0.02 J-0.136
G2 X1.1812 Y0.2617 I-0.1375 J0.0
G2 Y0.4999 I0.0688 J0.1191
G2 X1.23 Y0.5168 I0.0687 J-0.1191
G1 F10.0 Z-0.195
G2 F30.0 X1.3875 Y0.3808 I0.02 J-0.136
G2 X1.1812 Y0.2617 I-0.1375 J0.0
G2 Y0.4999 I0.0688 J0.1191
G2 X1.23 Y0.5168 I0.0687 J-0.1191
G1 F10.0 Z-0.26
G2 F30.0 X1.3875 Y0.3808 I0.02 J-0.136
G2 X1.1812 Y0.2617 I-0.1375 J0.0
G2 Y0.4999 I0.0688 J0.1191
G2 X1.23 Y0.5168 I0.0687 J-0.1191
G0 Z0.125
G0 X0.3862 Y0.3997
G0 Z0.0625
G1 F10.0 Z-0.065
G2 F30.0 X0.3875 Y0.3808 I-0.1362 J-0.0189
G2 X0.1812 Y0.2617 I-0.1375 J0.0
G2 Y0.4999 I0.0688 J0.1191
G2 X0.3862 Y0.3997 I0.0688 J-0.1191
G1 F10.0 Z-0.13
G2 F30.0 X0.3875 Y0.3808 I-0.1362 J-0.0189
G2 X0.1812 Y0.2617 I-0.1375 J0.0
G2 Y0.4999 I0.0688 J0.1191
G2 X0.3862 Y0.3997 I0.0688 J-0.1191
G1 F10.0 Z-0.195
G2 F30.0 X0.3875 Y0.3808 I-0.1362 J-0.0189
G2 X0.1812 Y0.2617 I-0.1375 J0.0
G2 Y0.4999 I0.0688 J0.1191
G2 X0.3862 Y0.3997 I0.0688 J-0.1191
G1 F10.0 Z-0.26
G2 F30.0 X0.3875 Y0.3808 I-0.1362 J-0.0189
G2 X0.1812 Y0.2617 I-0.1375 J0.0
G2 Y0.4999 I0.0688 J0.1191
G2 X0.3862 Y0.3997 I0.0688 J-0.1191
G0 Z0.125
G0 X1.9511 Y1.1539
G0 Z0.0625
G1 F10.0 Z-0.065
G2 F30.0 X2.0063 Y1.3327 I0.1239 J0.0597
G2 X2.2125 Y1.2136 I0.0688 J-0.1191
G2 X2.0063 Y1.0945 I-0.1375 J0.0
G2 X1.9511 Y1.1539 I0.0688 J0.1191
G1 F10.0 Z-0.13
G2 F30.0 X2.0063 Y1.3327 I0.1239 J0.0597
G2 X2.2125 Y1.2136 I0.0688 J-0.1191
G2 X2.0063 Y1.0945 I-0.1375 J0.0
G2 X1.9511 Y1.1539 I0.0688 J0.1191
G1 F10.0 Z-0.195
G2 F30.0 X2.0063 Y1.3327 I0.1239 J0.0597
G2 X2.2125 Y1.2136 I0.0688 J-0.1191
G2 X2.0063 Y1.0945 I-0.1375 J0.0
G2 X1.9511 Y1.1539 I0.0688 J0.1191
G1 F10.0 Z-0.26
G2 F30.0 X2.0063 Y1.3327 I0.1239 J0.0597
G2 X2.2125 Y1.2136 I0.0688 J-0.1191
G2 X2.0063 Y1.0945 I-0.1375 J0.0
G2 X1.9511 Y1.1539 I0.0688 J0.1191
G0 Z0.125
G0 X2.0594 Y2.1006
G0 Z0.0625
G1 F10.0 Z-0.065
G2 F30.0 X2.0063 Y2.1181 I0.0156 J0.1366
G2 Y2.3563 I0.0688 J0.1191
G2 X2.2125 Y2.2372 I0.0688 J-0.1191
G2 X2.0594 Y2.1006 I-0.1375 J0.0
G1 F10.0 Z-0.13
G2 F30.0 X2.0063 Y2.1181 I0.0156 J0.1366
G2 Y2.3563 I0.0688 J0.1191
G2 X2.2125 Y2.2372 I0.0688 J-0.1191
G2 X2.0594 Y2.1006 I-0.1375 J0.0
G1 F10.0 Z-0.195
G2 F30.0 X2.0063 Y2.1181 I0.0156 J0.1366
G2 Y2.3563 I0.0688 J0.1191
G2 X2.2125 Y2.2372 I0.0688 J-0.1191
G2 X2.0594 Y2.1006 I-0.1375 J0.0
G1 F10.0 Z-0.26
G2 F30.0 X2.0063 Y2.1181 I0.0156 J0.1366
G2 Y2.3563 I0.0688 J0.1191
G2 X2.2125 Y2.2372 I0.0688 J-0.1191
G2 X2.0594 Y2.1006 I-0.1375 J0.0
G0 Z0.125
G0 X3.1391 Y2.2219
G0 Z0.0625
G1 F10.0 Z-0.065
G2 F30.0 X3.207 Y2.3563 I0.1366 J0.0153
G2 X3.4133 Y2.2372 I0.0688 J-0.1191
G2 X3.207 Y2.1181 I-0.1375 J0.0
G2 X3.1391 Y2.2219 I0.0688 J0.1191
G1 F10.0 Z-0.13
G2 F30.0 X3.207 Y2.3563 I0.1366 J0.0153
G2 X3.4133 Y2.2372 I0.0688 J-0.1191
G2 X3.207 Y2.1181 I-0.1375 J0.0
G2 X3.1391 Y2.2219 I0.0688 J0.1191
G1 F10.0 Z-0.195
G2 F30.0 X3.207 Y2.3563 I0.1366 J0.0153
G2 X3.4133 Y2.2372 I0.0688 J-0.1191
G2 X3.207 Y2.1181 I-0.1375 J0.0
G2 X3.1391 Y2.2219 I0.0688 J0.1191
G1 F10.0 Z-0.26
G2 F30.0 X3.207 Y2.3563 I0.1366 J0.0153
G2 X3.4133 Y2.2372 I0.0688 J-0.1191
G2 X3.207 Y2.1181 I-0.1375 J0.0
G2 X3.1391 Y2.2219 I0.0688 J0.1191
G0 Z0.125
G0 X3.2559 Y1.3499
G0 Z0.0625
G1 F10.0 Z-0.065
G2 F30.0 X3.4117 Y1.2136 I0.0182 J-0.1363
G2 X3.2054 Y1.0945 I-0.1375 J0.0
G2 Y1.3327 I0.0688 J0.1191
G2 X3.2559 Y1.3499 I0.0688 J-0.1191
G1 F10.0 Z-0.13
G2 F30.0 X3.4117 Y1.2136 I0.0182 J-0.1363
G2 X3.2054 Y1.0945 I-0.1375 J0.0
G2 Y1.3327 I0.0688 J0.1191
G2 X3.2559 Y1.3499 I0.0688 J-0.1191
G1 F10.0 Z-0.195
G2 F30.0 X3.4117 Y1.2136 I0.0182 J-0.1363
G2 X3.2054 Y1.0945 I-0.1375 J0.0
G2 Y1.3327 I0.0688 J0.1191
G2 X3.2559 Y1.3499 I0.0688 J-0.1191
G1 F10.0 Z-0.26
G2 F30.0 X3.4117 Y1.2136 I0.0182 J-0.1363
G2 X3.2054 Y1.0945 I-0.1375 J0.0
G2 Y1.3327 I0.0688 J0.1191
G2 X3.2559 Y1.3499 I0.0688 J-0.1191
G0 Z0.125
G0 X4.1644 Y1.2314
G0 Z0.0625
G1 F10.0 Z-0.065
G2 F30.0 X4.232 Y1.3327 I0.1363 J-0.0178
G2 X4.4383 Y1.2136 I0.0687 J-0.1191
G2 X4.232 Y1.0945 I-0.1375 J0.0
G2 X4.1644 Y1.2314 I0.0687 J0.1191
G1 F10.0 Z-0.13
G2 F30.0 X4.232 Y1.3327 I0.1363 J-0.0178
G2 X4.4383 Y1.2136 I0.0687 J-0.1191
G2 X4.232 Y1.0945 I-0.1375 J0.0
G2 X4.1644 Y1.2314 I0.0687 J0.1191
G1 F10.0 Z-0.195
G2 F30.0 X4.232 Y1.3327 I0.1363 J-0.0178
G2 X4.4383 Y1.2136 I0.0687 J-0.1191
G2 X4.232 Y1.0945 I-0.1375 J0.0
G2 X4.1644 Y1.2314 I0.0687 J0.1191
G1 F10.0 Z-0.26
G2 F30.0 X4.232 Y1.3327 I0.1363 J-0.0178
G2 X4.4383 Y1.2136 I0.0687 J-0.1191
G2 X4.232 Y1.0945 I-0.1375 J0.0
G2 X4.1644 Y1.2314 I0.0687 J0.1191
G0 Z0.125
G0 X4.2823 Y2.101
G0 Z0.0625
G1 F10.0 Z-0.065
G2 F30.0 X4.232 Y2.1181 I0.0185 J0.1363
G2 Y2.3563 I0.0687 J0.1191
G2 X4.4383 Y2.2372 I0.0687 J-0.1191
G2 X4.2823 Y2.101 I-0.1375 J0.0
G1 F10.0 Z-0.13
G2 F30.0 X4.232 Y2.1181 I0.0185 J0.1363
G2 Y2.3563 I0.0687 J0.1191
G2 X4.4383 Y2.2372 I0.0687 J-0.1191
G2 X4.2823 Y2.101 I-0.1375 J0.0
G1 F10.0 Z-0.195
G2 F30.0 X4.232 Y2.1181 I0.0185 J0.1363
G2 Y2.3563 I0.0687 J0.1191
G2 X4.4383 Y2.2372 I0.0687 J-0.1191
G2 X4.2823 Y2.101 I-0.1375 J0.0
G1 F10.0 Z-0.26
G2 F30.0 X4.232 Y2.1181 I0.0185 J0.1363
G2 Y2.3563 I0.0687 J0.1191
G2 X4.4383 Y2.2372 I0.0687 J-0.1191
G2 X4.2823 Y2.101 I-0.1375 J0.0
G0 Z0.125
G0 X5.3649 Y2.2219
G0 Z0.0625
G1 F10.0 Z-0.065
G2 F30.0 X5.4328 Y2.3563 I0.1366 J0.0153
G2 X5.6391 Y2.2372 I0.0687 J-0.1191
G2 X5.4328 Y2.1181 I-0.1375 J0.0
G2 X5.3649 Y2.2219 I0.0688 J0.1191
G1 F10.0 Z-0.13
G2 F30.0 X5.4328 Y2.3563 I0.1366 J0.0153
G2 X5.6391 Y2.2372 I0.0687 J-0.1191
G2 X5.4328 Y2.1181 I-0.1375 J0.0
G2 X5.3649 Y2.2219 I0.0688 J0.1191
G1 F10.0 Z-0.195
G2 F30.0 X5.4328 Y2.3563 I0.1366 J0.0153
G2 X5.6391 Y2.2372 I0.0687 J-0.1191
G2 X5.4328 Y2.1181 I-0.1375 J0.0
G2 X5.3649 Y2.2219 I0.0688 J0.1191
G1 F10.0 Z-0.26
G2 F30.0 X5.4328 Y2.3563 I0.1366 J0.0153
G2 X5.6391 Y2.2372 I0.0687 J-0.1191
G2 X5.4328 Y2.1181 I-0.1375 J0.0
G2 X5.3649 Y2.2219 I0.0688 J0.1191
G0 Z0.125
G0 X5.4817 Y1.3499
G0 Z0.0625
G1 F10.0 Z-0.065
G2 F30.0 X5.6374 Y1.2136 I0.0182 J-0.1363
G2 X5.4312 Y1.0945 I-0.1375 J0.0
G2 Y1.3327 I0.0687 J0.1191
G2 X5.4817 Y1.3499 I0.0687 J-0.1191
G1 F10.0 Z-0.13
G2 F30.0 X5.6374 Y1.2136 I0.0182 J-0.1363
G2 X5.4312 Y1.0945 I-0.1375 J0.0
G2 Y1.3327 I0.0687 J0.1191
G2 X5.4817 Y1.3499 I0.0687 J-0.1191
G1 F10.0 Z-0.195
G2 F30.0 X5.6374 Y1.2136 I0.0182 J-0.1363
G2 X5.4312 Y1.0945 I-0.1375 J0.0
G2 Y1.3327 I0.0687 J0.1191
G2 X5.4817 Y1.3499 I0.0687 J-0.1191
G1 F10.0 Z-0.26
G2 F30.0 X5.6374 Y1.2136 I0.0182 J-0.1363
G2 X5.4312 Y1.0945 I-0.1375 J0.0
G2 Y1.3327 I0.0687 J0.1191
G2 X5.4817 Y1.3499 I0.0687 J-0.1191
G0 Z0.125
G0 X6.3902 Y1.2314
G0 Z0.0625
G1 F10.0 Z-0.065
G2 F30.0 X6.4578 Y1.3327 I0.1363 J-0.0178
G2 X6.6641 Y1.2136 I0.0687 J-0.1191
G2 X6.4578 Y1.0945 I-0.1375 J0.0
G2 X6.3902 Y1.2314 I0.0687 J0.1191
G1 F10.0 Z-0.13
G2 F30.0 X6.4578 Y1.3327 I0.1363 J-0.0178
G2 X6.6641 Y1.2136 I0.0687 J-0.1191
G2 X6.4578 Y1.0945 I-0.1375 J0.0
G2 X6.3902 Y1.2314 I0.0687 J0.1191
G1 F10.0 Z-0.195
G2 F30.0 X6.4578 Y1.3327 I0.1363 J-0.0178
G2 X6.6641 Y1.2136 I0.0687 J-0.1191
G2 X6.4578 Y1.0945 I-0.1375 J0.0
G2 X6.3902 Y1.2314 I0.0687 J0.1191
G1 F10.0 Z-0.26
G2 F30.0 X6.4578 Y1.3327 I0.1363 J-0.0178
G2 X6.6641 Y1.2136 I0.0687 J-0.1191
G2 X6.4578 Y1.0945 I-0.1375 J0.0
G2 X6.3902 Y1.2314 I0.0687 J0.1191
G0 Z0.125
G0 X6.5081 Y2.101
G0 Z0.0625
G1 F10.0 Z-0.065
G2 F30.0 X6.4578 Y2.1181 I0.0185 J0.1363
G2 Y2.3563 I0.0687 J0.1191
G2 X6.6641 Y2.2372 I0.0687 J-0.1191
G2 X6.5081 Y2.101 I-0.1375 J0.0
G1 F10.0 Z-0.13
G2 F30.0 X6.4578 Y2.1181 I0.0185 J0.1363
G2 Y2.3563 I0.0687 J0.1191
G2 X6.6641 Y2.2372 I0.0687 J-0.1191
G2 X6.5081 Y2.101 I-0.1375 J0.0
G1 F10.0 Z-0.195
G2 F30.0 X6.4578 Y2.1181 I0.0185 J0.1363
G2 Y2.3563 I0.0687 J0.1191
G2 X6.6641 Y2.2372 I0.0687 J-0.1191
G2 X6.5081 Y2.101 I-0.1375 J0.0
G1 F10.0 Z-0.26
G2 F30.0 X6.4578 Y2.1181 I0.0185 J0.1363
G2 Y2.3563 I0.0687 J0.1191
G2 X6.6641 Y2.2372 I0.0687 J-0.1191
G2 X6.5081 Y2.101 I-0.1375 J0.0
G0 Z0.125
G0 X7.5907 Y2.2219
G0 Z0.0625
G1 F10.0 Z-0.065
G2 F30.0 X7.6586 Y2.3563 I0.1366 J0.0153
G2 X7.8649 Y2.2372 I0.0687 J-0.1191
G2 X7.6586 Y2.1181 I-0.1375 J0.0
G2 X7.5907 Y2.2219 I0.0687 J0.1191
G1 F10.0 Z-0.13
G2 F30.0 X7.6586 Y2.3563 I0.1366 J0.0153
G2 X7.8649 Y2.2372 I0.0687 J-0.1191
G2 X7.6586 Y2.1181 I-0.1375 J0.0
G2 X7.5907 Y2.2219 I0.0687 J0.1191
G1 F10.0 Z-0.195
G2 F30.0 X7.6586 Y2.3563 I0.1366 J0.0153
G2 X7.8649 Y2.2372 I0.0687 J-0.1191
G2 X7.6586 Y2.1181 I-0.1375 J0.0
G2 X7.5907 Y2.2219 I0.0687 J0.1191
G1 F10.0 Z-0.26
G2 F30.0 X7.6586 Y2.3563 I0.1366 J0.0153
G2 X7.8649 Y2.2372 I0.0687 J-0.1191
G2 X7.6586 Y2.1181 I-0.1375 J0.0
G2 X7.5907 Y2.2219 I0.0687 J0.1191
G0 Z0.125
G0 X7.7075 Y1.3499
G0 Z0.0625
G1 F10.0 Z-0.065
G2 F30.0 X7.8632 Y1.2136 I0.0182 J-0.1363
G2 X7.657 Y1.0945 I-0.1375 J0.0
G2 Y1.3327 I0.0687 J0.1191
G2 X7.7075 Y1.3499 I0.0687 J-0.1191
G1 F10.0 Z-0.13
G2 F30.0 X7.8632 Y1.2136 I0.0182 J-0.1363
G2 X7.657 Y1.0945 I-0.1375 J0.0
G2 Y1.3327 I0.0687 J0.1191
G2 X7.7075 Y1.3499 I0.0687 J-0.1191
G1 F10.0 Z-0.195
G2 F30.0 X7.8632 Y1.2136 I0.0182 J-0.1363
G2 X7.657 Y1.0945 I-0.1375 J0.0
G2 Y1.3327 I0.0687 J0.1191
G2 X7.7075 Y1.3499 I0.0687 J-0.1191
G1 F10.0 Z-0.26
G2 F30.0 X7.8632 Y1.2136 I0.0182 J-0.1363
G2 X7.657 Y1.0945 I-0.1375 J0.0
G2 Y1.3327 I0.0687 J0.1191
G2 X7.7075 Y1.3499 I0.0687 J-0.1191
G0 Z0.125
G0 X8.616 Y1.2314
G0 Z0.0625
G1 F10.0 Z-0.065
G2 F30.0 X8.6836 Y1.3327 I0.1363 J-0.0178
G2 X8.8899 Y1.2136 I0.0687 J-0.1191
G2 X8.6836 Y1.0945 I-0.1375 J0.0
G2 X8.616 Y1.2314 I0.0687 J0.1191
G1 F10.0 Z-0.13
G2 F30.0 X8.6836 Y1.3327 I0.1363 J-0.0178
G2 X8.8899 Y1.2136 I0.0687 J-0.1191
G2 X8.6836 Y1.0945 I-0.1375 J0.0
G2 X8.616 Y1.2314 I0.0687 J0.1191
G1 F10.0 Z-0.195
G2 F30.0 X8.6836 Y1.3327 I0.1363 J-0.0178
G2 X8.8899 Y1.2136 I0.0687 J-0.1191
G2 X8.6836 Y1.0945 I-0.1375 J0.0
G2 X8.616 Y1.2314 I0.0687 J0.1191
G1 F10.0 Z-0.26
G2 F30.0 X8.6836 Y1.3327 I0.1363 J-0.0178
G2 X8.8899 Y1.2136 I0.0687 J-0.1191
G2 X8.6836 Y1.0945 I-0.1375 J0.0
G2 X8.616 Y1.2314 I0.0687 J0.1191
G0 Z0.125
G0 X8.7339 Y2.101
G0 Z0.0625
G1 F10.0 Z-0.065
G2 F30.0 X8.6836 Y2.1181 I0.0185 J0.1363
G2 Y2.3563 I0.0687 J0.1191
G2 X8.8899 Y2.2372 I0.0687 J-0.1191
G2 X8.7339 Y2.101 I-0.1375 J0.0
G1 F10.0 Z-0.13
G2 F30.0 X8.6836 Y2.1181 I0.0185 J0.1363
G2 Y2.3563 I0.0687 J0.1191
G2 X8.8899 Y2.2372 I0.0687 J-0.1191
G2 X8.7339 Y2.101 I-0.1375 J0.0
G1 F10.0 Z-0.195
G2 F30.0 X8.6836 Y2.1181 I0.0185 J0.1363
G2 Y2.3563 I0.0687 J0.1191
G2 X8.8899 Y2.2372 I0.0687 J-0.1191
G2 X8.7339 Y2.101 I-0.1375 J0.0
G1 F10.0 Z-0.26
G2 F30.0 X8.6836 Y2.1181 I0.0185 J0.1363
G2 Y2.3563 I0.0687 J0.1191
G2 X8.8899 Y2.2372 I0.0687 J-0.1191
G2 X8.7339 Y2.101 I-0.1375 J0.0
G0 Z0.125
G0 X9.8165 Y2.2219
G0 Z0.0625
G1 F10.0 Z-0.065
G2 F30.0 X9.8844 Y2.3563 I0.1366 J0.0153
G2 X10.0906 Y2.2372 I0.0687 J-0.1191
G2 X9.8844 Y2.1181 I-0.1375 J0.0
G2 X9.8165 Y2.2219 I0.0687 J0.1191
G1 F10.0 Z-0.13
G2 F30.0 X9.8844 Y2.3563 I0.1366 J0.0153
G2 X10.0906 Y2.2372 I0.0687 J-0.1191
G2 X9.8844 Y2.1181 I-0.1375 J0.0
G2 X9.8165 Y2.2219 I0.0687 J0.1191
G1 F10.0 Z-0.195
G2 F30.0 X9.8844 Y2.3563 I0.1366 J0.0153
G2 X10.0906 Y2.2372 I0.0687 J-0.1191
G2 X9.8844 Y2.1181 I-0.1375 J0.0
G2 X9.8165 Y2.2219 I0.0687 J0.1191
G1 F10.0 Z-0.26
G2 F30.0 X9.8844 Y2.3563 I0.1366 J0.0153
G2 X10.0906 Y2.2372 I0.0687 J-0.1191
G2 X9.8844 Y2.1181 I-0.1375 J0.0
G2 X9.8165 Y2.2219 I0.0687 J0.1191
G0 Z0.125
G0 X9.9333 Y1.3499
G0 Z0.0625
G1 F10.0 Z-0.065
G2 F30.0 X10.089 Y1.2136 I0.0182 J-0.1363
G2 X9.8828 Y1.0945 I-0.1375 J0.0
G2 Y1.3327 I0.0687 J0.1191
G2 X9.9333 Y1.3499 I0.0687 J-0.1191
G1 F10.0 Z-0.13
G2 F30.0 X10.089 Y1.2136 I0.0182 J-0.1363
G2 X9.8828 Y1.0945 I-0.1375 J0.0
G2 Y1.3327 I0.0687 J0.1191
G2 X9.9333 Y1.3499 I0.0687 J-0.1191
G1 F10.0 Z-0.195
G2 F30.0 X10.089 Y1.2136 I0.0182 J-0.1363
G2 X9.8828 Y1.0945 I-0.1375 J0.0
G2 Y1.3327 I0.0687 J0.1191
G2 X9.9333 Y1.3499 I0.0687 J-0.1191
G1 F10.0 Z-0.26
G2 F30.0 X10.089 Y1.2136 I0.0182 J-0.1363
G2 X9.8828 Y1.0945 I-0.1375 J0.0
G2 Y1.3327 I0.0687 J0.1191
G2 X9.9333 Y1.3499 I0.0687 J-0.1191
( outline )
S1000
G0 Z0.125
G0 X5.8891 Y0.0
G0 Z0.0625
G1 F10.0 Z-0.065
G1 F30.0 Y2.5591
G3 X5.8266 Y2.6216 I-0.0625 J0.0
G1 X3.9758
G3 X3.9133 Y2.5591 I0.0 J-0.0625
G1 Y0.0
G3 X3.9758 Y-0.0625 I0.0625 J0.0
G1 X5.8266
G3 X5.8891 Y0.0 I0.0 J0.0625
G1 F10.0 Z-0.13
G1 F30.0 Y2.5591
G3 X5.8266 Y2.6216 I-0.0625 J0.0
G1 X3.9758
G3 X3.9133 Y2.5591 I0.0 J-0.0625
G1 Y0.0
G3 X3.9758 Y-0.0625 I0.0625 J0.0
G1 X5.8266
G3 X5.8891 Y0.0 I0.0 J0.0625
G1 F10.0 Z-0.195
G1 F30.0 Y2.5591
G3 X5.8266 Y2.6216 I-0.0625 J0.0
G1 X3.9758
G3 X3.9133 Y2.5591 I0.0 J-0.0625
G1 Y0.0
G3 X3.9758 Y-0.0625 I0.0625 J0.0
G1 X5.8266
G3 X5.8891 Y0.0 I0.0 J0.0625
G1 F10.0 Z-0.26
G1 F30.0 Y2.5591
G3 X5.8266 Y2.6216 I-0.0625 J0.0
G1 X3.9758
G3 X3.9133 Y2.5591 I0.0 J-0.0625
G1 Y0.0
G3 X3.9758 Y-0.0625 I0.0625 J0.0
G1 X5.8266
G3 X5.8891 Y0.0 I0.0 J0.0625
G0 Z0.125
G0 X6.1391
G0 Z0.0625
G1 F10.0 Z-0.065
G3 F30.0 X6.2016 Y-0.0625 I0.0625 J0.0
G1 X8.0524
G3 X8.1149 Y0.0 I0.0 J0.0625
G1 Y2.5591
G3 X8.0524 Y2.6216 I-0.0625 J0.0
G1 X6.2016
G3 X6.1391 Y2.5591 I0.0 J-0.0625
G1 Y0.0
G1 F10.0 Z-0.13
G3 F30.0 X6.2016 Y-0.0625 I0.0625 J0.0
G1 X8.0524
G3 X8.1149 Y0.0 I0.0 J0.0625
G1 Y2.5591
G3 X8.0524 Y2.6216 I-0.0625 J0.0
G1 X6.2016
G3 X6.1391 Y2.5591 I0.0 J-0.0625
G1 Y0.0
G1 F10.0 Z-0.195
G3 F30.0 X6.2016 Y-0.0625 I0.0625 J0.0
G1 X8.0524
G3 X8.1149 Y0.0 I0.0 J0.0625
G1 Y2.5591
G3 X8.0524 Y2.6216 I-0.0625 J0.0
G1 X6.2016
G3 X6.1391 Y2.5591 I0.0 J-0.0625
G1 Y0.0
G1 F10.0 Z-0.26
G3 F30.0 X6.2016 Y-0.0625 I0.0625 J0.0
G1 X8.0524
G3 X8.1149 Y0.0 I0.0 J0.0625
G1 Y2.5591
G3 X8.0524 Y2.6216 I-0.0625 J0.0
G1 X6.2016
G3 X6.1391 Y2.5591 I0.0 J-0.0625
G1 Y0.0
G0 Z0.125
G0 X8.3649
G0 Z0.0625
G1 F10.0 Z-0.065
G3 F30.0 X8.4274 Y-0.0625 I0.0625 J0.0
G1 X10.2781
G3 X10.3406 Y0.0 I0.0 J0.0625
G1 Y2.5591
G3 X10.2781 Y2.6216 I-0.0625 J0.0
G1 X8.4274
G3 X8.3649 Y2.5591 I0.0 J-0.0625
G1 Y0.0
G1 F10.0 Z-0.13
G3 F30.0 X8.4274 Y-0.0625 I0.0625 J0.0
G1 X10.2781
G3 X10.3406 Y0.0 I0.0 J0.0625
G1 Y2.5591
G3 X10.2781 Y2.6216 I-0.0625 J0.0
G1 X8.4274
G3 X8.3649 Y2.5591 I0.0 J-0.0625
G1 Y0.0
G1 F10.0 Z-0.195
G3 F30.0 X8.4274 Y-0.0625 I0.0625 J0.0
G1 X10.2781
G3 X10.3406 Y0.0 I0.0 J0.0625
G1 Y2.5591
G3 X10.2781 Y2.6216 I-0.0625 J0.0
G1 X8.4274
G3 X8.3649 Y2.5591 I0.0 J-0.0625
G1 Y0.0
G1 F10.0 Z-0.26
G3 F30.0 X8.4274 Y-0.0625 I0.0625 J0.0
G1 X10.2781
G3 X10.3406 Y0.0 I0.0 J0.0625
G1 Y2.5591
G3 X10.2781 Y2.6216 I-0.0625 J0.0
G1 X8.4274
G3 X8.3649 Y2.5591 I0.0 J-0.0625
G1 Y0.0
G0 Z0.125
G0 X3.6633
G0 Z0.0625
G1 F10.0 Z-0.065
G1 F30.0 Y2.5591
G3 X3.6008 Y2.6216 I-0.0625 J0.0
G1 X1.75
G3 X1.6875 Y2.5591 I0.0 J-0.0625
G1 Y0.0
G3 X1.75 Y-0.0625 I0.0625 J0.0
G1 X3.6008
G3 X3.6633 Y0.0 I0.0 J0.0625
G1 F10.0 Z-0.13
G1 F30.0 Y2.5591
G3 X3.6008 Y2.6216 I-0.0625 J0.0
G1 X1.75
G3 X1.6875 Y2.5591 I0.0 J-0.0625
G1 Y0.0
G3 X1.75 Y-0.0625 I0.0625 J0.0
G1 X3.6008
G3 X3.6633 Y0.0 I0.0 J0.0625
G1 F10.0 Z-0.195
G1 F30.0 Y2.5591
G3 X3.6008 Y2.6216 I-0.0625 J0.0
G1 X1.75
G3 X1.6875 Y2.5591 I0.0 J-0.0625
G1 Y0.0
G3 X1.75 Y-0.0625 I0.0625 J0.0
G1 X3.6008
G3 X3.6633 Y0.0 I0.0 J0.0625
G1 F10.0 Z-0.26
G1 F30.0 Y2.5591
G3 X3.6008 Y2.6216 I-0.0625 J0.0
G1 X1.75
G3 X1.6875 Y2.5591 I0.0 J-0.0625
G1 Y0.0
G3 X1.75 Y-0.0625 I0.0625 J0.0
G1 X3.6008
G3 X3.6633 Y0.0 I0.0 J0.0625
G0 Z0.125
G0 X1.5625
G0 Z0.0625
G1 F10.0 Z-0.065
G1 F30.0 Y1.6989
G3 X1.5 Y1.7614 I-0.0625 J0.0
G1 X0.0
G3 X-0.0625 Y1.6989 I0.0 J-0.0625
G1 Y0.0
G3 X0.0 Y-0.0625 I0.0625 J0.0
G1 X1.5
G3 X1.5625 Y0.0 I0.0 J0.0625
G1 F10.0 Z-0.13
G1 F30.0 Y1.6989
G3 X1.5 Y1.7614 I-0.0625 J0.0
G1 X0.0
G3 X-0.0625 Y1.6989 I0.0 J-0.0625
G1 Y0.0
G3 X0.0 Y-0.0625 I0.0625 J0.0
G1 X1.5
G3 X1.5625 Y0.0 I0.0 J0.0625
G1 F10.0 Z-0.195
G1 F30.0 Y1.6989
G3 X1.5 Y1.7614 I-0.0625 J0.0
G1 X0.0
G3 X-0.0625 Y1.6989 I0.0 J-0.0625
G1 Y0.0
G3 X0.0 Y-0.0625 I0.0625 J0.0
G1 X1.5
G3 X1.5625 Y0.0 I0.0 J0.0625
G1 F10.0 Z-0.26
G1 F30.0 Y1.6989
G3 X1.5 Y1.7614 I-0.0625 J0.0
G1 X0.0
G3 X-0.0625 Y1.6989 I0.0 J-0.0625
G1 Y0.0
G3 X0.0 Y-0.0625 I0.0625 J0.0
G1 X1.5
G3 X1.5625 Y0.0 I0.0 J0.0625
G0 Z0.125
M5
M30
