; generated by Slic3r 1.1.7 on 2014-11-29 at 02:17:09

; perimeters extrusion width = 0.40mm
; infill extrusion width = 0.42mm
; solid infill extrusion width = 0.42mm
; top infill extrusion width = 0.42mm

G21 ; set units to millimeters
M104 S190 ; set temperature
G28
G29
G1 Z5 F5000 ; lift nozzle

M109 S190 ; wait for temperature to be reached
G90 ; use absolute coordinates
G92 E0
M82 ; use absolute distances for extrusion
M204 S1500
G1 F1800.000 E-1.00000
G92 E0
G1 Z0.350 F7800.000
G1 X136.147 Y141.207 F7800.000
G1 E1.00000 F1800.000
G1 X137.062 Y140.487 E1.10772 F1080.000
G1 X138.057 Y139.897 E1.21469
G1 X139.126 Y139.439 E1.32228
G1 X140.243 Y139.125 E1.42965
G1 X140.449 Y139.085 E1.44902
G1 X141.867 Y138.945 E1.58083
G1 X158.133 Y138.945 E3.08526
G1 X159.544 Y139.083 E3.21644
G1 X160.676 Y139.372 E3.32443 F1080.000
G1 X161.752 Y139.803 E3.43170
G1 X162.758 Y140.367 E3.53832
G1 X163.693 Y141.066 E3.64633
G1 X164.523 Y141.877 E3.75367
G1 X165.240 Y142.789 E3.86090
G1 X165.832 Y143.787 E3.96829
G1 X166.288 Y144.853 E4.07553
G1 X166.357 Y145.054 E4.09517
G1 X166.680 Y146.440 E4.22679
G1 X166.734 Y146.855 E4.26545
G1 X166.650 Y149.257 E4.48775
G1 X165.787 Y151.500 E4.71006
G1 X164.359 Y153.235 E4.91787
G1 X157.603 Y159.223 E5.75286
G1 X157.369 Y159.402 E5.78012
G1 X155.725 Y160.351 E5.95564
G1 X155.455 Y160.463 E5.98274
G1 X153.613 Y160.956 E6.15911
G1 X152.381 Y161.055 E6.27336
G1 X146.670 Y160.993 E6.80164
G1 X146.379 Y160.955 E6.82875
G1 X144.545 Y160.463 E7.00435
G1 X144.275 Y160.351 E7.03148
G1 X142.631 Y159.402 E7.20697
G1 X141.991 Y158.887 E7.28302
G1 X135.641 Y153.235 E8.06925
G1 X134.134 Y151.362 E8.29156
G1 X133.320 Y149.101 E8.51386
G1 X133.266 Y146.855 E8.72168
G1 X133.320 Y146.440 E8.76034
G1 X133.644 Y145.052 E8.89222
G1 X134.075 Y143.975 E8.99947
G1 X134.167 Y143.789 E9.01871
G1 X134.644 Y142.963 E9.10689
G1 X135.339 Y142.035 E9.21408
G1 X136.104 Y141.250 E9.31552
G1 X136.566 Y141.685 F7800.000
G1 X137.415 Y141.016 E9.41551 F1080.000
G1 X138.338 Y140.467 E9.51482
G1 X139.330 Y140.041 E9.61470
G1 X140.367 Y139.749 E9.71437
G1 X140.573 Y139.708 E9.73374
G1 X141.867 Y139.581 E9.85403
G1 X158.133 Y139.581 E11.35847
G1 X159.421 Y139.707 E11.47817
G1 X160.471 Y139.974 E11.57842 F1080.000
G1 X161.471 Y140.373 E11.67800
G1 X162.405 Y140.896 E11.77699
G1 X163.274 Y141.544 E11.87725
G1 X164.045 Y142.296 E11.97690
G1 X164.711 Y143.142 E12.07644
G1 X165.262 Y144.068 E12.17614
G1 X165.686 Y145.058 E12.27570
G1 X165.755 Y145.258 E12.29531
G1 X166.049 Y146.523 E12.41543
G1 X166.104 Y146.938 E12.45409
G1 X166.005 Y149.231 E12.66638
G1 X165.131 Y151.353 E12.87868
G1 X163.937 Y152.760 E13.04941
G1 X157.216 Y158.719 E13.88014
G1 X156.982 Y158.898 E13.90738
G1 X155.482 Y159.764 E14.06755
G1 X155.211 Y159.876 E14.09466
G1 X153.530 Y160.326 E14.25567
G1 X152.381 Y160.419 E14.36224
G1 X146.753 Y160.363 E14.88285
G1 X146.462 Y160.324 E14.90995
G1 X144.789 Y159.876 E15.07020
G1 X144.518 Y159.764 E15.09733
G1 X143.018 Y158.898 E15.25748
G1 X142.413 Y158.412 E15.32925
G1 X136.063 Y152.760 E16.11548
G1 X134.639 Y150.961 E16.32778
G1 X133.912 Y148.783 E16.54008
G1 X133.896 Y146.938 E16.71081
G1 X133.951 Y146.523 E16.74947
G1 X134.246 Y145.256 E16.86982
G1 X134.645 Y144.256 E16.96939
G1 X134.737 Y144.070 E16.98859
G1 X135.172 Y143.316 E17.06911
G1 X135.817 Y142.454 E17.16862
G1 X136.523 Y141.727 E17.26240
G1 F1800.000 E16.26240
G92 E0
G1 X138.218 Y143.567 F7800.000
G1 E1.00000 F1800.000
G1 X138.696 Y143.171 E1.05742 F1080.000
G1 X139.092 Y142.907 E1.10144
G1 X139.758 Y142.559 E1.17087
G1 X140.463 Y142.301 E1.24034
G1 X140.727 Y142.230 E1.26562
G1 X141.260 Y142.124 E1.31591
G1 X141.664 Y142.085 E1.35345
G1 X158.335 Y142.085 E2.89534
G1 X158.737 Y142.124 E2.93269
G1 X159.277 Y142.231 E2.98364 F1080.000
G1 X159.994 Y142.456 E3.05312
G1 X160.246 Y142.561 E3.07836
G1 X160.905 Y142.905 E3.14709
G1 X161.307 Y143.174 E3.19186
G1 X161.882 Y143.654 E3.26116
G1 X162.388 Y144.205 E3.33033
G1 X162.554 Y144.420 E3.35547
G1 X162.956 Y145.054 E3.42494
G1 X163.169 Y145.487 E3.46954
G1 X163.448 Y146.254 E3.54506
G1 X163.540 Y146.649 E3.58255
G1 X163.866 Y149.120 E3.81308
G1 X161.397 Y151.935 E4.15936
G1 X158.008 Y151.935 E4.47284
G1 X157.635 Y152.307 E4.52155
G1 X157.635 Y152.932 E4.57930
G1 X157.526 Y153.760 E4.65658
G1 X157.386 Y154.283 E4.70663
G1 X157.067 Y155.054 E4.78380
G1 X156.796 Y155.523 E4.83389
G1 X156.288 Y156.185 E4.91113
G1 X155.905 Y156.568 E4.96114
G1 X155.243 Y157.076 E5.03838
G1 X154.774 Y157.347 E5.08848
G1 X154.003 Y157.666 E5.16560
G1 X153.481 Y157.806 E5.21562
G1 X152.652 Y157.915 E5.29299
G1 X152.109 Y157.915 E5.34314
G1 X151.283 Y157.806 E5.42023
G1 X150.760 Y157.666 E5.47033
G1 X150.126 Y157.404 E5.53374
G1 X149.874 Y157.404 E5.55713
G1 X149.241 Y157.666 E5.62048
G1 X148.719 Y157.806 E5.67049
G1 X147.889 Y157.915 E5.74788
G1 X147.347 Y157.915 E5.79805
G1 X146.521 Y157.806 E5.87510
G1 X145.997 Y157.666 E5.92521
G1 X145.226 Y157.347 E6.00242
G1 X144.757 Y157.076 E6.05250
G1 X144.095 Y156.568 E6.12968
G1 X143.712 Y156.185 E6.17978
G1 X143.204 Y155.523 E6.25694
G1 X142.933 Y155.054 E6.30706
G1 X142.614 Y154.283 E6.38428
G1 X142.474 Y153.759 E6.43438
G1 X142.365 Y152.934 E6.51142
G1 X142.365 Y152.307 E6.56934
G1 X141.992 Y151.935 E6.61804
G1 X138.603 Y151.935 E6.93151
G1 X136.135 Y149.120 E7.27778
G1 X136.460 Y146.649 E7.50834
G1 X136.552 Y146.253 E7.54591
G1 X136.728 Y145.735 E7.59648
G1 X137.045 Y145.053 E7.66610
G1 X137.444 Y144.424 E7.73500
G1 X137.928 Y143.845 E7.80479
G1 X138.173 Y143.606 E7.83643
G1 X138.637 Y144.044 F7800.000
G1 X139.066 Y143.688 E7.88799 F1080.000
G1 X139.428 Y143.447 E7.92822
G1 X140.020 Y143.138 E7.98995
G1 X140.647 Y142.910 E8.05171
G1 X140.871 Y142.850 E8.07310
G1 X141.354 Y142.754 E8.11863
G1 X141.695 Y142.720 E8.15040
G1 X158.304 Y142.720 E9.68653
G1 X158.644 Y142.754 E9.71813 F1080.000
G1 X159.354 Y142.910 E9.78540
G1 X159.770 Y143.051 E9.82600
G1 X160.372 Y143.332 E9.88748
G1 X160.937 Y143.691 E9.94932
G1 X161.119 Y143.831 E9.97060
G1 X161.447 Y144.119 E10.01097
G1 X161.897 Y144.608 E10.07247
G1 X162.037 Y144.791 E10.09374
G1 X162.395 Y145.354 E10.15550
G1 X162.677 Y145.959 E10.21723
G1 X162.836 Y146.429 E10.26311
G1 X162.914 Y146.763 E10.29483
G1 X163.198 Y148.918 E10.49584
G1 X161.109 Y151.299 E10.78884
G1 X157.287 Y151.299 E11.14231
G1 X156.908 Y151.733 E11.19558
G1 X157.000 Y152.432 E11.26080
G1 X157.000 Y152.890 E11.30322
G1 X156.901 Y153.636 E11.37278
G1 X156.783 Y154.078 E11.41513
G1 X156.495 Y154.772 E11.48460
G1 X156.266 Y155.169 E11.52698
G1 X155.809 Y155.765 E11.59651
G1 X155.485 Y156.089 E11.63883
G1 X154.889 Y156.546 E11.70835
G1 X154.492 Y156.776 E11.75075
G1 X153.798 Y157.063 E11.82017
G1 X153.357 Y157.181 E11.86249
G1 X152.610 Y157.280 E11.93214
G1 X152.151 Y157.280 E11.97457
G1 X151.407 Y157.182 E12.04396
G1 X150.965 Y157.063 E12.08636
G1 X150.127 Y156.716 E12.17026
G1 X149.874 Y156.716 E12.19365
G1 X149.036 Y157.063 E12.27751
G1 X148.594 Y157.181 E12.31983
G1 X147.847 Y157.280 E12.38949
G1 X147.388 Y157.280 E12.43194
G1 X146.645 Y157.182 E12.50131
G1 X146.202 Y157.063 E12.54370
G1 X145.508 Y156.775 E12.61320
G1 X145.111 Y156.546 E12.65558
G1 X144.515 Y156.089 E12.72505
G1 X144.191 Y155.765 E12.76745
G1 X143.734 Y155.169 E12.83691
G1 X143.505 Y154.772 E12.87931
G1 X143.217 Y154.078 E12.94883
G1 X143.098 Y153.635 E12.99121
G1 X143.000 Y152.892 E13.06058
G1 X143.000 Y152.433 E13.10303
G1 X143.092 Y151.733 E13.16835
G1 X142.713 Y151.299 E13.22162
G1 X138.891 Y151.299 E13.57508
G1 X136.802 Y148.918 E13.86808
G1 X137.086 Y146.763 E14.06912
G1 X137.164 Y146.428 E14.10091
G1 X137.323 Y145.959 E14.14668
G1 X137.605 Y145.353 E14.20857
G1 X137.961 Y144.794 E14.26984
G1 X138.392 Y144.280 E14.33188
G1 X138.592 Y144.084 E14.35780
G1 X139.057 Y144.522 F7800.000
G1 X139.436 Y144.206 E14.40351 F1080.000
G1 X139.764 Y143.987 E14.43994
G1 X140.282 Y143.718 E14.49397
G1 X141.015 Y143.469 E14.56547
G1 X141.447 Y143.383 E14.60624
G1 X141.727 Y143.356 E14.63224
G1 X158.273 Y143.356 E16.16260
G1 X158.551 Y143.383 E16.18846
G1 X158.988 Y143.470 E16.22970 F1080.000
G1 X159.546 Y143.646 E16.28376
G1 X160.234 Y143.986 E16.35472
G1 X160.566 Y144.207 E16.39168
G1 X161.012 Y144.583 E16.44561
G1 X161.520 Y145.161 E16.51681
G1 X161.834 Y145.654 E16.57086
G1 X162.010 Y146.011 E16.60770
G1 X162.224 Y146.604 E16.66595
G1 X162.288 Y146.877 E16.69190
G1 X162.530 Y148.715 E16.86339
G1 X160.821 Y150.664 E17.10312
G1 X156.484 Y150.664 E17.50423
G1 X156.103 Y151.161 E17.56221
G1 X156.277 Y151.812 E17.62449
G1 X156.364 Y152.473 E17.68622
G1 X156.364 Y152.849 E17.72093
G1 X156.277 Y153.512 E17.78278
G1 X156.180 Y153.873 E17.81743
G1 X155.924 Y154.490 E17.87919
G1 X155.737 Y154.815 E17.91387
G1 X155.330 Y155.345 E17.97568
G1 X155.065 Y155.610 E18.01030
G1 X154.535 Y156.017 E18.07212
G1 X154.210 Y156.204 E18.10680
G1 X153.594 Y156.460 E18.16853
G1 X153.232 Y156.557 E18.20316
G1 X152.568 Y156.644 E18.26507
G1 X152.193 Y156.644 E18.29979
G1 X151.532 Y156.557 E18.36149
G1 X151.169 Y156.460 E18.39618
G1 X150.552 Y156.204 E18.45797
G1 X150.170 Y155.984 E18.49874
G1 X149.830 Y155.984 E18.53025
G1 X149.448 Y156.204 E18.57104
G1 X148.831 Y156.460 E18.63278
G1 X148.470 Y156.557 E18.66740
G1 X147.806 Y156.644 E18.72932
G1 X147.430 Y156.644 E18.76405
G1 X146.769 Y156.557 E18.82574
G1 X146.407 Y156.460 E18.86042
G1 X145.790 Y156.204 E18.92222
G1 X145.465 Y156.017 E18.95689
G1 X144.935 Y155.610 E19.01866
G1 X144.670 Y155.345 E19.05335
G1 X144.263 Y154.815 E19.11510
G1 X144.076 Y154.490 E19.14980
G1 X143.820 Y153.873 E19.21160
G1 X143.723 Y153.511 E19.24628
G1 X143.636 Y152.850 E19.30796
G1 X143.636 Y152.474 E19.34269
G1 X143.723 Y151.811 E19.40458
G1 X143.897 Y151.161 E19.46678
G1 X143.516 Y150.664 E19.52477
G1 X139.179 Y150.664 E19.92588
G1 X137.470 Y148.715 E20.16561
G1 X137.712 Y146.877 E20.33712
G1 X137.776 Y146.603 E20.36313
G1 X137.918 Y146.183 E20.40411
G1 X138.166 Y145.653 E20.45826
G1 X138.478 Y145.164 E20.51192
G1 X138.856 Y144.715 E20.56619
G1 X139.012 Y144.562 E20.58639
G1 X139.476 Y145.000 F7800.000
G1 X139.806 Y144.723 E20.62625 F1080.000
G1 X140.100 Y144.527 E20.65889
G1 X140.545 Y144.297 E20.70522
G1 X141.158 Y144.089 E20.76513
G1 X141.540 Y144.013 E20.80115
G1 X141.758 Y143.992 E20.82137
G1 X158.242 Y143.992 E22.34597
G1 X158.458 Y144.013 E22.36609 F1080.000
G1 X158.985 Y144.127 E22.41593
G1 X159.321 Y144.241 E22.44881
G1 X159.773 Y144.454 E22.49498
G1 X160.312 Y144.813 E22.55488
G1 X160.578 Y145.047 E22.58761
G1 X160.914 Y145.416 E22.63379
G1 X161.274 Y145.954 E22.69364
G1 X161.486 Y146.407 E22.73996
G1 X161.612 Y146.778 E22.77620
G1 X161.662 Y146.991 E22.79638
G1 X161.862 Y148.513 E22.93836
G1 X160.533 Y150.028 E23.12481
G1 X155.772 Y150.028 E23.56516
G1 X155.400 Y150.401 E23.61386
G1 X155.400 Y151.163 E23.68438
G1 X155.424 Y151.286 E23.69597
G1 X155.577 Y151.654 E23.73285
G1 X155.652 Y151.936 E23.75981
G1 X155.728 Y152.515 E23.81385
G1 X155.728 Y152.807 E23.84085
G1 X155.652 Y153.387 E23.89497
G1 X155.577 Y153.669 E23.92192
G1 X155.353 Y154.209 E23.97598
G1 X155.207 Y154.461 E24.00295
G1 X154.851 Y154.925 E24.05705
G1 X154.645 Y155.131 E24.08398
G1 X154.181 Y155.487 E24.13808
G1 X153.929 Y155.633 E24.16506
G1 X153.389 Y155.857 E24.21910
G1 X153.108 Y155.932 E24.24603
G1 X152.527 Y156.009 E24.30020
G1 X152.235 Y156.008 E24.32720
G1 X151.656 Y155.932 E24.38122
G1 X151.374 Y155.857 E24.40820
G1 X150.834 Y155.633 E24.46229
G1 X150.581 Y155.487 E24.48925
G1 X150.216 Y155.207 E24.53187
G1 X149.784 Y155.207 E24.57178
G1 X149.419 Y155.487 E24.61441
G1 X149.166 Y155.633 E24.64139
G1 X148.626 Y155.857 E24.69542
G1 X148.345 Y155.932 E24.72235
G1 X147.764 Y156.009 E24.77653
G1 X147.472 Y156.008 E24.80355
G1 X146.893 Y155.932 E24.85755
G1 X146.612 Y155.857 E24.88453
G1 X146.071 Y155.633 E24.93861
G1 X145.819 Y155.487 E24.96558
G1 X145.355 Y155.131 E25.01965
G1 X145.149 Y154.925 E25.04662
G1 X144.793 Y154.461 E25.10068
G1 X144.647 Y154.209 E25.12767
G1 X144.423 Y153.668 E25.18176
G1 X144.348 Y153.387 E25.20873
G1 X144.272 Y152.808 E25.26273
G1 X144.272 Y152.516 E25.28974
G1 X144.348 Y151.935 E25.34390
G1 X144.423 Y151.654 E25.37084
G1 X144.576 Y151.286 E25.40769
G1 X144.600 Y151.163 E25.41927
G1 X144.600 Y150.401 E25.48979
G1 X144.228 Y150.028 E25.53850
G1 X139.467 Y150.028 E25.97884
G1 X138.138 Y148.513 E26.16529
G1 X138.338 Y146.991 E26.30729
G1 X138.388 Y146.778 E26.32751
G1 X138.514 Y146.407 E26.36369
G1 X138.727 Y145.953 E26.41011
G1 X138.996 Y145.534 E26.45615
G1 X139.431 Y145.039 E26.51710
G1 X139.896 Y145.477 F7800.000
G1 X140.176 Y145.240 E26.55110 F1080.000
G1 X140.436 Y145.067 E26.57995
G1 X140.807 Y144.876 E26.61858
G1 X141.302 Y144.708 E26.66691
G1 X141.789 Y144.627 E26.71256
G1 X158.211 Y144.627 E28.23141
G1 X158.365 Y144.642 E28.24577
G1 X158.800 Y144.736 E28.28691 F1080.000
G1 X159.097 Y144.837 E28.31593
G1 X159.473 Y145.015 E28.35444
G1 X159.908 Y145.305 E28.40276
G1 X160.143 Y145.511 E28.43168
G1 X160.423 Y145.820 E28.47020
G1 X160.713 Y146.254 E28.51848
G1 X160.891 Y146.631 E28.55710
G1 X161.000 Y146.953 E28.58852
G1 X161.036 Y147.105 E28.60293
G1 X161.194 Y148.310 E28.71539
G1 X160.245 Y149.393 E28.84857
G1 X155.136 Y149.393 E29.32107
G1 X154.764 Y149.765 E29.36978
G1 X154.764 Y151.289 E29.51078
G1 X154.788 Y151.412 E29.52236
G1 X154.974 Y151.859 E29.56708
G1 X155.027 Y152.060 E29.58634
G1 X155.093 Y152.557 E29.63268
G1 X155.093 Y152.765 E29.65197
G1 X155.027 Y153.263 E29.69837
G1 X154.973 Y153.464 E29.71762
G1 X154.782 Y153.927 E29.76398
G1 X154.677 Y154.107 E29.78324
G1 X154.372 Y154.505 E29.82963
G1 X154.225 Y154.652 E29.84887
G1 X153.827 Y154.958 E29.89525
G1 X153.647 Y155.062 E29.91452
G1 X153.184 Y155.253 E29.96086
G1 X152.983 Y155.307 E29.98010
G1 X152.485 Y155.373 E30.02654
G1 X152.277 Y155.373 E30.04583
G1 X151.780 Y155.307 E30.09215
G1 X151.579 Y155.254 E30.11143
G1 X151.116 Y155.062 E30.15780
G1 X150.935 Y154.957 E30.17707
G1 X150.538 Y154.652 E30.22343
G1 X150.263 Y154.378 E30.25930
G1 X149.737 Y154.378 E30.30800
G1 X149.463 Y154.652 E30.34386
G1 X149.065 Y154.958 E30.39024
G1 X148.884 Y155.062 E30.40951
G1 X148.421 Y155.253 E30.45586
G1 X148.221 Y155.307 E30.47509
G1 X147.723 Y155.373 E30.52154
G1 X147.514 Y155.373 E30.54083
G1 X147.018 Y155.307 E30.58715
G1 X146.816 Y155.254 E30.60642
G1 X146.353 Y155.062 E30.65279
G1 X146.173 Y154.957 E30.67206
G1 X145.775 Y154.652 E30.71842
G1 X145.628 Y154.505 E30.73769
G1 X145.323 Y154.107 E30.78404
G1 X145.218 Y153.927 E30.80332
G1 X145.026 Y153.464 E30.84970
G1 X144.973 Y153.262 E30.86897
G1 X144.907 Y152.766 E30.91528
G1 X144.907 Y152.557 E30.93458
G1 X144.973 Y152.060 E30.98100
G1 X145.027 Y151.859 E31.00025
G1 X145.212 Y151.412 E31.04495
G1 X145.236 Y151.289 E31.05653
G1 X145.236 Y149.765 E31.19753
G1 X144.864 Y149.393 E31.24623
G1 X139.755 Y149.393 E31.71873
G1 X138.806 Y148.310 E31.85191
G1 X138.964 Y147.104 E31.96438
G1 X139.109 Y146.631 E32.01015
G1 X139.340 Y146.163 E32.05841
G1 X139.577 Y145.821 E32.09693
G1 X139.851 Y145.517 E32.13476
G1 X140.315 Y145.955 F7800.000
G1 X140.546 Y145.757 E32.16291 F1080.000
G1 X140.772 Y145.607 E32.18797
G1 X141.070 Y145.455 E32.21889
G1 X141.446 Y145.328 E32.25563
G1 X141.820 Y145.263 E32.29077
G1 X158.180 Y145.263 E33.80385
G1 X158.615 Y145.344 E33.84486 F1080.000
G1 X158.873 Y145.432 E33.87002
G1 X159.174 Y145.576 E33.90088
G1 X159.504 Y145.796 E33.93762
G1 X159.708 Y145.975 E33.96271
G1 X159.931 Y146.223 E33.99357
G1 X160.152 Y146.553 E34.03029
G1 X160.296 Y146.855 E34.06121
G1 X160.388 Y147.127 E34.08781
G1 X160.527 Y148.107 E34.17936
G1 X159.957 Y148.757 E34.25927
G1 X154.501 Y148.757 E34.76392
G1 X154.128 Y149.129 E34.81262
G1 X154.128 Y151.449 E35.02717
G1 X154.172 Y151.611 E35.04265
G1 X154.370 Y152.064 E35.08840
G1 X154.403 Y152.184 E35.09996
G1 X154.457 Y152.599 E35.13860
G1 X154.457 Y152.724 E35.15017
G1 X154.403 Y153.138 E35.18886
G1 X154.370 Y153.259 E35.20041
G1 X154.210 Y153.645 E35.23906
G1 X153.936 Y154.029 E35.28269
G1 X153.805 Y154.173 E35.30073
G1 X153.473 Y154.428 E35.33940
G1 X153.365 Y154.490 E35.35096
G1 X152.979 Y154.650 E35.38961
G1 X152.859 Y154.683 E35.40115
