; generated by Slic3r 1.1.7 on 2014-11-29 at 14:04:14

; perimeters extrusion width = 0.40mm
; infill extrusion width = 0.42mm
; solid infill extrusion width = 0.42mm
; top infill extrusion width = 0.42mm
; support material extrusion width = 0.40mm

G21 ; set units to millimeters
M104 S190 ; set temperature
G28
G29
G1 Z5 F5000 ; lift nozzle

M109 S190 ; wait for temperature to be reached
G90 ; use absolute coordinates
G92 E0
M82 ; use absolute distances for extrusion
M204 S1500
G1 F1800.000 E-1.00000
G92 E0
G1 Z0.350 F7800.000
G1 X123.621 Y140.757 F7800.000
G1 E1.00000 F1800.000
G1 X124.537 Y140.036 E1.10779 F1080.000
G1 X125.114 Y139.670 E1.17100
G1 X150.581 Y124.976 E3.89047
G1 X151.651 Y124.518 E3.99812
G1 X152.768 Y124.205 E4.10539
G1 X152.973 Y124.164 E4.12476
G1 X154.392 Y124.024 E4.25661
G1 X170.658 Y124.024 E5.76105
G1 X172.069 Y124.162 E5.89222
G1 X173.200 Y124.451 E6.00017 F1080.000
G1 X174.277 Y124.882 E6.10749
G1 X175.283 Y125.446 E6.21411
G1 X176.218 Y126.146 E6.32214
G1 X177.047 Y126.956 E6.42936
G1 X177.765 Y127.869 E6.53680
G1 X178.357 Y128.866 E6.64400
G1 X178.449 Y129.053 E6.66334
G1 X178.882 Y130.133 E6.77095
G1 X179.204 Y131.519 E6.90255
G1 X179.258 Y131.922 E6.94014
G1 X179.321 Y132.883 E7.02918
G1 X179.321 Y147.352 E8.36751
G1 X178.924 Y149.723 E8.58981
G1 X177.378 Y152.301 E8.86784
G1 X172.968 Y157.042 E9.46670
G1 X170.633 Y159.376 E9.77210
G1 X169.128 Y160.531 E9.94752
G1 X144.078 Y175.001 E12.62318
G1 X141.827 Y175.843 E12.84548
G1 X140.441 Y175.976 E12.97423
G1 X134.509 Y175.976 E13.52297
G1 X132.138 Y175.579 E13.74527
G1 X129.367 Y173.846 E14.04754
G1 X126.846 Y171.318 E14.37775
G1 X122.622 Y166.771 E14.95180
G1 X121.300 Y164.763 E15.17410
G1 X120.679 Y161.822 E15.45213
G1 X120.741 Y146.403 E16.87826
G1 X120.796 Y145.989 E16.91692
G1 X121.119 Y144.601 E17.04874
G1 X121.551 Y143.523 E17.15609
G1 X121.642 Y143.339 E17.17516
G1 X122.118 Y142.513 E17.26335
G1 X122.814 Y141.583 E17.37071
G1 X123.578 Y140.799 E17.47200
G1 X124.040 Y141.234 F7800.000
G1 X124.890 Y140.565 E17.57206 F1080.000
G1 X125.432 Y140.220 E17.63143
G1 X150.863 Y125.546 E20.34707
G1 X151.856 Y125.120 E20.44700
G1 X152.892 Y124.828 E20.54659
G1 X153.097 Y124.787 E20.56596
G1 X154.392 Y124.660 E20.68628
G1 X170.658 Y124.660 E22.19072
G1 X171.946 Y124.786 E22.31043
G1 X172.996 Y125.053 E22.41063 F1080.000
G1 X173.996 Y125.452 E22.51026
G1 X174.930 Y125.975 E22.60925
G1 X175.799 Y126.624 E22.70953
G1 X176.570 Y127.375 E22.80907
G1 X177.237 Y128.222 E22.90880
G1 X177.787 Y129.147 E23.00833
G1 X177.879 Y129.334 E23.02762
G1 X178.280 Y130.338 E23.12756
G1 X178.574 Y131.602 E23.24765
G1 X178.627 Y132.005 E23.28525
G1 X178.686 Y132.883 E23.36660
G1 X178.686 Y147.352 E24.70492
G1 X178.289 Y149.613 E24.91722
G1 X176.912 Y151.868 E25.16158
G1 X172.518 Y156.592 E25.75827
G1 X170.184 Y158.927 E26.06367
G1 X168.810 Y159.981 E26.22376
G1 X143.760 Y174.451 E28.89942
G1 X141.604 Y175.238 E29.11171
G1 X140.441 Y175.340 E29.21969
G1 X134.509 Y175.340 E29.76842
G1 X132.248 Y174.943 E29.98072
G1 X129.816 Y173.397 E30.24724
G1 X127.312 Y170.886 E30.57528
G1 X123.088 Y166.338 E31.14932
G1 X121.840 Y164.411 E31.36162
G1 X121.314 Y161.822 E31.60598
G1 X121.371 Y146.486 E33.02443
G1 X121.426 Y146.072 E33.06309
G1 X121.721 Y144.805 E33.18339
G1 X122.121 Y143.805 E33.28305
G1 X122.212 Y143.620 E33.30210
G1 X122.647 Y142.866 E33.38263
G1 X123.292 Y142.003 E33.48230
G1 X123.998 Y141.277 E33.57593
G1 F1800.000 E32.57593
G92 E0
G1 X129.743 Y155.313 F7800.000
G1 E1.00000 F1800.000
G1 X127.929 Y153.498 E1.23739 F1080.000
G1 X128.034 Y151.886 E1.38676
G1 X127.658 Y151.484 E1.43773
G1 X126.078 Y151.484 E1.58382
G1 X123.609 Y148.669 E1.93010
G1 X123.935 Y146.198 E2.16065
G1 X124.027 Y145.802 E2.19821
G1 X124.203 Y145.284 E2.24881
G1 X124.519 Y144.602 E2.31835
G1 X124.919 Y143.972 E2.38734
G1 X125.085 Y143.756 E2.41255
G1 X125.403 Y143.393 E2.45717
G1 X125.955 Y142.886 E2.52650
G1 X126.171 Y142.720 E2.55172
G1 X126.801 Y142.321 E2.62066
G1 X127.233 Y142.108 E2.66522
G1 X127.938 Y141.850 E2.73469
G1 X128.735 Y141.673 E2.81019
G1 X129.139 Y141.634 E2.84774
G1 X145.810 Y141.634 E4.38964
G1 X146.212 Y141.673 E4.42699
G1 X146.752 Y141.780 E4.47796
G1 X147.469 Y142.005 E4.54741
G1 X147.721 Y142.110 E4.57267
G1 X148.380 Y142.454 E4.64139
G1 X148.782 Y142.723 E4.68616
G1 X149.357 Y143.203 E4.75546
G1 X149.737 Y143.583 E4.80515
G1 X150.263 Y143.583 E4.85385
G1 X150.642 Y143.204 E4.90341
G1 X151.221 Y142.720 E4.97321
G1 X151.851 Y142.321 E5.04215
G1 X152.283 Y142.108 E5.08671
G1 X152.988 Y141.850 E5.15618
G1 X153.252 Y141.779 E5.18144
G1 X153.785 Y141.673 E5.23171
G1 X154.522 Y141.601 E5.30023
G1 X154.793 Y140.843 E5.37469
G1 X152.979 Y139.028 E5.61207
G1 X153.084 Y137.416 E5.76145
G1 X152.708 Y137.014 E5.81242
G1 X151.128 Y137.014 E5.95851
G1 X148.659 Y134.199 E6.30479
G1 X148.985 Y131.728 E6.53533
G1 X149.077 Y131.333 E6.57290
G1 X149.357 Y130.564 E6.64853
G1 X149.569 Y130.132 E6.69304
G1 X149.969 Y129.503 E6.76202
G1 X150.135 Y129.286 E6.78723
G1 X150.642 Y128.734 E6.85657
G1 X151.005 Y128.416 E6.90118
G1 X151.617 Y127.986 E6.97042
G1 X151.977 Y127.789 E7.00838
G1 X152.533 Y127.534 E7.06492
G1 X153.252 Y127.309 E7.13458
G1 X153.785 Y127.204 E7.18486
G1 X154.189 Y127.164 E7.22241
G1 X170.860 Y127.164 E8.76431
G1 X171.262 Y127.203 E8.80166
G1 X171.802 Y127.310 E8.85263
G1 X172.519 Y127.535 E8.92208
G1 X172.771 Y127.640 E8.94734
G1 X173.430 Y127.984 E9.01606
G1 X173.832 Y128.253 E9.06083
G1 X174.407 Y128.733 E9.13013
G1 X174.913 Y129.284 E9.19932
G1 X175.346 Y129.899 E9.26883
G1 X175.631 Y130.438 E9.32527
G1 X175.797 Y130.814 E9.36332
G1 X175.973 Y131.333 E9.41402
G1 X176.065 Y131.728 E9.45149
G1 X176.391 Y134.199 E9.68203
G1 X173.922 Y137.014 E10.02831
G1 X172.343 Y137.014 E10.17440
G1 X171.966 Y137.416 E10.22537
G1 X172.071 Y139.028 E10.37475
G1 X170.256 Y140.843 E10.61215
G1 X170.528 Y141.601 E10.68663
G1 X171.262 Y141.673 E10.75483
G1 X171.802 Y141.780 E10.80581
G1 X172.519 Y142.005 E10.87525
G1 X172.771 Y142.110 E10.90052
G1 X173.430 Y142.454 E10.96924
G1 X173.832 Y142.723 E11.01400
G1 X174.407 Y143.203 E11.08330
G1 X174.913 Y143.754 E11.15249
G1 X175.079 Y143.970 E11.17766
G1 X175.481 Y144.603 E11.24705
G1 X175.797 Y145.284 E11.31651
G1 X175.973 Y145.803 E11.36720
G1 X176.065 Y146.198 E11.40468
G1 X176.391 Y148.669 E11.63522
G1 X173.922 Y151.484 E11.98150
G1 X172.343 Y151.484 E12.12759
G1 X171.966 Y151.886 E12.17856
G1 X172.071 Y153.498 E12.32793
G1 X167.089 Y158.480 E12.97962
G1 X163.353 Y158.235 E13.32590
G1 X162.838 Y157.564 E13.40412
G1 X162.212 Y157.564 E13.46210
G1 X161.697 Y158.235 E13.54033
G1 X157.961 Y158.480 E13.88660
G1 X152.979 Y153.498 E14.53828
G1 X153.084 Y151.886 E14.68765
G1 X152.708 Y151.484 E14.73862
G1 X151.128 Y151.484 E14.88471
G1 X150.288 Y150.526 E15.00255
G1 X149.712 Y150.526 E15.05582
G1 X148.872 Y151.484 E15.17366
G1 X147.293 Y151.484 E15.31975
G1 X146.916 Y151.886 E15.37072
G1 X147.021 Y153.498 E15.52009
G1 X145.206 Y155.313 E15.75749
G1 X145.478 Y156.071 E15.83197
G1 X146.212 Y156.143 E15.90018
G1 X146.752 Y156.250 E15.95115
G1 X147.469 Y156.475 E16.02060
G1 X147.721 Y156.579 E16.04586
G1 X148.380 Y156.924 E16.11458
G1 X148.782 Y157.192 E16.15935
G1 X149.357 Y157.673 E16.22865
G1 X149.863 Y158.224 E16.29783
G1 X150.029 Y158.439 E16.32301
G1 X150.431 Y159.073 E16.39239
G1 X150.747 Y159.754 E16.46185
G1 X150.923 Y160.273 E16.51255
G1 X151.015 Y160.668 E16.55002
G1 X151.341 Y163.139 E16.78056
G1 X148.872 Y165.954 E17.12684
G1 X147.293 Y165.954 E17.27293
G1 X146.916 Y166.356 E17.32390
G1 X147.021 Y167.968 E17.47328
G1 X142.039 Y172.950 E18.12496
G1 X138.303 Y172.705 E18.47124
G1 X137.788 Y172.034 E18.54946
G1 X137.162 Y172.034 E18.60744
G1 X136.647 Y172.705 E18.68567
G1 X132.911 Y172.950 E19.03194
G1 X127.929 Y167.968 E19.68362
G1 X128.034 Y166.356 E19.83300
G1 X127.658 Y165.954 E19.88397
G1 X126.078 Y165.954 E20.03006
G1 X123.609 Y163.139 E20.37634
G1 X123.935 Y160.668 E20.60688
G1 X124.027 Y160.272 E20.64444
G1 X124.203 Y159.754 E20.69504
G1 X124.519 Y159.072 E20.76459
G1 X124.919 Y158.442 E20.83357
G1 X125.085 Y158.226 E20.85878
G1 X125.403 Y157.863 E20.90341
G1 X125.955 Y157.356 E20.97273
G1 X126.567 Y156.926 E21.04197
G1 X127.233 Y156.578 E21.11142
G1 X127.938 Y156.320 E21.18089
G1 X128.202 Y156.249 E21.20615
G1 X128.735 Y156.143 E21.25642
G1 X129.472 Y156.071 E21.32494
G1 X129.723 Y155.369 E21.39385
G1 X131.284 Y155.954 F7800.000
G1 X128.582 Y153.252 E21.74731 F1080.000
G1 X128.713 Y151.251 E21.93282
G1 X128.336 Y150.848 E21.98379
G1 X126.366 Y150.848 E22.16601
G1 X124.277 Y148.467 E22.45902
G1 X124.561 Y146.312 E22.66004
G1 X124.639 Y145.977 E22.69182
G1 X124.798 Y145.508 E22.73762
G1 X125.080 Y144.902 E22.79944
G1 X125.436 Y144.343 E22.86079
G1 X125.576 Y144.159 E22.88213
G1 X125.867 Y143.828 E22.92286
G1 X126.358 Y143.378 E22.98450
G1 X126.541 Y143.237 E23.00585
G1 X127.101 Y142.882 E23.06716
G1 X127.495 Y142.687 E23.10784
G1 X128.122 Y142.458 E23.16961
G1 X128.828 Y142.303 E23.23647
G1 X129.170 Y142.269 E23.26824
G1 X145.779 Y142.269 E24.80438
G1 X146.119 Y142.303 E24.83598
G1 X146.829 Y142.459 E24.90326
G1 X147.245 Y142.600 E24.94383
G1 X147.847 Y142.881 E25.00533
G1 X148.412 Y143.239 E25.06717
G1 X148.922 Y143.667 E25.12879
G1 X149.372 Y144.157 E25.19031
G1 X149.687 Y144.568 E25.23814
G1 X150.314 Y144.567 E25.29613
G1 X150.626 Y144.159 E25.34367
G1 X150.917 Y143.828 E25.38440
G1 X151.408 Y143.378 E25.44604
G1 X151.591 Y143.237 E25.46739
G1 X152.151 Y142.882 E25.52870
G1 X152.757 Y142.599 E25.59056
G1 X153.396 Y142.399 E25.65248
G1 X153.878 Y142.303 E25.69801
G1 X154.220 Y142.269 E25.72978
G1 X156.009 Y142.269 E25.89521
G1 X156.334 Y141.484 E25.97377
G1 X153.632 Y138.782 E26.32724
G1 X153.763 Y136.781 E26.51274
G1 X153.386 Y136.379 E26.56371
G1 X151.416 Y136.379 E26.74594
G1 X149.327 Y133.997 E27.03894
G1 X149.611 Y131.842 E27.23997
G1 X149.689 Y131.507 E27.27175
G1 X149.936 Y130.826 E27.33873
G1 X150.130 Y130.432 E27.37937
G1 X150.486 Y129.873 E27.44072
G1 X150.626 Y129.690 E27.46205
G1 X151.077 Y129.198 E27.52370
G1 X151.408 Y128.908 E27.56443
G1 X151.953 Y128.526 E27.62599
G1 X152.258 Y128.359 E27.65819
G1 X152.757 Y128.130 E27.70893
G1 X153.396 Y127.929 E27.77086
G1 X153.878 Y127.833 E27.81638
G1 X154.220 Y127.799 E27.84816
G1 X170.829 Y127.799 E29.38429
G1 X171.169 Y127.833 E29.41590
G1 X171.658 Y127.930 E29.46201
G1 X172.295 Y128.130 E29.52375
G1 X172.508 Y128.219 E29.54513
G1 X173.094 Y128.524 E29.60625
G1 X173.462 Y128.770 E29.64711
G1 X173.972 Y129.198 E29.70873
G1 X174.422 Y129.688 E29.77025
G1 X174.806 Y130.235 E29.83205
G1 X175.061 Y130.719 E29.88270
G1 X175.202 Y131.038 E29.91498
G1 X175.361 Y131.508 E29.96086
G1 X175.439 Y131.842 E29.99257
G1 X175.723 Y133.997 E30.19359
G1 X173.634 Y136.379 E30.48660
G1 X171.664 Y136.379 E30.66881
G1 X171.287 Y136.781 E30.71979
G1 X171.418 Y138.782 E30.90529
G1 X168.716 Y141.484 E31.25875
G1 X169.041 Y142.269 E31.33732
G1 X170.829 Y142.269 E31.50266
G1 X171.169 Y142.303 E31.53427
G1 X171.879 Y142.459 E31.60154
G1 X172.508 Y142.689 E31.66347
G1 X173.094 Y142.994 E31.72459
G1 X173.462 Y143.239 E31.76546
G1 X173.972 Y143.667 E31.82707
G1 X174.422 Y144.157 E31.88859
G1 X174.806 Y144.704 E31.95040
G1 X175.061 Y145.189 E32.00104
G1 X175.202 Y145.508 E32.03332
G1 X175.361 Y145.978 E32.07920
G1 X175.439 Y146.312 E32.11091
G1 X175.723 Y148.467 E32.31193
G1 X173.634 Y150.848 E32.60494
G1 X171.664 Y150.848 E32.78716
G1 X171.287 Y151.251 E32.83813
G1 X171.418 Y153.252 E33.02363
G1 X166.843 Y157.827 E33.62205
G1 X163.682 Y157.620 E33.91505
G1 X162.838 Y156.520 E34.04324
G1 X162.212 Y156.520 E34.10123
G1 X161.368 Y157.620 E34.22943
G1 X158.207 Y157.827 E34.52243
G1 X153.632 Y153.252 E35.12084
G1 X153.763 Y151.251 E35.30634
G1 X153.386 Y150.848 E35.35731
G1 X151.416 Y150.848 E35.53953
G1 X150.288 Y149.562 E35.69777
G1 X149.712 Y149.562 E35.75104
G1 X148.584 Y150.848 E35.90928
G1 X146.614 Y150.848 E36.09150
G1 X146.237 Y151.251 E36.14247
G1 X146.368 Y153.252 E36.32797
G1 X143.666 Y155.954 E36.68144
G1 X143.991 Y156.739 E36.76000
G1 X145.779 Y156.739 E36.92535
G1 X146.119 Y156.772 E36.95695
G1 X146.829 Y156.929 E37.02423
G1 X147.458 Y157.158 E37.08615
G1 X148.044 Y157.464 E37.14728
G1 X148.412 Y157.709 E37.18814
G1 X148.922 Y158.137 E37.24976
G1 X149.372 Y158.627 E37.31128
G1 X149.756 Y159.174 E37.37308
G1 X150.011 Y159.659 E37.42373
G1 X150.152 Y159.978 E37.45601
G1 X150.311 Y160.448 E37.50188
G1 X150.389 Y160.782 E37.53359
G1 X150.673 Y162.936 E37.73461
G1 X148.584 Y165.318 E38.02762
G1 X146.614 Y165.318 E38.20984
G1 X146.237 Y165.720 E38.26081
G1 X146.368 Y167.722 E38.44632
G1 X141.793 Y172.297 E39.04473
G1 X138.632 Y172.090 E39.33774
G1 X137.788 Y170.990 E39.46593
G1 X137.162 Y170.990 E39.52391
G1 X136.318 Y172.090 E39.65211
G1 X133.157 Y172.297 E39.94511
G1 X128.582 Y167.722 E40.54352
G1 X128.713 Y165.720 E40.72902
G1 X128.336 Y165.318 E40.78000
G1 X126.366 Y165.318 E40.96222
G1 X124.277 Y162.936 E41.25522
G1 X124.561 Y160.782 E41.45625
G1 X124.639 Y160.447 E41.48803
G1 X124.798 Y159.978 E41.53382
G1 X125.080 Y159.372 E41.59565
G1 X125.436 Y158.812 E41.65700
G1 X125.576 Y158.629 E41.67833
G1 X126.027 Y158.138 E41.73998
G1 X126.541 Y157.707 E41.80202
G1 X127.101 Y157.352 E41.86334
G1 X127.495 Y157.157 E41.90402
G1 X128.122 Y156.928 E41.96578
G1 X128.828 Y156.773 E42.03264
G1 X129.170 Y156.739 E42.06442
G1 X130.959 Y156.739 E42.22985
G1 X131.261 Y156.010 E42.30286
G1 X132.818 Y156.590 F7800.000
G1 X129.235 Y153.006 E42.77162 F1080.000
G1 X129.392 Y150.615 E42.99325
G1 X129.015 Y150.213 E43.04423
G1 X126.654 Y150.213 E43.26258
G1 X124.945 Y148.264 E43.50231
G1 X125.187 Y146.426 E43.67382
G1 X125.251 Y146.152 E43.69982
G1 X125.465 Y145.559 E43.75814
G1 X125.641 Y145.202 E43.79491
G1 X125.953 Y144.713 E43.84863
G1 X126.331 Y144.263 E43.90291
G1 X126.536 Y144.067 E43.92918
G1 X126.911 Y143.755 E43.97432
G1 X127.401 Y143.442 E44.02801
G1 X127.757 Y143.266 E44.06481
G1 X128.307 Y143.067 E44.11887
G1 X128.922 Y142.932 E44.17709
G1 X129.202 Y142.905 E44.20309
G1 X145.748 Y142.905 E45.73346
G1 X146.026 Y142.932 E45.75932
G1 X146.645 Y143.068 E45.81789
G1 X147.195 Y143.268 E45.87207
G1 X147.709 Y143.534 E45.92560
G1 X148.190 Y143.871 E45.97994
G1 X148.620 Y144.264 E46.03378
G1 X148.880 Y144.561 E46.07035
G1 X149.216 Y145.040 E46.12444
G1 X149.605 Y145.802 E46.20352
G1 X150.395 Y145.802 E46.27664
G1 X150.784 Y145.041 E46.35571
G1 X151.118 Y144.563 E46.40962
G1 X151.381 Y144.263 E46.44647
G1 X151.961 Y143.755 E46.51783
G1 X152.451 Y143.442 E46.57152
G1 X152.981 Y143.195 E46.62565
G1 X153.539 Y143.018 E46.67984
G1 X153.972 Y142.932 E46.72061
G1 X154.252 Y142.905 E46.74661
G1 X157.543 Y142.905 E47.05108
G1 X157.868 Y142.120 E47.12964
G1 X154.285 Y138.536 E47.59840
G1 X154.442 Y136.145 E47.82003
G1 X154.065 Y135.743 E47.87100
G1 X151.704 Y135.743 E48.08936
G1 X149.995 Y133.794 E48.32909
G1 X150.237 Y131.956 E48.50059
G1 X150.301 Y131.682 E48.52660
G1 X150.515 Y131.089 E48.58492
G1 X150.691 Y130.732 E48.62169
G1 X151.003 Y130.243 E48.67541
G1 X151.512 Y129.662 E48.74677
G1 X151.811 Y129.400 E48.78362
G1 X152.289 Y129.066 E48.83751
G1 X152.981 Y128.725 E48.90885
G1 X153.539 Y128.548 E48.96304
G1 X153.972 Y128.463 E49.00381
G1 X154.252 Y128.435 E49.02981
G1 X170.798 Y128.435 E50.56018
G1 X171.076 Y128.462 E50.58604
G1 X171.513 Y128.549 E50.62729
G1 X172.245 Y128.798 E50.69876
G1 X172.759 Y129.065 E50.75230
G1 X173.091 Y129.287 E50.78925
G1 X173.537 Y129.662 E50.84319
G1 X173.930 Y130.091 E50.89704
G1 X174.266 Y130.571 E50.95113
G1 X174.607 Y131.262 E51.02246
G1 X174.749 Y131.683 E51.06352
G1 X174.813 Y131.956 E51.08946
G1 X175.055 Y133.794 E51.26096
G1 X173.346 Y135.743 E51.50069
G1 X170.985 Y135.743 E51.71904
G1 X170.608 Y136.145 E51.77002
G1 X170.765 Y138.536 E51.99165
G1 X167.182 Y142.120 E52.46041
G1 X167.507 Y142.905 E52.53897
G1 X170.798 Y142.905 E52.84337
G1 X171.076 Y142.932 E52.86923
G1 X171.695 Y143.068 E52.92780
G1 X172.245 Y143.268 E52.98198
G1 X172.759 Y143.534 E53.03552
G1 X173.240 Y143.871 E53.08986
G1 X173.670 Y144.264 E53.14369
G1 X174.045 Y144.711 E53.19766
