; generated by Slic3r 1.1.7 on 2014-11-29 at 13:47:05

; perimeters extrusion width = 0.40mm
; infill extrusion width = 0.42mm
; solid infill extrusion width = 0.42mm
; top infill extrusion width = 0.42mm

G21 ; set units to millimeters
M107
M104 S200 ; set temperature
G92 X0 Y0 Z0
G1 Z5 F5000 ; lift nozzle

M109 S200 ; wait for temperature to be reached
G90 ; use absolute coordinates
G92 E0
M82 ; use absolute distances for extrusion
G10 ; retract
G92 E0
G1 Z0.350 F7800.000
G1 X124.041 Y141.234 F7800.000
G11 ; unretract
G1 X124.890 Y140.565 E0.03402 F1080.000
G1 X125.432 Y140.220 E0.05423
G1 X150.863 Y125.546 E0.97830
G1 X151.855 Y125.120 E1.01229
G1 X152.892 Y124.828 E1.04619
G1 X153.097 Y124.787 E1.05278
G1 X154.392 Y124.660 E1.09373
G1 X170.658 Y124.660 E1.60565
G1 X171.946 Y124.786 E1.64639
G1 X172.996 Y125.053 E1.68050 F1080.000
G1 X173.996 Y125.452 E1.71437
G1 X174.930 Y125.975 E1.74807
G1 X175.799 Y126.623 E1.78218
G1 X176.570 Y127.376 E1.81609
G1 X177.236 Y128.221 E1.84997
G1 X177.787 Y129.147 E1.88388
G1 X177.879 Y129.334 E1.89043
G1 X178.280 Y130.338 E1.92444
G1 X178.574 Y131.602 E1.96531
G1 X178.686 Y132.883 E2.00576
G1 X178.686 Y147.352 E2.46116
G1 X178.289 Y149.613 E2.53340
G1 X176.912 Y151.868 E2.61655
G1 X172.518 Y156.592 E2.81959
G1 X170.183 Y158.927 E2.92352
G1 X168.810 Y159.981 E2.97799
G1 X143.760 Y174.451 E3.88845
G1 X141.604 Y175.238 E3.96069
G1 X140.441 Y175.340 E3.99743
G1 X134.509 Y175.340 E4.18416
G1 X132.248 Y174.943 E4.25640
G1 X129.816 Y173.397 E4.34709
G1 X127.312 Y170.886 E4.45871
G1 X123.088 Y166.338 E4.65405
G1 X121.840 Y164.411 E4.72629
G1 X121.314 Y161.822 E4.80944
G1 X121.371 Y146.487 E5.29210
G1 X121.426 Y146.072 E5.30525
G1 X121.721 Y144.805 E5.34621
G1 X122.121 Y143.805 E5.38009
G1 X122.212 Y143.619 E5.38664
G1 X122.647 Y142.865 E5.41401
G1 X123.292 Y142.003 E5.44788
G1 X123.998 Y141.276 E5.47979
G10 ; retract
G92 E0
G1 X166.309 Y151.723 F7800.000
G11 ; unretract
G1 X167.368 Y151.863 E0.03363 F378.000
G1 X165.454 Y153.777 E0.11883
G1 X165.358 Y153.044 E0.14210
G1 X165.344 Y148.756 E0.27705
G1 X165.290 Y148.488 E0.28565
G1 X165.206 Y148.240 E0.29389
G1 X165.090 Y148.006 E0.30212
G1 X164.945 Y147.788 E0.31037
G1 X164.772 Y147.591 E0.31860
G1 X164.576 Y147.419 E0.32684
G1 X164.357 Y147.273 E0.33509
G1 X164.123 Y147.157 E0.34332
G1 X163.875 Y147.073 E0.35156
G1 X163.608 Y147.020 E0.36015
G1 X162.733 Y147.016 E0.38767
G1 X161.442 Y147.020 E0.42830
G1 X161.175 Y147.073 E0.43688
G1 X160.927 Y147.157 E0.44511
G1 X160.692 Y147.273 E0.45336
G1 X160.475 Y147.418 E0.46158
G1 X160.278 Y147.591 E0.46983
G1 X160.105 Y147.788 E0.47808
G1 X159.960 Y148.006 E0.48631
G1 X159.844 Y148.240 E0.49455
G1 X159.760 Y148.488 E0.50279
G1 X159.706 Y148.756 E0.51137
G1 X159.692 Y153.044 E0.64633
G1 X159.596 Y153.777 E0.66960
G1 X157.682 Y151.863 E0.75480
G1 X158.741 Y151.723 E0.78843
G1 X158.741 Y147.002 E0.93701
G1 X153.334 Y147.002 E1.10718
G1 X153.609 Y146.591 E1.12274
G1 X153.840 Y146.361 E1.13301
G1 X154.123 Y146.197 E1.14329
G1 X154.427 Y146.115 E1.15320
G1 X170.623 Y146.115 E1.66296
G1 X170.927 Y146.197 E1.67287
G1 X171.074 Y146.270 E1.67802
G1 X171.333 Y146.468 E1.68829
G1 X171.441 Y146.591 E1.69343
G1 X171.716 Y147.002 E1.70900
G1 X166.309 Y147.002 E1.87916
G1 X166.309 Y151.663 E2.02585
G1 X166.274 Y152.122 F7800.000
G1 X166.359 Y152.175 F7800.000
G1 X166.382 Y152.198 E2.02689 F1080.000
G1 X165.818 Y152.762 E2.05200
G1 X165.798 Y152.742 E2.05289
G1 X165.743 Y147.963 F7800.000
G1 X165.558 Y147.353 E2.08367 F360.000
G1 X165.426 Y146.998 E2.10193
G1 X164.993 Y146.833 E2.12432
G1 X164.491 Y146.681 E2.14961
G1 X160.559 Y146.681 F7800.000
G1 X160.059 Y146.833 E2.17483 F360.000
G1 X159.624 Y146.998 E2.19728
G1 X159.492 Y147.354 E2.21561
G1 X159.307 Y147.963 E2.24632
G1 X159.217 Y152.105 F7800.000
G1 X159.254 Y152.143 E2.24800 F1080.000
G10 ; retract
G92 E0
G1 X166.309 Y137.254 F7800.000
G11 ; unretract
G1 X167.368 Y137.393 E0.03363 F378.000
G1 X165.454 Y139.307 E0.11883
G1 X165.358 Y138.574 E0.14210
G1 X165.344 Y134.286 E0.27705
G1 X165.290 Y134.019 E0.28565
G1 X165.206 Y133.771 E0.29389
G1 X165.090 Y133.536 E0.30212
G1 X164.945 Y133.318 E0.31037
G1 X164.772 Y133.121 E0.31860
G1 X164.576 Y132.949 E0.32684
G1 X164.357 Y132.803 E0.33509
G1 X164.123 Y132.688 E0.34332
G1 X163.875 Y132.603 E0.35156
G1 X163.608 Y132.550 E0.36015
G1 X162.733 Y132.546 E0.38767
G1 X161.442 Y132.550 E0.42830
G1 X161.175 Y132.603 E0.43688
G1 X160.927 Y132.688 E0.44511
G1 X160.692 Y132.803 E0.45336
G1 X160.475 Y132.949 E0.46158
G1 X160.278 Y133.121 E0.46983
G1 X160.105 Y133.318 E0.47808
G1 X159.960 Y133.536 E0.48631
G1 X159.844 Y133.771 E0.49455
G1 X159.760 Y134.019 E0.50279
G1 X159.706 Y134.286 E0.51137
G1 X159.692 Y138.574 E0.64633
G1 X159.596 Y139.307 E0.66960
G1 X157.682 Y137.393 E0.75480
G1 X158.741 Y137.254 E0.78843
G1 X158.741 Y132.533 E0.93701
G1 X153.334 Y132.533 E1.10718
G1 X153.609 Y132.121 E1.12274
G1 X153.840 Y131.891 E1.13301
G1 X154.123 Y131.728 E1.14329
G1 X154.427 Y131.645 E1.15320
G1 X170.623 Y131.645 E1.66296
G1 X170.927 Y131.728 E1.67287
G1 X171.074 Y131.800 E1.67802
G1 X171.333 Y131.999 E1.68829
G1 X171.441 Y132.122 E1.69343
G1 X171.716 Y132.533 E1.70900
G1 X166.309 Y132.533 E1.87916
G1 X166.309 Y137.194 E2.02585
G1 X166.274 Y137.652 F7800.000
G1 X166.359 Y137.705 F7800.000
G1 X166.382 Y137.728 E2.02689 F1080.000
G1 X165.818 Y138.292 E2.05200
G1 X165.798 Y138.272 E2.05289
G1 X165.743 Y133.493 F7800.000
G1 X165.558 Y132.883 E2.08367 F360.000
G1 X165.426 Y132.528 E2.10193
G1 X164.993 Y132.364 E2.12432
G1 X164.491 Y132.211 E2.14961
G1 X160.559 Y132.211 F7800.000
G1 X160.059 Y132.363 E2.17483 F360.000
G1 X159.624 Y132.528 E2.19728
G1 X159.492 Y132.884 E2.21561
G1 X159.307 Y133.493 E2.24632
G1 X159.217 Y137.636 F7800.000
G1 X159.254 Y137.673 E2.24800 F1080.000
G10 ; retract
G92 E0
G1 X141.259 Y151.723 F7800.000
G11 ; unretract
G1 X142.318 Y151.863 E0.03363 F378.000
G1 X140.404 Y153.777 E0.11883
G1 X140.308 Y153.044 E0.14210
G1 X140.294 Y148.756 E0.27705
G1 X140.240 Y148.488 E0.28565
G1 X140.156 Y148.240 E0.29389
G1 X140.040 Y148.006 E0.30212
G1 X139.895 Y147.788 E0.31037
G1 X139.722 Y147.591 E0.31860
G1 X139.526 Y147.419 E0.32684
G1 X139.307 Y147.273 E0.33509
G1 X139.073 Y147.157 E0.34332
G1 X138.825 Y147.073 E0.35156
G1 X138.558 Y147.020 E0.36015
G1 X137.683 Y147.016 E0.38767
G1 X136.392 Y147.020 E0.42830
G1 X136.125 Y147.073 E0.43688
G1 X135.877 Y147.157 E0.44511
G1 X135.642 Y147.273 E0.45336
G1 X135.425 Y147.418 E0.46158
G1 X135.228 Y147.591 E0.46983
G1 X135.055 Y147.788 E0.47808
G1 X134.910 Y148.006 E0.48631
G1 X134.794 Y148.240 E0.49455
G1 X134.710 Y148.488 E0.50279
G1 X134.656 Y148.756 E0.51137
G1 X134.642 Y153.044 E0.64633
G1 X134.546 Y153.777 E0.66960
G1 X132.632 Y151.863 E0.75480
G1 X133.691 Y151.723 E0.78843
G1 X133.691 Y147.002 E0.93701
G1 X128.284 Y147.002 E1.10718
G1 X128.559 Y146.591 E1.12274
G1 X128.790 Y146.361 E1.13301
G1 X129.073 Y146.197 E1.14329
G1 X129.377 Y146.115 E1.15320
G1 X145.573 Y146.115 E1.66296
G1 X145.877 Y146.197 E1.67287
G1 X146.024 Y146.270 E1.67802
G1 X146.283 Y146.468 E1.68829
G1 X146.391 Y146.591 E1.69343
G1 X146.666 Y147.002 E1.70900
G1 X141.259 Y147.002 E1.87916
G1 X141.259 Y151.663 E2.02585
G1 X141.224 Y152.122 F7800.000
G1 X141.309 Y152.175 F7800.000
G1 X141.332 Y152.198 E2.02689 F1080.000
G1 X140.768 Y152.762 E2.05200
G1 X140.748 Y152.742 E2.05289
G1 X140.693 Y147.963 F7800.000
G1 X140.508 Y147.353 E2.08367 F360.000
G1 X140.376 Y146.998 E2.10193
G1 X139.943 Y146.833 E2.12432
G1 X139.441 Y146.681 E2.14961
G1 X135.509 Y146.681 F7800.000
G1 X135.009 Y146.833 E2.17483 F360.000
G1 X134.574 Y146.998 E2.19728
G1 X134.442 Y147.354 E2.21561
G1 X134.257 Y147.963 E2.24632
G1 X134.167 Y152.105 F7800.000
G1 X134.204 Y152.143 E2.24800 F1080.000
G10 ; retract
G92 E0
G1 X141.259 Y166.193 F7800.000
G11 ; unretract
G1 X142.318 Y166.333 E0.03363 F378.000
G1 X140.404 Y168.247 E0.11883
G1 X140.308 Y167.514 E0.14210
G1 X140.294 Y163.226 E0.27705
G1 X140.240 Y162.958 E0.28565
G1 X140.156 Y162.710 E0.29389
G1 X140.040 Y162.475 E0.30212
G1 X139.895 Y162.258 E0.31037
G1 X139.722 Y162.061 E0.31860
G1 X139.526 Y161.889 E0.32684
G1 X139.307 Y161.743 E0.33509
G1 X139.073 Y161.627 E0.34332
G1 X138.825 Y161.543 E0.35156
G1 X138.558 Y161.490 E0.36015
G1 X137.683 Y161.486 E0.38767
G1 X136.392 Y161.490 E0.42830
G1 X136.125 Y161.543 E0.43688
G1 X135.877 Y161.627 E0.44511
G1 X135.642 Y161.743 E0.45336
G1 X135.425 Y161.888 E0.46158
G1 X135.228 Y162.061 E0.46983
G1 X135.055 Y162.258 E0.47808
G1 X134.910 Y162.475 E0.48631
G1 X134.794 Y162.710 E0.49455
G1 X134.710 Y162.958 E0.50279
G1 X134.656 Y163.226 E0.51137
G1 X134.642 Y167.514 E0.64633
G1 X134.546 Y168.247 E0.66960
G1 X132.632 Y166.333 E0.75480
G1 X133.691 Y166.193 E0.78843
G1 X133.691 Y161.472 E0.93701
G1 X128.284 Y161.472 E1.10718
G1 X128.559 Y161.061 E1.12274
G1 X128.790 Y160.830 E1.13301
G1 X129.073 Y160.667 E1.14329
G1 X129.377 Y160.585 E1.15320
G1 X145.573 Y160.585 E1.66296
G1 X145.877 Y160.667 E1.67287
G1 X146.024 Y160.739 E1.67802
G1 X146.283 Y160.938 E1.68829
G1 X146.391 Y161.061 E1.69343
G1 X146.666 Y161.472 E1.70900
G1 X141.259 Y161.472 E1.87916
G1 X141.259 Y166.133 E2.02585
G1 X141.224 Y166.592 F7800.000
G1 X141.309 Y166.644 F7800.000
G1 X141.332 Y166.668 E2.02689 F1080.000
G1 X140.768 Y167.232 E2.05200
G1 X140.748 Y167.212 E2.05289
G1 X140.693 Y162.433 F7800.000
G1 X140.508 Y161.822 E2.08367 F360.000
G1 X140.376 Y161.468 E2.10193
G1 X139.943 Y161.303 E2.12432
G1 X139.441 Y161.151 E2.14961
G1 X135.509 Y161.151 F7800.000
G1 X135.009 Y161.303 E2.17483 F360.000
G1 X134.574 Y161.468 E2.19728
G1 X134.442 Y161.824 E2.21561
G1 X134.257 Y162.432 E2.24632
G1 X134.167 Y166.575 F7800.000
G1 X134.204 Y166.613 E2.24800 F1080.000
M106 S255
G10 ; retract
G92 E0
G1 Z0.750 F7800.000
G1 X160.234 Y146.765 F7800.000
G11 ; unretract
G1 X159.817 Y147.131 E0.01255 F1268.410
G1 X159.391 Y147.616 E0.02717
G1 X159.391 Y146.765 E0.04644
G1 X160.174 Y146.765 E0.06416
G1 X164.816 Y146.765 F7800.000
G1 X165.659 Y146.765 E0.08323 F1268.410
G1 X165.659 Y147.616 E0.10250
G1 X165.233 Y147.131 E0.11712
G1 X164.861 Y146.805 E0.12831
G1 X166.059 Y146.752 F7800.000
G1 X166.059 Y151.943 E0.24579 F1268.410
G1 X166.833 Y152.045 E0.26347
G1 X165.609 Y153.269 E0.30267
G1 X165.594 Y148.731 E0.40540
G1 X165.532 Y148.424 E0.41249
G1 X165.438 Y148.145 E0.41916
G1 X165.307 Y147.881 E0.42583
G1 X165.144 Y147.635 E0.43250
G1 X164.906 Y147.376 E0.44047
G1 X164.728 Y147.220 E0.44582
G1 X164.483 Y147.056 E0.45250
G1 X164.219 Y146.926 E0.45916
G1 X163.940 Y146.831 E0.46583
G1 X163.633 Y146.770 E0.47292
G1 X162.316 Y146.766 E0.50271
G1 X161.417 Y146.770 E0.52307
G1 X161.110 Y146.831 E0.53015
G1 X160.831 Y146.926 E0.53682
G1 X160.567 Y147.056 E0.54349
G1 X160.322 Y147.220 E0.55016
G1 X160.101 Y147.414 E0.55683
G1 X159.906 Y147.636 E0.56349
G1 X159.743 Y147.881 E0.57017
G1 X159.612 Y148.145 E0.57683
G1 X159.518 Y148.424 E0.58350
G1 X159.456 Y148.731 E0.59060
G1 X159.441 Y153.269 E0.69332
G1 X158.217 Y152.045 E0.73252
G1 X158.991 Y151.943 E0.75020
G1 X158.991 Y146.752 E0.86768
G1 X154.121 Y146.752 E0.97791
G1 X154.064 Y146.505 E0.98366
G1 X154.218 Y146.429 E0.98757
G1 X154.451 Y146.365 E0.99303
G1 X170.599 Y146.365 E1.35854
G1 X170.832 Y146.429 E1.36400
G1 X170.986 Y146.505 E1.36791
G1 X170.929 Y146.752 E1.37366
G1 X166.119 Y146.752 E1.48253
G1 X166.459 Y147.152 F7800.000
G1 X166.459 Y151.592 E1.58302 F887.887
G1 X167.034 Y151.668 E1.59615
G1 X167.559 Y151.885 E1.60900
G1 X165.476 Y153.967 E1.67566
G1 X165.259 Y153.443 E1.68851
G1 X165.208 Y153.054 E1.69738
G1 X165.194 Y148.771 E1.79433
G1 X165.145 Y148.527 E1.79995
G1 X165.067 Y148.298 E1.80543
G1 X164.960 Y148.081 E1.81091
G1 X164.843 Y147.906 E1.81568
G1 X164.666 Y147.697 E1.82187
G1 X164.457 Y147.520 E1.82807
G1 X164.283 Y147.403 E1.83283
G1 X164.065 Y147.296 E1.83831
G1 X163.836 Y147.218 E1.84379
G1 X163.592 Y147.170 E1.84941
G1 X162.317 Y147.166 E1.87828
G1 X161.458 Y147.170 E1.89774
G1 X161.214 Y147.218 E1.90336
G1 X160.985 Y147.296 E1.90884
G1 X160.767 Y147.403 E1.91433
G1 X160.566 Y147.538 E1.91981
G1 X160.384 Y147.697 E1.92529
G1 X160.224 Y147.880 E1.93077
G1 X160.090 Y148.081 E1.93625
G1 X159.983 Y148.298 E1.94173
G1 X159.905 Y148.527 E1.94722
G1 X159.856 Y148.771 E1.95284
G1 X159.842 Y153.054 E2.04979
G1 X159.791 Y153.443 E2.05866
G1 X159.574 Y153.967 E2.07151
G1 X157.491 Y151.885 E2.13817
G1 X158.016 Y151.668 E2.15102
G1 X158.591 Y151.592 E2.16415
G1 X158.591 Y147.152 E2.26464
G1 X153.193 Y147.152 E2.38683
G1 X153.307 Y146.816 E2.39486
G1 X153.388 Y146.652 E2.39901
G1 X153.611 Y146.362 E2.40729
G1 X153.901 Y146.139 E2.41556
G1 X154.065 Y146.058 E2.41971
G1 X154.412 Y145.965 E2.42784
G1 X170.638 Y145.965 E2.79513
G1 X170.985 Y146.058 E2.80325
G1 X171.149 Y146.139 E2.80740
G1 X171.439 Y146.362 E2.81568
G1 X171.662 Y146.652 E2.82395
G1 X171.743 Y146.816 E2.82810
G1 X171.857 Y147.152 E2.83613
G1 X166.519 Y147.152 E2.95696
G1 X166.059 Y147.152 F7800.000
G10 ; retract
G92 E0
G1 X160.234 Y132.295 F7800.000
G11 ; unretract
G1 X159.817 Y132.661 E0.01255 F1268.410
G1 X159.391 Y133.146 E0.02717
G1 X159.391 Y132.295 E0.04644
G1 X160.174 Y132.295 E0.06416
G1 X164.816 Y132.295 F7800.000
G1 X165.659 Y132.295 E0.08323 F1268.410
G1 X165.659 Y133.146 E0.10250
G1 X165.233 Y132.661 E0.11712
G1 X164.861 Y132.335 E0.12831
G1 X166.059 Y132.283 F7800.000
G1 X166.059 Y137.473 E0.24579 F1268.410
G1 X166.833 Y137.575 E0.26347
G1 X165.609 Y138.799 E0.30267
G1 X165.594 Y134.261 E0.40540
G1 X165.532 Y133.954 E0.41249
G1 X165.438 Y133.675 E0.41916
G1 X165.307 Y133.411 E0.42583
G1 X165.144 Y133.166 E0.43250
G1 X164.906 Y132.906 E0.44047
G1 X164.728 Y132.750 E0.44582
G1 X164.483 Y132.586 E0.45250
G1 X164.219 Y132.456 E0.45916
G1 X163.940 Y132.361 E0.46583
G1 X163.633 Y132.300 E0.47292
G1 X162.316 Y132.296 E0.50271
G1 X161.417 Y132.300 E0.52307
G1 X161.110 Y132.361 E0.53015
G1 X160.831 Y132.456 E0.53682
G1 X160.567 Y132.586 E0.54349
G1 X160.322 Y132.750 E0.55016
G1 X160.101 Y132.944 E0.55683
G1 X159.906 Y133.166 E0.56349
G1 X159.743 Y133.411 E0.57017
G1 X159.612 Y133.675 E0.57683
G1 X159.518 Y133.954 E0.58350
G1 X159.456 Y134.261 E0.59060
G1 X159.441 Y138.799 E0.69332
G1 X158.217 Y137.575 E0.73252
G1 X158.991 Y137.473 E0.75020
G1 X158.991 Y132.283 E0.86768
G1 X154.121 Y132.283 E0.97791
G1 X154.064 Y132.035 E0.98366
G1 X154.218 Y131.959 E0.98757
G1 X154.451 Y131.895 E0.99303
G1 X170.599 Y131.895 E1.35854
G1 X170.832 Y131.959 E1.36400
G1 X170.986 Y132.035 E1.36791
G1 X170.929 Y132.283 E1.37366
G1 X166.119 Y132.283 E1.48253
G1 X166.459 Y132.683 F7800.000
G1 X166.459 Y137.122 E1.58302 F887.887
G1 X167.034 Y137.198 E1.59615
G1 X167.559 Y137.415 E1.60900
G1 X165.476 Y139.497 E1.67566
G1 X165.259 Y138.973 E1.68851
G1 X165.208 Y138.584 E1.69738
G1 X165.194 Y134.301 E1.79433
G1 X165.145 Y134.058 E1.79995
G1 X165.067 Y133.828 E1.80543
G1 X164.960 Y133.611 E1.81091
G1 X164.843 Y133.436 E1.81568
G1 X164.666 Y133.228 E1.82187
G1 X164.457 Y133.050 E1.82807
G1 X164.283 Y132.933 E1.83283
G1 X164.065 Y132.826 E1.83831
G1 X163.836 Y132.748 E1.84379
G1 X163.592 Y132.700 E1.84941
G1 X162.317 Y132.696 E1.87828
G1 X161.458 Y132.700 E1.89774
G1 X161.214 Y132.748 E1.90336
G1 X160.985 Y132.826 E1.90884
G1 X160.767 Y132.933 E1.91433
G1 X160.566 Y133.068 E1.91981
G1 X160.384 Y133.228 E1.92529
G1 X160.224 Y133.410 E1.93077
G1 X160.090 Y133.611 E1.93625
G1 X159.983 Y133.828 E1.94173
G1 X159.905 Y134.058 E1.94722
G1 X159.856 Y134.301 E1.95284
G1 X159.842 Y138.584 E2.04979
G1 X159.791 Y138.973 E2.05866
G1 X159.574 Y139.497 E2.07151
G1 X157.491 Y137.415 E2.13817
G1 X158.016 Y137.198 E2.15102
G1 X158.591 Y137.122 E2.16415
G1 X158.591 Y132.683 E2.26464
G1 X153.193 Y132.683 E2.38683
G1 X153.307 Y132.347 E2.39486
G1 X153.388 Y132.182 E2.39901
G1 X153.611 Y131.892 E2.40729
G1 X153.901 Y131.670 E2.41556
G1 X154.065 Y131.589 E2.41971
G1 X154.412 Y131.495 E2.42784
G1 X170.638 Y131.495 E2.79513
G1 X170.985 Y131.589 E2.80325
G1 X171.149 Y131.670 E2.80740
G1 X171.439 Y131.892 E2.81568
G1 X171.662 Y132.182 E2.82395
G1 X171.743 Y132.347 E2.82810
G1 X171.857 Y132.683 E2.83613
