; generated by Slic3r 1.1.7 on 2014-11-29 at 01:20:24

; perimeters extrusion width = 0.40mm
; infill extrusion width = 0.42mm
; solid infill extrusion width = 0.42mm
; top infill extrusion width = 0.42mm
; support material extrusion width = 0.40mm

G21 ; set units to millimeters
M104 S190 ; set temperature
G28
G29
G1 Z5 F5000 ; lift nozzle

M109 S190 ; wait for temperature to be reached
G90 ; use absolute coordinates
G92 E0
M82 ; use absolute distances for extrusion
M204 S1500
G1 F1800.000 E-1.00000
G92 E0
G1 Z0.350 F7800.000
G1 X126.618 Y132.808 F7800.000
G1 E1.00000 F1800.000
G1 X127.532 Y132.090 E1.10747 F1080.000
G1 X128.524 Y131.501 E1.21422
G1 X129.587 Y131.045 E1.32121
G1 X129.790 Y130.977 E1.34096
G1 X131.177 Y130.653 E1.47278
G1 X132.538 Y130.537 E1.59903
G1 X168.408 Y130.599 E4.91677
G1 X168.823 Y130.653 E4.95541 F1080.000
G1 X170.211 Y130.977 E5.08724
G1 X171.286 Y131.407 E5.19436
G1 X172.289 Y131.970 E5.30079
G1 X173.223 Y132.669 E5.40866
G1 X174.052 Y133.479 E5.51580
G1 X174.768 Y134.389 E5.62293
G1 X174.879 Y134.556 E5.64151
G1 X175.359 Y135.386 E5.73013
G1 X175.815 Y136.451 E5.83726
G1 X175.882 Y136.648 E5.85654
G1 X176.205 Y138.035 E5.98830
G1 X176.257 Y138.432 E6.02533
G1 X176.321 Y139.395 E6.11460
G1 X176.321 Y150.508 E7.14241
G1 X175.924 Y152.878 E7.36472
G1 X174.776 Y154.990 E7.58702
G1 X173.509 Y156.251 E7.75236
G1 X158.460 Y167.935 E9.51456
G1 X156.344 Y169.075 E9.73687
G1 X154.001 Y169.463 E9.95652
G1 X146.000 Y169.463 E10.69654
G1 X143.629 Y169.066 E10.91885
G1 X141.540 Y167.935 E11.13851
G1 X126.491 Y156.251 E12.90071
G1 X124.862 Y154.484 E13.12301
G1 X123.899 Y152.282 E13.34532
G1 X123.679 Y150.508 E13.51066
G1 X123.741 Y138.446 E14.62627
G1 X123.795 Y138.035 E14.66460
G1 X124.119 Y136.647 E14.79643
G1 X124.185 Y136.451 E14.81562
G1 X124.640 Y135.389 E14.92249
G1 X125.117 Y134.562 E15.01073
G1 X125.811 Y133.635 E15.11786
G1 X126.576 Y132.851 E15.21918
G1 X127.038 Y133.286 F7800.000
G1 X127.885 Y132.619 E15.31892 F1080.000
G1 X128.806 Y132.071 E15.41802
G1 X129.792 Y131.647 E15.51734
G1 X129.994 Y131.579 E15.53704
G1 X131.260 Y131.283 E15.65733
G1 X132.538 Y131.172 E15.77589
G1 X168.326 Y131.229 E19.08599
G1 X168.740 Y131.283 E19.12460 F1080.000
G1 X170.006 Y131.579 E19.24491
G1 X171.005 Y131.978 E19.34434
G1 X171.937 Y132.499 E19.44314
G1 X172.804 Y133.147 E19.54326
G1 X173.574 Y133.898 E19.64271
G1 X174.239 Y134.742 E19.74216
G1 X174.351 Y134.909 E19.76073
G1 X174.789 Y135.667 E19.84166
G1 X175.213 Y136.655 E19.94111
G1 X175.280 Y136.852 E19.96037
G1 X175.575 Y138.118 E20.08062
G1 X175.627 Y138.515 E20.11765
G1 X175.686 Y139.395 E20.19923
G1 X175.686 Y150.508 E21.22704
G1 X175.289 Y152.769 E21.43933
G1 X174.145 Y154.759 E21.65163
G1 X173.119 Y155.749 E21.78352
G1 X158.070 Y167.433 E23.54572
G1 X156.041 Y168.506 E23.75802
G1 X154.001 Y168.828 E23.94903
G1 X146.000 Y168.828 E24.68905
G1 X143.739 Y168.431 E24.90135
G1 X141.930 Y167.433 E25.09237
G1 X126.881 Y155.749 E26.85457
G1 X125.338 Y154.049 E27.06686
G1 X124.468 Y151.926 E27.27916
G1 X124.314 Y150.508 E27.41105
G1 X124.371 Y138.529 E28.51899
G1 X124.425 Y138.118 E28.55731
G1 X124.721 Y136.852 E28.67762
G1 X124.787 Y136.656 E28.69675
G1 X125.210 Y135.670 E28.79596
G1 X125.645 Y134.915 E28.87655
G1 X126.289 Y134.054 E28.97598
G1 X126.995 Y133.328 E29.06964
G1 F1800.000 E28.06964
G92 E0
G1 X128.689 Y135.168 F7800.000
G1 E1.00000 F1800.000
G1 X129.166 Y134.774 E1.05718 F1080.000
G1 X129.560 Y134.511 E1.10105
G1 X129.923 Y134.312 E1.13924
G1 X130.472 Y134.061 E1.19510
G1 X130.991 Y133.884 E1.24587
G1 X131.388 Y133.792 E1.28352
G1 X132.132 Y133.694 E1.35296
G1 X132.402 Y133.676 E1.37798
G1 X148.536 Y133.676 E2.87024
G1 X149.737 Y134.877 E3.02726
G1 X150.263 Y134.877 E3.07596 F1080.000
G1 X151.464 Y133.676 E3.23297
G1 X167.597 Y133.676 E4.72519
G1 X167.866 Y133.694 E4.75012
G1 X168.615 Y133.793 E4.81992
G1 X169.011 Y133.885 E4.85758
G1 X169.527 Y134.060 E4.90795
G1 X170.204 Y134.375 E4.97699
G1 X170.837 Y134.776 E5.04637
G1 X171.053 Y134.942 E5.07150
G1 X171.602 Y135.447 E5.14055
G1 X172.082 Y136.021 E5.20970
G1 X172.483 Y136.653 E5.27898
G1 X172.798 Y137.331 E5.34812
G1 X172.973 Y137.849 E5.39869
G1 X173.066 Y138.244 E5.43622
G1 X173.164 Y138.990 E5.50583
G1 X173.182 Y139.260 E5.53084
G1 X173.182 Y152.219 E6.72944
G1 X170.761 Y154.640 E7.04601
G1 X164.791 Y154.640 E7.59822
G1 X164.419 Y155.012 E7.64692
G1 X164.419 Y157.211 E7.85035
G1 X163.730 Y158.790 E8.00965
G1 X156.240 Y165.751 E8.95544
G1 X154.783 Y166.324 E9.10019
G1 X145.217 Y166.324 E9.98497
G1 X143.760 Y165.751 E10.12973
G1 X136.270 Y158.790 E11.07551
G1 X135.581 Y157.211 E11.23482
G1 X135.581 Y155.012 E11.43824
G1 X135.209 Y154.640 E11.48694
G1 X129.239 Y154.640 E12.03916
G1 X126.818 Y152.219 E12.35572
G1 X126.818 Y139.260 E13.55433
G1 X126.836 Y138.990 E13.57935
G1 X126.934 Y138.246 E13.64879
G1 X127.026 Y137.849 E13.68645
G1 X127.306 Y137.081 E13.76204
G1 X127.518 Y136.652 E13.80636
G1 X127.916 Y136.024 E13.87510
G1 X128.399 Y135.446 E13.94470
G1 X128.644 Y135.208 E13.97641
G1 X129.109 Y135.646 F7800.000
G1 X129.536 Y135.291 E14.02775 F1080.000
G1 X129.896 Y135.051 E14.06782
G1 X130.486 Y134.743 E14.12934
G1 X131.166 Y134.496 E14.19625
G1 X131.502 Y134.418 E14.22811
G1 X132.195 Y134.327 E14.29276
G1 X132.423 Y134.312 E14.31394
G1 X148.273 Y134.312 E15.77992
G1 X149.737 Y135.776 E15.97137 F1080.000
G1 X150.263 Y135.776 E16.02007
G1 X151.727 Y134.312 E16.21152
G1 X167.577 Y134.312 E17.67747
G1 X168.501 Y134.419 E17.76349
G1 X168.836 Y134.497 E17.79536
G1 X169.303 Y134.655 E17.84093
G1 X169.904 Y134.935 E17.90231
G1 X170.467 Y135.293 E17.96396
G1 X170.649 Y135.433 E17.98523
G1 X171.138 Y135.882 E18.04661
G1 X171.565 Y136.391 E18.10807
G1 X171.922 Y136.953 E18.16965
G1 X172.203 Y137.555 E18.23111
G1 X172.362 Y138.024 E18.27686
G1 X172.440 Y138.358 E18.30861
G1 X172.546 Y139.281 E18.39454
G1 X172.546 Y151.956 E19.56686
G1 X170.498 Y154.004 E19.83472
G1 X164.155 Y154.004 E20.42138
G1 X163.783 Y154.376 E20.47008
G1 X163.783 Y157.079 E20.72003
G1 X163.201 Y158.415 E20.85483
G1 X155.895 Y165.204 E21.77723
G1 X154.663 Y165.688 E21.89971
G1 X145.337 Y165.688 E22.76222
G1 X144.105 Y165.204 E22.88471
G1 X136.799 Y158.415 E23.80710
G1 X136.217 Y157.079 E23.94190
G1 X136.217 Y154.376 E24.19185
G1 X135.845 Y154.004 E24.24056
G1 X129.502 Y154.004 E24.82721
G1 X127.454 Y151.956 E25.09507
G1 X127.454 Y139.281 E26.26740
G1 X127.469 Y139.053 E26.28857
G1 X127.560 Y138.360 E26.35323
G1 X127.638 Y138.024 E26.38509
G1 X127.885 Y137.344 E26.45201
G1 X128.079 Y136.952 E26.49246
G1 X128.433 Y136.394 E26.55358
G1 X128.863 Y135.881 E26.61543
G1 X129.064 Y135.685 E26.64141
G1 X129.528 Y136.123 F7800.000
G1 X129.906 Y135.808 E26.68690 F1080.000
G1 X130.232 Y135.591 E26.72318
G1 X130.920 Y135.251 E26.79417
G1 X131.341 Y135.108 E26.83522
G1 X131.615 Y135.044 E26.86129
G1 X132.444 Y134.948 E26.93845
G1 X148.010 Y134.948 E28.37816
G1 X149.737 Y136.675 E28.60405
G1 X150.263 Y136.675 E28.65275 F1080.000
G1 X151.990 Y134.948 E28.87864
G1 X167.556 Y134.948 E30.31831
G1 X168.387 Y135.045 E30.39567
G1 X168.661 Y135.109 E30.42173
G1 X169.252 Y135.323 E30.47988
G1 X169.765 Y135.589 E30.53338
G1 X170.096 Y135.810 E30.57016
G1 X170.541 Y136.184 E30.62394
G1 X170.933 Y136.613 E30.67766
G1 X171.361 Y137.253 E30.74887
G1 X171.607 Y137.780 E30.80265
G1 X171.750 Y138.198 E30.84357
G1 X171.813 Y138.472 E30.86955
G1 X171.898 Y139.115 E30.92953
G1 X171.910 Y151.693 E32.09286
G1 X170.235 Y153.368 E32.31202
G1 X163.520 Y153.368 E32.93311
G1 X163.147 Y153.741 E32.98182
G1 X163.147 Y156.946 E33.27831
G1 X162.671 Y158.039 E33.38860
G1 X155.551 Y164.656 E34.28760
G1 X154.542 Y165.052 E34.38782
G1 X145.458 Y165.052 E35.22805
G1 X144.449 Y164.656 E35.32827
G1 X137.329 Y158.039 E36.22727
G1 X136.853 Y156.946 E36.33756
G1 X136.853 Y153.741 E36.63405
G1 X136.480 Y153.368 E36.68275
G1 X129.765 Y153.368 E37.30384
G1 X128.090 Y151.693 E37.52301
G1 X128.102 Y139.115 E38.68634
G1 X128.186 Y138.473 E38.74621
G1 X128.250 Y138.199 E38.77228
G1 X128.464 Y137.606 E38.83052
G1 X128.639 Y137.252 E38.86712
G1 X128.950 Y136.764 E38.92061
G1 X129.327 Y136.316 E38.97471
G1 X129.483 Y136.163 E38.99495
G1 F1800.000 E37.99495
G92 E0
G1 X135.731 Y142.320 F7800.000
G1 E1.00000 F1800.000
G1 X135.783 Y142.267 E1.00684 F1080.000
G1 X148.012 Y142.255 E2.13788
G1 X149.737 Y140.528 E2.36359
G1 X150.263 Y140.528 E2.41233 F1080.000
G1 X151.988 Y142.255 E2.63803
G1 X164.217 Y142.267 E3.76907
G1 X164.589 Y142.640 E3.81774
G1 X164.589 Y145.674 E4.09841
G1 X164.216 Y146.047 E4.14712
G1 X135.784 Y146.047 E6.77687
G1 X135.411 Y145.674 E6.82558
G1 X135.411 Y142.640 E7.10625
G1 X135.689 Y142.362 E7.14253
G1 X136.367 Y142.955 F7800.000
G1 X136.419 Y142.902 E7.14937 F1080.000
G1 X148.276 Y142.890 E8.24602
G1 X149.737 Y141.427 E8.43720
G1 X150.263 Y141.427 E8.48594
G1 X151.724 Y142.890 E8.67713 F1080.000
G1 X163.581 Y142.902 E9.77378
G1 X163.953 Y143.275 E9.82244
G1 X163.953 Y145.039 E9.98560
G1 X163.581 Y145.411 E10.03431
G1 X136.419 Y145.411 E12.54649
G1 X136.047 Y145.039 E12.59519
G1 X136.047 Y143.275 E12.75835
G1 X136.324 Y142.997 E12.79462
G1 F1800.000 E11.79462
G92 E0
G1 X148.074 Y143.991 F7800.000
G1 E1.00000 F1800.000
G1 X149.737 Y142.327 E1.21756 F1080.000
G1 X150.263 Y142.327 E1.26630
G1 X151.926 Y143.991 E1.48385
G1 X151.601 Y144.775 E1.56239
G1 X148.399 Y144.775 E1.85849
G1 X148.097 Y144.046 E1.93148
G1 F1800.000 E0.93148
G92 E0
G1 X137.296 Y152.733 F7800.000
G1 E1.00000 F1800.000
G1 X130.029 Y152.733 E1.67221 F1080.000
G1 X128.725 Y151.429 E1.84267
G1 X128.725 Y139.323 E2.96244
G1 X128.813 Y138.587 E3.03098
G1 X128.862 Y138.373 E3.05125
G1 X129.044 Y137.869 E3.10082
G1 X129.273 Y137.426 E3.14694
G1 X129.557 Y137.018 E3.19298
G1 X129.791 Y136.751 E3.22577
G1 X130.160 Y136.415 E3.27191
G1 X130.568 Y136.131 E3.31795
G1 X131.011 Y135.902 E3.36408
G1 X131.515 Y135.720 E3.41364
G1 X131.729 Y135.671 E3.43392
G1 X132.465 Y135.583 E3.50245
G1 X147.746 Y135.583 E4.91588
G1 X149.050 Y136.887 E5.08634
G1 X149.050 Y140.316 E5.40356
G1 X147.748 Y141.619 E5.57389
G1 X135.148 Y141.632 E6.73933
G1 X134.776 Y142.005 E6.78799
G1 X134.776 Y146.310 E7.18619
G1 X135.148 Y146.682 E7.23489
G1 X164.852 Y146.682 E9.98223
G1 X165.224 Y146.310 E10.03093
G1 X165.224 Y142.005 E10.42912
G1 X164.852 Y141.632 E10.47779
G1 X152.252 Y141.619 E11.64322
G1 X150.950 Y140.316 E11.81356
G1 X150.950 Y136.887 E12.13078
G1 X152.254 Y135.583 E12.30124
G1 X167.535 Y135.583 E13.71464
G1 X168.272 Y135.671 E13.78332
G1 X168.486 Y135.721 E13.80360
G1 X168.989 Y135.902 E13.85310
G1 X169.430 Y136.130 E13.89897
G1 X169.726 Y136.327 E13.93184
G1 X170.107 Y136.648 E13.97794
G1 X170.531 Y137.132 E14.03748
G1 X170.800 Y137.553 E14.08365
G1 X171.012 Y138.004 E14.12974
G1 X171.138 Y138.373 E14.16584
G1 X171.187 Y138.586 E14.18604
G1 X171.275 Y139.323 E14.25466
G1 X171.275 Y151.429 E15.37443
G1 X169.971 Y152.733 E15.54489
G1 X162.704 Y152.733 E16.21710
G1 X162.379 Y153.517 E16.29566
G1 X162.512 Y153.651 E16.31307
G1 X162.512 Y156.814 E16.60564
G1 X162.141 Y157.664 E16.69142
G1 X155.206 Y164.108 E17.56704
G1 X154.422 Y164.417 E17.64498
G1 X145.578 Y164.417 E18.46295
G1 X144.794 Y164.108 E18.54090
G1 X137.859 Y157.664 E19.41651
G1 X137.488 Y156.814 E19.50229
G1 X137.488 Y153.651 E19.79486
G1 X137.621 Y153.517 E19.81227
G1 X137.319 Y152.788 E19.88528
G1 X138.831 Y152.097 F7800.000
G1 X130.292 Y152.097 E20.67507 F1080.000
G1 X129.361 Y151.166 E20.79683
G1 X129.368 Y139.240 E21.89993
G1 X129.439 Y138.700 E21.95022
G1 X129.583 Y138.227 E21.99602
G1 X129.761 Y137.852 E22.03442
G1 X129.985 Y137.504 E22.07267
G1 X130.255 Y137.186 E22.11126
G1 X130.563 Y136.907 E22.14971
G1 X130.904 Y136.671 E22.18808
G1 X131.274 Y136.481 E22.22652
G1 X131.690 Y136.332 E22.26740
G1 X131.843 Y136.297 E22.28189
G1 X132.485 Y136.219 E22.34179
G1 X147.483 Y136.219 E23.72894
G1 X148.414 Y137.150 E23.85070
G1 X148.414 Y140.053 E24.11924
G1 X147.484 Y140.984 E24.24090
G1 X134.512 Y140.997 E25.44073
G1 X134.140 Y141.370 E25.48940
G1 X134.140 Y146.946 E26.00511
G1 X134.512 Y147.318 E26.05381
G1 X165.488 Y147.318 E28.91872
G1 X165.860 Y146.946 E28.96743
G1 X165.860 Y141.370 E29.48314
G1 X165.488 Y140.997 E29.53180
G1 X152.516 Y140.984 E30.73163
G1 X151.586 Y140.053 E30.85330
G1 X151.586 Y137.150 E31.12184
G1 X152.517 Y136.219 E31.24359
G1 X167.514 Y136.219 E32.63073
G1 X168.158 Y136.297 E32.69074
G1 X168.311 Y136.332 E32.70522
G1 X168.727 Y136.481 E32.74606
G1 X169.095 Y136.670 E32.78432
G1 X169.355 Y136.844 E32.81329
G1 X169.672 Y137.113 E32.85170
G1 X170.014 Y137.503 E32.89971
G1 X170.240 Y137.852 E32.93818
G1 X170.417 Y138.228 E32.97659
G1 X170.561 Y138.700 E33.02224
G1 X170.639 Y139.343 E33.08221
G1 X170.639 Y151.166 E34.17570
G1 X169.708 Y152.097 E34.29746
G1 X161.169 Y152.097 E35.08725
G1 X160.844 Y152.882 E35.16581
G1 X161.876 Y153.914 E35.30080
G1 X161.876 Y156.681 E35.55676
G1 X161.611 Y157.289 E35.61803
G1 X154.862 Y163.561 E36.47026
G1 X154.301 Y163.781 E36.52593
G1 X145.699 Y163.781 E37.32163
G1 X145.138 Y163.561 E37.37730
G1 X138.389 Y157.289 E38.22953
G1 X138.124 Y156.681 E38.29080
G1 X138.124 Y153.914 E38.54676
G1 X139.156 Y152.882 E38.68175
G1 X138.854 Y152.152 E38.75476
G1 X138.831 Y151.461 F7800.000
G1 X130.555 Y151.461 E39.52020 F1080.000
G1 X129.997 Y150.903 E39.59326
G1 X129.997 Y139.364 E40.66048
G1 X130.086 Y138.723 E40.72040
G1 X130.178 Y138.451 E40.74690
G1 X130.322 Y138.152 E40.77762
G1 X130.502 Y137.874 E40.80825
G1 X130.719 Y137.621 E40.83909
G1 X130.966 Y137.398 E40.86984
G1 X131.240 Y137.211 E40.90054
G1 X131.536 Y137.060 E40.93128
G1 X131.865 Y136.944 E40.96350
G1 X132.444 Y136.859 E41.01766
G1 X147.220 Y136.855 E42.38430
G1 X147.778 Y137.413 E42.45736 F1080.000
G1 X147.778 Y139.790 E42.67721
G1 X147.221 Y140.349 E42.75021
G1 X133.876 Y140.363 E43.98443
G1 X133.505 Y140.735 E44.03310
G1 X133.505 Y147.581 E44.66633
G1 X133.877 Y147.953 E44.71503
G1 X166.123 Y147.953 E47.69752
G1 X166.496 Y147.581 E47.74622
G1 X166.496 Y140.735 E48.37945
G1 X166.124 Y140.363 E48.42812
G1 X152.779 Y140.348 E49.66234
G1 X152.222 Y139.790 E49.73534
G1 X152.222 Y137.413 E49.95519
G1 X152.780 Y136.855 E50.02825
G1 X167.556 Y136.859 E51.39486
G1 X168.044 Y136.923 E51.44045
G1 X168.406 Y137.036 E51.47551
G1 X168.759 Y137.210 E51.51192
G1 X169.034 Y137.399 E51.54278
G1 X169.237 Y137.577 E51.56772
G1 X169.459 Y137.824 E51.59842
G1 X169.647 Y138.098 E51.62921
G1 X169.822 Y138.452 E51.66570
G1 X169.935 Y138.814 E51.70077
G1 X170.003 Y139.364 E51.75208
G1 X170.003 Y150.903 E52.81930
G1 X169.445 Y151.461 E52.89235
G1 X154.501 Y151.461 E54.27455
G1 X154.128 Y151.834 E54.32325
G1 X154.128 Y153.246 E54.45389
G1 X154.501 Y153.619 E54.50260
G1 X160.682 Y153.619 E55.07430
G1 X161.240 Y154.177 E55.14735
G1 X161.240 Y156.549 E55.36671
G1 X161.082 Y156.913 E55.40347
G1 X154.517 Y163.013 E56.23231
G1 X154.181 Y163.145 E56.26571
G1 X145.819 Y163.145 E57.03914
G1 X145.483 Y163.013 E57.07254
G1 X138.918 Y156.913 E57.90137
G1 X138.760 Y156.549 E57.93814
G1 X138.760 Y154.177 E58.15750
G1 X139.318 Y153.619 E58.23055
G1 X145.499 Y153.619 E58.80225
G1 X145.872 Y153.246 E58.85095
G1 X145.872 Y151.834 E58.98159
G1 X145.499 Y151.461 E59.03030
G1 X138.891 Y151.461 E59.64151
G1 F1800.000 E58.64151
G92 E0
G1 X139.581 Y154.254 F7800.000
G1 E1.00000 F1800.000
G1 X146.135 Y154.254 E1.60614 F1080.000
G1 X146.507 Y153.882 E1.65484
G1 X146.507 Y151.198 E1.90306
G1 X146.135 Y150.826 E1.95176
G1 X130.818 Y150.826 E3.36840
G1 X130.632 Y150.640 E3.39275
G1 X130.634 Y139.364 E4.43562
G1 X130.691 Y138.928 E4.47634
G1 X130.781 Y138.657 E4.50276
G1 X130.882 Y138.452 E4.52390
G1 X131.019 Y138.244 E4.54692
G1 X131.198 Y138.041 E4.57191
G1 X131.386 Y137.877 E4.59499
G1 X131.594 Y137.740 E4.61800
G1 X131.799 Y137.639 E4.63914
G1 X132.070 Y137.549 E4.66557
G1 X132.506 Y137.492 E4.70629
G1 X146.957 Y137.490 E6.04281
G1 X147.143 Y137.676 E6.06716
G1 X147.143 Y139.527 E6.23833
G1 X146.957 Y139.713 E6.26267
G1 X133.980 Y139.727 E7.46287
G1 X133.659 Y139.804 E7.49343
G1 X133.509 Y139.875 E7.50878
G1 X133.337 Y139.990 E7.52795
G1 X133.132 Y140.195 E7.55474
G1 X133.017 Y140.367 E7.57391
