; generated by Slic3r 1.1.7 on 2014-11-29 at 02:04:58

; perimeters extrusion width = 0.40mm
; infill extrusion width = 0.42mm
; solid infill extrusion width = 0.42mm
; top infill extrusion width = 0.42mm

G21 ; set units to millimeters
M104 S190 ; set temperature
G28
G29
G1 Z5 F5000 ; lift nozzle

M109 S190 ; wait for temperature to be reached
G90 ; use absolute coordinates
G92 E0
M82 ; use absolute distances for extrusion
M204 S1500
G1 F1800.000 E-1.00000
G92 E0
G1 Z0.350 F7800.000
G1 X81.995 Y99.941 F7800.000
G1 E1.00000 F1800.000
G1 X105.481 Y80.672 E3.80981 F1080.000
G1 X106.398 Y80.121 E3.90874
G1 X118.304 Y74.067 E5.14417
G1 X121.600 Y73.277 E5.45765
G1 X222.500 Y73.277 E14.78998
G1 X225.796 Y74.067 E15.10346
G1 X238.440 Y80.553 E16.41778 F1080.000
G1 X239.373 Y81.251 E16.52562
G1 X240.202 Y82.061 E16.63277
G1 X240.918 Y82.971 E16.73990
G1 X241.509 Y83.967 E16.84701
G1 X241.965 Y85.033 E16.95421
G1 X242.032 Y85.231 E16.97356
G1 X242.355 Y86.617 E17.10523
G1 X242.407 Y87.014 E17.14226
G1 X242.471 Y87.977 E17.23154
G1 X242.471 Y171.542 E24.96050
G1 X242.074 Y173.912 E25.18280
G1 X240.926 Y176.024 E25.40511
G1 X239.815 Y177.161 E25.55207
G1 X195.559 Y213.512 E30.84915
G1 X180.510 Y225.196 E32.61135
G1 X178.394 Y226.335 E32.83366
G1 X176.051 Y226.723 E33.05331
G1 X79.849 Y226.723 E41.95104
G1 X77.479 Y226.326 E42.17334
G1 X75.390 Y225.196 E42.39300
G1 X60.341 Y213.512 E44.15520
G1 X58.712 Y211.744 E44.37750
G1 X57.748 Y209.542 E44.59981
G1 X57.529 Y207.768 E44.76515
G1 X57.591 Y123.254 E52.58190
G1 X57.645 Y122.843 E52.62023
G1 X57.969 Y121.455 E52.75205
G1 X58.035 Y121.260 E52.77111
G1 X58.490 Y120.197 E52.87813
G1 X58.967 Y119.370 E52.96637
G1 X59.661 Y118.443 E53.07349
G1 X60.468 Y117.616 E53.18036
G1 X81.948 Y99.979 E55.75098
G1 X82.397 Y100.432 F7800.000
G1 X105.834 Y81.201 E58.55504 F1080.000
G1 X106.686 Y80.688 E58.64699
G1 X118.592 Y74.633 E59.88242
G1 X121.600 Y73.912 E60.16850
G1 X222.500 Y73.912 E69.50083
G1 X225.508 Y74.633 E69.78691
G1 X238.099 Y81.090 E71.09566 F1080.000
G1 X238.954 Y81.729 E71.19441
G1 X239.724 Y82.480 E71.29387
G1 X240.389 Y83.324 E71.39331
G1 X240.501 Y83.492 E71.41194
G1 X240.938 Y84.249 E71.49277
G1 X241.363 Y85.237 E71.59227
G1 X241.430 Y85.435 E71.61161
G1 X241.725 Y86.700 E71.73178
G1 X241.777 Y87.097 E71.76880
G1 X241.836 Y87.977 E71.85039
G1 X241.836 Y171.542 E79.57935
G1 X241.439 Y173.803 E79.79165
G1 X240.295 Y175.793 E80.00394
G1 X239.412 Y176.669 E80.11903
G1 X195.169 Y213.009 E85.41450
G1 X180.120 Y224.693 E87.17670
G1 X178.091 Y225.766 E87.38899
G1 X176.051 Y226.088 E87.58001
G1 X79.849 Y226.088 E96.47773
G1 X77.589 Y225.691 E96.69003
G1 X75.780 Y224.693 E96.88105
G1 X60.731 Y213.009 E98.64325
G1 X59.188 Y211.309 E98.85554
G1 X58.318 Y209.186 E99.06784
G1 X58.164 Y207.768 E99.19973
G1 X58.221 Y123.337 E107.00881
G1 X58.275 Y122.926 E107.04714
G1 X58.571 Y121.660 E107.16744
G1 X58.637 Y121.465 E107.18645
G1 X59.060 Y120.478 E107.28579
G1 X59.495 Y119.723 E107.36637
G1 X60.139 Y118.862 E107.46581
G1 X60.887 Y118.094 E107.56501
G1 X82.351 Y100.470 E110.13367
G1 F1800.000 E109.13367
G92 E0
G1 X82.386 Y112.642 F7800.000
G1 E1.00000 F1800.000
G1 X83.587 Y113.843 E1.15701 F1080.000
G1 X84.113 Y113.843 E1.20572
G1 X85.314 Y112.642 E1.36273
G1 X91.911 Y112.642 E1.97295
G1 X94.332 Y115.063 E2.28952
G1 X94.332 Y118.112 E2.57157
G1 X94.704 Y118.484 E2.62027
G1 X101.447 Y118.484 E3.24397
G1 X101.716 Y118.502 E3.26890
G1 X102.464 Y118.600 E3.33871
G1 X102.861 Y118.693 E3.37638
G1 X103.377 Y118.868 E3.42674
G1 X103.628 Y118.972 E3.45187
G1 X104.286 Y119.317 E3.52061
G1 X104.903 Y119.750 E3.59030
G1 X105.261 Y120.064 E3.63435
G1 X105.637 Y120.440 E3.68352
G1 X106.163 Y120.440 E3.73222
G1 X106.538 Y120.065 E3.78130
G1 X106.900 Y119.748 E3.82573
G1 X107.510 Y119.319 E3.89476
G1 X107.872 Y119.121 E3.93288
G1 X108.422 Y118.869 E3.98882
G1 X108.941 Y118.692 E4.03960
G1 X109.338 Y118.600 E4.07726
G1 X110.082 Y118.502 E4.14669
G1 X110.352 Y118.484 E4.17171
G1 X117.096 Y118.484 E4.79546
G1 X117.468 Y118.112 E4.84416
G1 X117.468 Y115.063 E5.12621
G1 X119.615 Y112.917 E5.40692
G1 X119.605 Y112.376 E5.45689
G1 X114.855 Y107.962 E6.05663
G1 X114.166 Y106.383 E6.21594
G1 X114.166 Y103.594 E6.47394
G1 X113.794 Y103.222 E6.52264
G1 X107.189 Y103.222 E7.13359
G1 X104.768 Y100.801 E7.45016
G1 X104.768 Y87.842 E8.64876
G1 X104.786 Y87.572 E8.67378
G1 X104.884 Y86.828 E8.74322
G1 X104.976 Y86.431 E8.78087
G1 X105.153 Y85.912 E8.83164
G1 X105.468 Y85.234 E8.90080
G1 X105.866 Y84.606 E8.96954
G1 X106.349 Y84.028 E9.03914
G1 X106.900 Y83.522 E9.10838
G1 X107.116 Y83.356 E9.13359
G1 X107.744 Y82.958 E9.20236
G1 X108.422 Y82.643 E9.27149
G1 X108.941 Y82.466 E9.32226
G1 X109.338 Y82.374 E9.35993
G1 X110.082 Y82.276 E9.42935
G1 X110.352 Y82.258 E9.45437
G1 X117.096 Y82.258 E10.07812
G1 X117.468 Y81.886 E10.12682
G1 X117.468 Y78.837 E10.40887
G1 X119.889 Y76.416 E10.72544
G1 X126.486 Y76.416 E11.33566
G1 X127.687 Y77.617 E11.49268
G1 X128.213 Y77.617 E11.54138 F1080.000
G1 X129.414 Y76.416 E11.69839
G1 X136.011 Y76.416 E12.30861
G1 X138.432 Y78.837 E12.62518
G1 X138.432 Y81.886 E12.90723
G1 X138.804 Y82.258 E12.95593
G1 X145.547 Y82.258 E13.57963
G1 X145.816 Y82.276 E13.60456
G1 X146.564 Y82.374 E13.67437
G1 X146.961 Y82.467 E13.71204
G1 X147.477 Y82.642 E13.76240
G1 X147.728 Y82.746 E13.78753
G1 X148.386 Y83.091 E13.85628
G1 X149.003 Y83.524 E13.92596
G1 X149.361 Y83.838 E13.97001
G1 X149.737 Y84.214 E14.01918
G1 X150.263 Y84.214 E14.06788
G1 X150.638 Y83.839 E14.11696
G1 X151.000 Y83.522 E14.16139
G1 X151.610 Y83.093 E14.23042
G1 X151.972 Y82.895 E14.26854
G1 X152.522 Y82.643 E14.32449
G1 X153.041 Y82.466 E14.37526
G1 X153.438 Y82.374 E14.41292
G1 X154.182 Y82.276 E14.48235
G1 X154.452 Y82.258 E14.50737
G1 X161.196 Y82.258 E15.13112
G1 X161.568 Y81.886 E15.17982
G1 X161.568 Y78.837 E15.46187
G1 X163.989 Y76.416 E15.77844
G1 X170.586 Y76.416 E16.38866
G1 X171.787 Y77.617 E16.54567
G1 X172.313 Y77.617 E16.59438
G1 X173.514 Y76.416 E16.75139
G1 X180.111 Y76.416 E17.36161
G1 X182.532 Y78.837 E17.67818
G1 X182.532 Y81.886 E17.96023
G1 X182.904 Y82.258 E18.00893
G1 X189.647 Y82.258 E18.63263
G1 X189.916 Y82.276 E18.65756
G1 X190.664 Y82.374 E18.72737
G1 X191.061 Y82.467 E18.76504
G1 X191.577 Y82.642 E18.81540
G1 X191.828 Y82.746 E18.84053
G1 X192.486 Y83.091 E18.90927
G1 X193.103 Y83.524 E18.97896
G1 X193.461 Y83.838 E19.02301
G1 X193.837 Y84.214 E19.07218
G1 X194.363 Y84.214 E19.12088
G1 X194.739 Y83.839 E19.16996
G1 X195.100 Y83.522 E19.21439
G1 X195.710 Y83.093 E19.28342
G1 X196.072 Y82.895 E19.32154
G1 X196.622 Y82.643 E19.37749
G1 X197.141 Y82.466 E19.42826
G1 X197.538 Y82.374 E19.46592
G1 X198.282 Y82.276 E19.53535
G1 X198.552 Y82.258 E19.56037
G1 X205.296 Y82.258 E20.18412
G1 X205.668 Y81.886 E20.23282
G1 X205.668 Y78.837 E20.51487
G1 X208.089 Y76.416 E20.83144
G1 X214.686 Y76.416 E21.44166
G1 X215.887 Y77.617 E21.59867
G1 X216.413 Y77.617 E21.64738
G1 X217.614 Y76.416 E21.80439
G1 X224.211 Y76.416 E22.41461
G1 X226.632 Y78.837 E22.73118
G1 X226.632 Y81.886 E23.01323
G1 X227.004 Y82.258 E23.06193
G1 X233.747 Y82.258 E23.68563
G1 X234.016 Y82.276 E23.71056
G1 X234.765 Y82.374 E23.78037
G1 X235.161 Y82.467 E23.81804
G1 X235.677 Y82.642 E23.86840
G1 X236.354 Y82.957 E23.93745
G1 X236.707 Y83.171 E23.97565
G1 X237.203 Y83.524 E24.03194
G1 X237.752 Y84.029 E24.10099
G1 X238.232 Y84.603 E24.17014
G1 X238.498 Y85.001 E24.21445
G1 X238.844 Y85.663 E24.28351
G1 X239.124 Y86.431 E24.35917
G1 X239.216 Y86.826 E24.39667
G1 X239.314 Y87.572 E24.46627
G1 X239.332 Y87.842 E24.49128
G1 X239.332 Y100.801 E25.68988
G1 X236.911 Y103.222 E26.00644
G1 X230.306 Y103.222 E26.61739
G1 X229.934 Y103.594 E26.66609
G1 X229.934 Y106.383 E26.92409
G1 X229.245 Y107.962 E27.08340
G1 X224.495 Y112.376 E27.68315
G1 X224.485 Y112.917 E27.73312
G1 X226.632 Y115.063 E28.01383
G1 X226.632 Y118.112 E28.29588
G1 X227.004 Y118.484 E28.34458
G1 X233.747 Y118.484 E28.96828
G1 X234.016 Y118.502 E28.99320
G1 X234.765 Y118.600 E29.06302
G1 X235.161 Y118.693 E29.10069
G1 X235.928 Y118.972 E29.17614
G1 X236.586 Y119.317 E29.24488
G1 X236.987 Y119.584 E29.28949
G1 X237.203 Y119.750 E29.31460
G1 X237.752 Y120.255 E29.38365
G1 X238.232 Y120.829 E29.45280
G1 X238.498 Y121.227 E29.49711
G1 X238.844 Y121.889 E29.56617
G1 X239.124 Y122.657 E29.64183
G1 X239.216 Y123.052 E29.67933
G1 X239.314 Y123.798 E29.74893
G1 X239.332 Y124.068 E29.77394
G1 X239.332 Y137.027 E30.97254
G1 X236.911 Y139.448 E31.28910
G1 X230.306 Y139.448 E31.90005
G1 X229.934 Y139.820 E31.94875
G1 X229.934 Y142.609 E32.20675
G1 X229.245 Y144.188 E32.36606
G1 X224.495 Y148.602 E32.96581
G1 X224.485 Y149.143 E33.01578
G1 X226.632 Y151.289 E33.29649
G1 X226.632 Y154.338 E33.57854
G1 X227.004 Y154.710 E33.62724
G1 X233.747 Y154.710 E34.25094
G1 X234.016 Y154.728 E34.27586
G1 X234.765 Y154.826 E34.34568
G1 X235.161 Y154.919 E34.38335
G1 X235.928 Y155.198 E34.45880
G1 X236.586 Y155.543 E34.52754
G1 X236.987 Y155.810 E34.57215
G1 X237.203 Y155.976 E34.59726
G1 X237.752 Y156.481 E34.66631
G1 X238.232 Y157.055 E34.73546
G1 X238.498 Y157.453 E34.77977
G1 X238.844 Y158.115 E34.84883
G1 X239.124 Y158.883 E34.92449
G1 X239.216 Y159.278 E34.96199
G1 X239.314 Y160.024 E35.03159
G1 X239.332 Y160.294 E35.05660
G1 X239.332 Y173.253 E36.25520
G1 X236.911 Y175.674 E36.57176
G1 X230.306 Y175.674 E37.18271
G1 X229.934 Y176.046 E37.23141
G1 X229.934 Y178.835 E37.48941
G1 X229.245 Y180.414 E37.64872
G1 X222.390 Y186.785 E38.51433
G1 X220.933 Y187.358 E38.65908
G1 X211.367 Y187.358 E39.54386
G1 X209.910 Y186.785 E39.68862
G1 X203.055 Y180.414 E40.55422
G1 X202.366 Y178.835 E40.71353
G1 X202.366 Y176.046 E40.97153
G1 X201.994 Y175.674 E41.02023
G1 X195.389 Y175.674 E41.63118
G1 X194.363 Y174.648 E41.76530
G1 X193.837 Y174.648 E41.81401
G1 X192.811 Y175.674 E41.94813
G1 X186.206 Y175.674 E42.55908
G1 X185.834 Y176.046 E42.60778
G1 X185.834 Y178.835 E42.86578
G1 X185.145 Y180.414 E43.02509
G1 X180.395 Y184.828 E43.62483
G1 X180.385 Y185.369 E43.67480
G1 X182.532 Y187.515 E43.95551
G1 X182.532 Y190.564 E44.23756
G1 X182.904 Y190.937 E44.28626
G1 X189.647 Y190.937 E44.90997
G1 X189.916 Y190.954 E44.93489
G1 X190.664 Y191.053 E45.00470
G1 X191.061 Y191.145 E45.04237
G1 X191.577 Y191.320 E45.09273
G1 X192.254 Y191.635 E45.16178
G1 X192.607 Y191.849 E45.19998
G1 X193.103 Y192.202 E45.25628
G1 X193.652 Y192.707 E45.32532
G1 X194.132 Y193.281 E45.39447
G1 X194.398 Y193.679 E45.43878
G1 X194.744 Y194.341 E45.50784
G1 X195.024 Y195.109 E45.58350
G1 X195.116 Y195.504 E45.62100
G1 X195.214 Y196.250 E45.69060
G1 X195.232 Y196.520 E45.71561
G1 X195.232 Y209.479 E46.91421
G1 X192.811 Y211.900 E47.23077
G1 X186.206 Y211.900 E47.84172
G1 X185.834 Y212.272 E47.89042
G1 X185.834 Y215.061 E48.14842
G1 X185.145 Y216.640 E48.30773
G1 X178.290 Y223.011 E49.17334
G1 X176.833 Y223.584 E49.31810
G1 X167.267 Y223.584 E50.20287
G1 X165.810 Y223.011 E50.34763
G1 X158.955 Y216.640 E51.21323
G1 X158.266 Y215.061 E51.37254
G1 X158.266 Y212.272 E51.63054
G1 X157.894 Y211.900 E51.67925
G1 X151.289 Y211.900 E52.29019
G1 X150.263 Y210.874 E52.42432
G1 X149.737 Y210.874 E52.47302
G1 X148.711 Y211.900 E52.60714
G1 X142.106 Y211.900 E53.21809
G1 X141.734 Y212.272 E53.26679
G1 X141.734 Y215.061 E53.52479
G1 X141.045 Y216.640 E53.68410
G1 X134.190 Y223.011 E54.54970
G1 X132.733 Y223.584 E54.69446
G1 X123.167 Y223.584 E55.57924
G1 X121.710 Y223.011 E55.72399
G1 X114.855 Y216.640 E56.58960
G1 X114.166 Y215.061 E56.74891
G1 X114.166 Y212.272 E57.00691
G1 X113.794 Y211.900 E57.05561
G1 X107.189 Y211.900 E57.66656
G1 X106.163 Y210.874 E57.80068
G1 X105.637 Y210.874 E57.84938
G1 X104.611 Y211.900 E57.98351
G1 X98.006 Y211.900 E58.59445
G1 X97.634 Y212.272 E58.64316
G1 X97.634 Y215.061 E58.90116
G1 X96.945 Y216.640 E59.06047
G1 X90.090 Y223.011 E59.92607
G1 X88.633 Y223.584 E60.07083
G1 X79.067 Y223.584 E60.95560
G1 X77.610 Y223.011 E61.10036
G1 X70.755 Y216.640 E61.96597
G1 X70.066 Y215.061 E62.12528
G1 X70.066 Y212.272 E62.38327
G1 X69.694 Y211.900 E62.43198
G1 X63.089 Y211.900 E63.04293
G1 X60.668 Y209.479 E63.35949
G1 X60.668 Y196.520 E64.55809
G1 X60.686 Y196.250 E64.58312
G1 X60.784 Y195.506 E64.65255
G1 X60.876 Y195.109 E64.69021
G1 X61.156 Y194.341 E64.76581
G1 X61.503 Y193.678 E64.83501
G1 X61.932 Y193.068 E64.90404
G1 X62.249 Y192.707 E64.94847
G1 X62.800 Y192.200 E65.01771
G1 X63.016 Y192.034 E65.04292
G1 X63.644 Y191.636 E65.11169
G1 X64.322 Y191.321 E65.18082
G1 X64.841 Y191.144 E65.23159
G1 X65.238 Y191.052 E65.26926
G1 X65.982 Y190.954 E65.33868
G1 X66.252 Y190.937 E65.36370
G1 X72.996 Y190.937 E65.98745
G1 X73.368 Y190.564 E66.03615
G1 X73.368 Y187.515 E66.31820
G1 X75.515 Y185.369 E66.59891
G1 X75.505 Y184.828 E66.64888
G1 X70.755 Y180.414 E67.24863
G1 X70.066 Y178.835 E67.40794
G1 X70.066 Y176.046 E67.66594
G1 X69.694 Y175.674 E67.71464
G1 X63.089 Y175.674 E68.32559
G1 X60.668 Y173.253 E68.64215
G1 X60.668 Y160.294 E69.84075
G1 X60.686 Y160.024 E69.86578
G1 X60.784 Y159.280 E69.93521
G1 X60.876 Y158.883 E69.97287
G1 X61.156 Y158.115 E70.04847
G1 X61.503 Y157.452 E70.11767
G1 X61.932 Y156.842 E70.18670
G1 X62.438 Y156.291 E70.25594
G1 X63.016 Y155.808 E70.32554
G1 X63.644 Y155.410 E70.39432
G1 X64.322 Y155.095 E70.46344
G1 X64.841 Y154.918 E70.51422
G1 X65.238 Y154.826 E70.55188
G1 X65.982 Y154.728 E70.62131
G1 X66.252 Y154.710 E70.64633
G1 X72.996 Y154.710 E71.27008
G1 X73.368 Y154.338 E71.31878
G1 X73.368 Y151.289 E71.60083
G1 X75.515 Y149.143 E71.88154
G1 X75.505 Y148.602 E71.93151
G1 X70.755 Y144.188 E72.53125
G1 X70.066 Y142.609 E72.69056
G1 X70.066 Y139.820 E72.94856
G1 X69.694 Y139.448 E72.99726
G1 X63.089 Y139.448 E73.60821
G1 X60.668 Y137.027 E73.92478
G1 X60.668 Y124.068 E75.12338
G1 X60.686 Y123.798 E75.14840
G1 X60.784 Y123.054 E75.21784
G1 X60.876 Y122.657 E75.25549
G1 X61.156 Y121.889 E75.33110
G1 X61.503 Y121.226 E75.40029
G1 X61.932 Y120.616 E75.46933
G1 X62.438 Y120.065 E75.53857
G1 X63.016 Y119.582 E75.60817
G1 X63.644 Y119.184 E75.67694
G1 X64.322 Y118.869 E75.74607
G1 X64.841 Y118.692 E75.79684
G1 X65.238 Y118.600 E75.83451
G1 X65.982 Y118.502 E75.90394
G1 X66.252 Y118.484 E75.92895
G1 X72.996 Y118.484 E76.55270
G1 X73.368 Y118.112 E76.60141
G1 X73.368 Y115.063 E76.88346
G1 X75.789 Y112.642 E77.20002
G1 X82.326 Y112.642 E77.80470
G1 F1800.000 E76.80470
G92 E0
G1 X76.541 Y148.698 F7800.000
G1 E1.00000 F1800.000
G1 X71.284 Y143.813 E1.66370 F1080.000
G1 X70.702 Y142.477 E1.79850
G1 X70.702 Y139.184 E2.10304
G1 X70.330 Y138.812 E2.15174
G1 X63.352 Y138.812 E2.79712
G1 X61.304 Y136.764 E3.06499
G1 X61.304 Y124.089 E4.23731
G1 X61.410 Y123.168 E4.32311
G1 X61.488 Y122.832 E4.35497
G1 X61.735 Y122.152 E4.42189
G1 X62.043 Y121.562 E4.48340
G1 X62.424 Y121.019 E4.54477
G1 X62.713 Y120.689 E4.58531
G1 X63.203 Y120.240 E4.64685
G1 X63.386 Y120.099 E4.66818
G1 X63.944 Y119.744 E4.72933
G1 X64.336 Y119.551 E4.76977
G1 X65.016 Y119.304 E4.83669
G1 X65.352 Y119.226 E4.86856
G1 X66.273 Y119.120 E4.95434
G1 X73.632 Y119.120 E5.63495
G1 X74.004 Y118.748 E5.68366
G1 X74.004 Y115.326 E6.00014
G1 X76.052 Y113.278 E6.26801
G1 X82.123 Y113.278 E6.82953
G1 X83.587 Y114.742 E7.02098
G1 X84.113 Y114.742 E7.06968
G1 X85.577 Y113.278 E7.26113
G1 X91.648 Y113.278 E7.82266
G1 X93.696 Y115.326 E8.09052
G1 X93.696 Y118.748 E8.40701
G1 X94.068 Y119.120 E8.45571
G1 X101.426 Y119.120 E9.13628
G1 X102.350 Y119.227 E9.22231
G1 X102.686 Y119.305 E9.25418
G1 X103.365 Y119.551 E9.32098
G1 X103.951 Y119.857 E9.38210
G1 X104.317 Y120.101 E9.42280
G1 X104.499 Y120.241 E9.44405
G1 X104.988 Y120.690 E9.50543
G1 X105.275 Y121.017 E9.54566
G1 X105.587 Y121.423 E9.59304
G1 X106.214 Y121.423 E9.65104
G1 X106.524 Y121.019 E9.69813
G1 X106.813 Y120.689 E9.73868
G1 X107.303 Y120.240 E9.80022
G1 X107.486 Y120.099 E9.82155
G1 X108.044 Y119.744 E9.88269
G1 X108.436 Y119.551 E9.92314
G1 X109.116 Y119.304 E9.99005
G1 X109.452 Y119.226 E10.02192
G1 X110.373 Y119.120 E10.10770
G1 X117.732 Y119.120 E10.78832
G1 X118.104 Y118.748 E10.83702
G1 X118.104 Y115.326 E11.15351
G1 X120.152 Y113.278 E11.42137
G1 X120.324 Y113.278 E11.43729
G1 X120.641 Y112.472 E11.51742
