; generated by Slic3r 1.1.7 on 2014-11-29 at 02:40:30

; perimeters extrusion width = 0.40mm
; infill extrusion width = 0.42mm
; solid infill extrusion width = 0.42mm
; top infill extrusion width = 0.42mm
; support material extrusion width = 0.40mm

G21 ; set units to millimeters
M104 S190 ; set temperature
G28
G29
G1 Z5 F5000 ; lift nozzle

M109 S190 ; wait for temperature to be reached
G90 ; use absolute coordinates
G92 E0
M82 ; use absolute distances for extrusion
M204 S1500
G1 F1800.000 E-1.00000
G92 E0
G1 Z0.350 F7800.000
G1 X98.572 Y103.131 F7800.000
G1 E1.00000 F1800.000
G1 X99.487 Y102.411 E1.10772 F1080.000
G1 X100.481 Y101.821 E1.21469
G1 X101.551 Y101.363 E1.32228
G1 X102.668 Y101.049 E1.42965
G1 X102.874 Y101.008 E1.44902
G1 X104.292 Y100.869 E1.58083
G1 X195.708 Y100.869 E10.03596
G1 X197.119 Y101.007 E10.16713
G1 X198.251 Y101.295 E10.27513 F1080.000
G1 X199.327 Y101.727 E10.38240
G1 X200.333 Y102.291 E10.48902
G1 X201.268 Y102.990 E10.59702
G1 X202.098 Y103.801 E10.70437
G1 X202.815 Y104.712 E10.81159
G1 X203.407 Y105.711 E10.91898
G1 X203.499 Y105.898 E10.93830
G1 X203.931 Y106.977 E11.04579
G1 X204.255 Y108.364 E11.17748
G1 X204.371 Y109.727 E11.30403
G1 X204.371 Y184.494 E18.21930
G1 X203.974 Y186.865 E18.44160
G1 X203.319 Y188.261 E18.58424
G1 X198.907 Y195.461 E19.36530
G1 X198.644 Y195.804 E19.40521
G1 X197.303 Y197.145 E19.58062
G1 X196.961 Y197.408 E19.62056
G1 X195.317 Y198.357 E19.79612
G1 X194.919 Y198.522 E19.83599
G1 X193.086 Y199.013 E20.01151
G1 X191.709 Y199.131 E20.13933
G1 X107.342 Y199.069 E27.94250
G1 X106.915 Y199.013 E27.98236
G1 X105.083 Y198.522 E28.15775
G1 X104.683 Y198.357 E28.19780
G1 X103.039 Y197.408 E28.37334
G1 X102.697 Y197.145 E28.41321
G1 X101.355 Y195.803 E28.58876
G1 X100.642 Y194.802 E28.70250
G1 X96.681 Y188.261 E29.40974
G1 X95.792 Y186.028 E29.63204
G1 X95.629 Y184.494 E29.77468
G1 X95.691 Y108.778 E36.77771
G1 X95.745 Y108.364 E36.81637
G1 X96.069 Y106.975 E36.94825
G1 X96.500 Y105.899 E37.05550
G1 X96.592 Y105.712 E37.07474
G1 X97.069 Y104.887 E37.16292
G1 X97.764 Y103.959 E37.27011
G1 X98.529 Y103.174 E37.37155
G1 X98.991 Y103.609 F7800.000
G1 X99.840 Y102.940 E37.47154 F1080.000
G1 X100.763 Y102.391 E37.57085
G1 X101.755 Y101.965 E37.67073
G1 X102.792 Y101.673 E37.77040
G1 X102.998 Y101.632 E37.78977
G1 X104.292 Y101.504 E37.91006
G1 X195.708 Y101.504 E46.36519
G1 X196.996 Y101.630 E46.48490
G1 X198.046 Y101.897 E46.58515 F1080.000
G1 X199.046 Y102.297 E46.68473
G1 X199.980 Y102.819 E46.78372
G1 X200.849 Y103.468 E46.88397
G1 X201.620 Y104.220 E46.98362
G1 X202.286 Y105.066 E47.08317
G1 X202.837 Y105.992 E47.18286
G1 X203.262 Y106.981 E47.28242
G1 X203.329 Y107.181 E47.30197
G1 X203.624 Y108.447 E47.42215
G1 X203.736 Y109.727 E47.54101
G1 X203.736 Y184.494 E54.45628
G1 X203.339 Y186.755 E54.66857
G1 X202.776 Y187.932 E54.78923
G1 X198.403 Y195.074 E55.56383
G1 X198.140 Y195.417 E55.60374
G1 X196.916 Y196.641 E55.76382
G1 X196.574 Y196.903 E55.80375
G1 X195.074 Y197.769 E55.96397
G1 X194.676 Y197.934 E56.00383
G1 X193.003 Y198.383 E56.16401
G1 X191.709 Y198.496 E56.28414
G1 X107.425 Y198.439 E64.07963
G1 X106.998 Y198.383 E64.11950
G1 X105.326 Y197.935 E64.27955
G1 X104.926 Y197.769 E64.31959
G1 X103.426 Y196.903 E64.47978
G1 X103.084 Y196.641 E64.51965
G1 X101.859 Y195.416 E64.67985
G1 X101.186 Y194.472 E64.78713
G1 X97.224 Y187.932 E65.49437
G1 X96.393 Y185.792 E65.70667
G1 X96.264 Y184.494 E65.82733
G1 X96.321 Y108.861 E72.82269
G1 X96.376 Y108.447 E72.86134
G1 X96.671 Y107.180 E72.98169
G1 X97.070 Y106.180 E73.08126
G1 X97.162 Y105.994 E73.10046
G1 X97.597 Y105.240 E73.18099
G1 X98.242 Y104.378 E73.28050
G1 X98.948 Y103.651 E73.37427
G1 F1800.000 E72.37427
G92 E0
G1 X100.643 Y105.490 F7800.000
G1 E1.00000 F1800.000
G1 X101.121 Y105.095 E1.05742 F1080.000
G1 X101.517 Y104.831 E1.10144
G1 X102.183 Y104.483 E1.17087
G1 X102.888 Y104.225 E1.24034
G1 X103.152 Y104.154 E1.26562
G1 X103.685 Y104.048 E1.31591
G1 X104.089 Y104.008 E1.35345
G1 X120.760 Y104.008 E2.89534
G1 X121.162 Y104.048 E2.93269
G1 X121.964 Y104.225 E3.00867 F1080.000
G1 X122.419 Y104.380 E3.05312
G1 X123.097 Y104.694 E3.12226
G1 X123.732 Y105.097 E3.19182
G1 X123.948 Y105.263 E3.21697
G1 X124.307 Y105.578 E3.26116
G1 X124.687 Y105.958 E3.31085
G1 X125.213 Y105.958 E3.35955
G1 X125.592 Y105.579 E3.40913
G1 X126.171 Y105.095 E3.47894
G1 X126.801 Y104.696 E3.54785
G1 X127.233 Y104.483 E3.59240
G1 X127.938 Y104.225 E3.66186
G1 X128.202 Y104.154 E3.68714
G1 X128.735 Y104.048 E3.73743
G1 X129.139 Y104.008 E3.77497
G1 X145.810 Y104.008 E5.31686
G1 X146.212 Y104.048 E5.35422
G1 X146.752 Y104.155 E5.40517
G1 X147.469 Y104.380 E5.47465
G1 X147.721 Y104.484 E5.49988
G1 X148.380 Y104.829 E5.56862
G1 X148.782 Y105.097 E5.61339
G1 X149.357 Y105.578 E5.68269
G1 X149.737 Y105.958 E5.73237
G1 X150.263 Y105.958 E5.78108
G1 X150.642 Y105.579 E5.83065
G1 X151.005 Y105.261 E5.87527
G1 X151.221 Y105.095 E5.90051
G1 X151.851 Y104.696 E5.96942
G1 X152.283 Y104.483 E6.01396
G1 X152.988 Y104.225 E6.08343
G1 X153.785 Y104.048 E6.15896
G1 X154.189 Y104.008 E6.19650
G1 X170.860 Y104.008 E7.73839
G1 X171.262 Y104.048 E7.77574
G1 X171.802 Y104.155 E7.82669
G1 X172.519 Y104.380 E7.89617
G1 X172.771 Y104.484 E7.92141
G1 X173.430 Y104.829 E7.99014
G1 X173.832 Y105.097 E8.03491
G1 X174.407 Y105.578 E8.10421
G1 X174.787 Y105.958 E8.15390
G1 X175.313 Y105.958 E8.20260
G1 X175.692 Y105.579 E8.25218
G1 X176.055 Y105.261 E8.29680
G1 X176.271 Y105.095 E8.32203
G1 X176.901 Y104.696 E8.39094
G1 X177.333 Y104.483 E8.43549
G1 X178.038 Y104.225 E8.50495
G1 X178.835 Y104.048 E8.58048
G1 X179.239 Y104.008 E8.61803
G1 X195.910 Y104.008 E10.15991
G1 X196.312 Y104.048 E10.19727
G1 X197.114 Y104.225 E10.27324
G1 X197.569 Y104.380 E10.31770
G1 X198.247 Y104.694 E10.38684
G1 X198.882 Y105.097 E10.45640
G1 X199.098 Y105.263 E10.48155
G1 X199.457 Y105.578 E10.52574
G1 X199.963 Y106.128 E10.59490
G1 X200.129 Y106.344 E10.62004
G1 X200.531 Y106.978 E10.68951
G1 X200.847 Y107.659 E10.75894
G1 X201.023 Y108.178 E10.80961
G1 X201.115 Y108.573 E10.84711
G1 X201.441 Y111.044 E11.07765
G1 X198.972 Y113.859 E11.42393
G1 X197.755 Y113.859 E11.53646
G1 X197.376 Y114.292 E11.58973
G1 X197.491 Y115.171 E11.67175
G1 X197.491 Y115.713 E11.72187
G1 X197.364 Y116.678 E11.81188
G1 X197.224 Y117.201 E11.86194
G1 X196.852 Y118.099 E11.95184
G1 X196.611 Y118.517 E11.99652
G1 X196.823 Y119.080 E12.05212
G1 X197.569 Y119.333 E12.12503
G1 X198.247 Y119.648 E12.19417
G1 X198.882 Y120.051 E12.26374
G1 X199.098 Y120.216 E12.28889
G1 X199.457 Y120.531 E12.33307
G1 X199.963 Y121.082 E12.40224
G1 X200.396 Y121.697 E12.47180
G1 X200.744 Y122.364 E12.54141
G1 X201.023 Y123.131 E12.61690
G1 X201.115 Y123.526 E12.65441
G1 X201.441 Y125.997 E12.88495
G1 X198.972 Y128.812 E13.23123
G1 X197.755 Y128.812 E13.34375
G1 X197.376 Y129.245 E13.39703
G1 X197.491 Y130.124 E13.47905
G1 X197.491 Y130.666 E13.52917
G1 X197.364 Y131.631 E13.61918
G1 X197.224 Y132.154 E13.66924
G1 X196.852 Y133.052 E13.75914
G1 X196.611 Y133.470 E13.80382
G1 X196.823 Y134.033 E13.85942
G1 X197.569 Y134.286 E13.93233
G1 X198.247 Y134.601 E14.00147
G1 X198.882 Y135.004 E14.07103
G1 X199.098 Y135.170 E14.09618
G1 X199.457 Y135.485 E14.14037
G1 X199.963 Y136.035 E14.20953
G1 X200.396 Y136.650 E14.27909
G1 X200.744 Y137.317 E14.34871
G1 X201.023 Y138.085 E14.42420
G1 X201.115 Y138.479 E14.46171
G1 X201.441 Y140.951 E14.69225
G1 X198.972 Y143.766 E15.03853
G1 X197.755 Y143.766 E15.15105
G1 X197.376 Y144.199 E15.20433
G1 X197.491 Y145.078 E15.28635
G1 X197.491 Y145.620 E15.33646
G1 X197.364 Y146.585 E15.42648
G1 X197.224 Y147.107 E15.47654
G1 X196.852 Y148.005 E15.56644
G1 X196.611 Y148.424 E15.61112
G1 X196.823 Y148.986 E15.66672
G1 X197.569 Y149.240 E15.73963
G1 X198.247 Y149.555 E15.80877
G1 X198.882 Y149.958 E15.87833
G1 X199.098 Y150.123 E15.90348
G1 X199.457 Y150.438 E15.94767
G1 X199.963 Y150.989 E16.01683
G1 X200.396 Y151.604 E16.08639
G1 X200.744 Y152.271 E16.15601
G1 X201.023 Y153.038 E16.23150
G1 X201.115 Y153.433 E16.26900
G1 X201.441 Y155.904 E16.49954
G1 X198.972 Y158.719 E16.84582
G1 X197.755 Y158.719 E16.95835
G1 X197.376 Y159.152 E17.01162
G1 X197.491 Y160.031 E17.09364
G1 X197.491 Y160.573 E17.14376
G1 X197.364 Y161.538 E17.23377
G1 X197.224 Y162.061 E17.28383
G1 X196.852 Y162.959 E17.37374
G1 X196.611 Y163.377 E17.41841
G1 X196.823 Y163.940 E17.47401
G1 X197.569 Y164.193 E17.54693
G1 X198.247 Y164.508 E17.61607
G1 X198.882 Y164.911 E17.68563
G1 X199.098 Y165.077 E17.71078
G1 X199.457 Y165.392 E17.75497
G1 X199.963 Y165.942 E17.82413
G1 X200.396 Y166.557 E17.89369
G1 X200.744 Y167.224 E17.96331
G1 X201.023 Y167.991 E18.03880
G1 X201.115 Y168.386 E18.07630
G1 X201.441 Y170.857 E18.30684
G1 X198.972 Y173.672 E18.65312
G1 X197.755 Y173.672 E18.76565
G1 X197.376 Y174.105 E18.81892
G1 X197.491 Y174.985 E18.90094
G1 X197.491 Y175.526 E18.95106
G1 X197.364 Y176.491 E19.04107
G1 X197.224 Y177.014 E19.09113
G1 X196.852 Y177.912 E19.18104
G1 X196.611 Y178.330 E19.22571
G1 X196.823 Y178.893 E19.28131
G1 X197.569 Y179.147 E19.35423
G1 X198.247 Y179.461 E19.42336
G1 X198.882 Y179.864 E19.49293
G1 X199.098 Y180.030 E19.51808
G1 X199.457 Y180.345 E19.56226
G1 X199.963 Y180.895 E19.63143
G1 X200.396 Y181.510 E19.70099
G1 X200.744 Y182.178 E19.77060
G1 X201.023 Y182.945 E19.84610
G1 X201.115 Y183.340 E19.88360
G1 X201.441 Y185.811 E20.11414
G1 X198.972 Y188.626 E20.46042
G1 X197.755 Y188.626 E20.57295
G1 X197.376 Y189.059 E20.62622
G1 X197.491 Y189.938 E20.70824
G1 X197.491 Y190.480 E20.75836
G1 X197.364 Y191.445 E20.84837
G1 X197.224 Y191.967 E20.89843
G1 X196.852 Y192.866 E20.98833
G1 X196.581 Y193.335 E21.03846
G1 X195.989 Y194.107 E21.12844
G1 X195.606 Y194.489 E21.17849
G1 X194.835 Y195.082 E21.26848
G1 X194.365 Y195.353 E21.31861
G1 X193.467 Y195.725 E21.40851
G1 X192.944 Y195.865 E21.45859
G1 X191.980 Y195.992 E21.54857
G1 X191.438 Y195.992 E21.59868
G1 X190.474 Y195.865 E21.68859
G1 X189.951 Y195.725 E21.73864
G1 X189.052 Y195.352 E21.82867
G1 X188.583 Y195.081 E21.87876
G1 X187.791 Y194.474 E21.97112
G1 X187.359 Y194.474 E22.01104
G1 X186.567 Y195.082 E22.10343
G1 X186.097 Y195.353 E22.15356
G1 X185.200 Y195.724 E22.24343
G1 X184.677 Y195.865 E22.29350
G1 X183.712 Y195.992 E22.38351
G1 X183.170 Y195.992 E22.43361
G1 X182.206 Y195.865 E22.52352
G1 X181.684 Y195.725 E22.57356
G1 X180.784 Y195.352 E22.66360
G1 X180.315 Y195.081 E22.71370
G1 X179.544 Y194.490 E22.80363
G1 X179.161 Y194.107 E22.85372
G1 X178.569 Y193.335 E22.94366
G1 X178.298 Y192.866 E22.99377
G1 X177.926 Y191.967 E23.08379
G1 X177.786 Y191.444 E23.13385
G1 X177.659 Y190.480 E23.22374
G1 X177.659 Y189.939 E23.27386
G1 X177.774 Y189.059 E23.35593
G1 X177.395 Y188.626 E23.40921
G1 X176.178 Y188.626 E23.52173
G1 X175.338 Y187.668 E23.63957
G1 X174.762 Y187.668 E23.69285
G1 X173.922 Y188.626 E23.81069
G1 X172.705 Y188.626 E23.92321
G1 X172.326 Y189.059 E23.97649
G1 X172.441 Y189.938 E24.05851
G1 X172.441 Y190.480 E24.10862
G1 X172.314 Y191.445 E24.19864
G1 X172.174 Y191.967 E24.24870
G1 X171.802 Y192.866 E24.33860
G1 X171.531 Y193.335 E24.38873
G1 X170.939 Y194.107 E24.47871
G1 X170.556 Y194.489 E24.52876
G1 X169.785 Y195.082 E24.61875
G1 X169.315 Y195.353 E24.66887
G1 X168.417 Y195.725 E24.75877
G1 X167.894 Y195.865 E24.80886
G1 X166.930 Y195.992 E24.89884
G1 X166.388 Y195.992 E24.94894
G1 X165.424 Y195.865 E25.03886
G1 X164.901 Y195.725 E25.08891
G1 X164.002 Y195.352 E25.17893
G1 X163.533 Y195.081 E25.22903
G1 X162.741 Y194.474 E25.32139
G1 X162.309 Y194.474 E25.36130
G1 X161.517 Y195.082 E25.45370
G1 X161.047 Y195.353 E25.50383
G1 X160.150 Y195.724 E25.59370
G1 X159.627 Y195.865 E25.64376
G1 X158.662 Y195.992 E25.73377
G1 X158.120 Y195.992 E25.78387
G1 X157.156 Y195.865 E25.87378
G1 X156.634 Y195.725 E25.92383
G1 X155.734 Y195.352 E26.01387
G1 X155.265 Y195.081 E26.06396
G1 X154.494 Y194.490 E26.15390
G1 X154.111 Y194.107 E26.20398
G1 X153.519 Y193.335 E26.29392
G1 X153.248 Y192.866 E26.34404
G1 X152.876 Y191.967 E26.43405
G1 X152.736 Y191.444 E26.48411
G1 X152.609 Y190.480 E26.57401
G1 X152.609 Y189.939 E26.62412
G1 X152.724 Y189.059 E26.70620
G1 X152.345 Y188.626 E26.75947
G1 X151.128 Y188.626 E26.87200
G1 X150.288 Y187.668 E26.98984
G1 X149.712 Y187.668 E27.04311
G1 X148.872 Y188.626 E27.16095
G1 X147.655 Y188.626 E27.27348
G1 X147.276 Y189.059 E27.32675
G1 X147.391 Y189.938 E27.40877
G1 X147.391 Y190.480 E27.45889
G1 X147.264 Y191.445 E27.54890
G1 X147.124 Y191.967 E27.59896
G1 X146.752 Y192.866 E27.68887
G1 X146.481 Y193.335 E27.73899
G1 X145.889 Y194.107 E27.82898
G1 X145.506 Y194.489 E27.87902
G1 X144.735 Y195.082 E27.96901
G1 X144.265 Y195.353 E28.01914
G1 X143.367 Y195.725 E28.10904
G1 X142.844 Y195.865 E28.15912
G1 X141.880 Y195.992 E28.24910
G1 X141.338 Y195.992 E28.29921
G1 X140.374 Y195.865 E28.38912
G1 X139.851 Y195.725 E28.43917
G1 X138.952 Y195.352 E28.52920
G1 X138.483 Y195.081 E28.57929
G1 X137.691 Y194.474 E28.67165
G1 X137.259 Y194.474 E28.71157
G1 X136.467 Y195.082 E28.80396
G1 X135.997 Y195.353 E28.85409
G1 X135.100 Y195.724 E28.94396
G1 X134.577 Y195.865 E28.99403
G1 X133.612 Y195.992 E29.08404
G1 X133.070 Y195.992 E29.13414
G1 X132.106 Y195.865 E29.22405
G1 X131.584 Y195.725 E29.27409
G1 X130.684 Y195.352 E29.36413
G1 X130.215 Y195.081 E29.41423
G1 X129.444 Y194.490 E29.50416
G1 X129.061 Y194.107 E29.55425
G1 X128.469 Y193.335 E29.64419
G1 X128.198 Y192.866 E29.69430
G1 X127.826 Y191.967 E29.78432
G1 X127.686 Y191.444 E29.83438
G1 X127.559 Y190.480 E29.92427
G1 X127.559 Y189.939 E29.97439
G1 X127.674 Y189.059 E30.05646
G1 X127.295 Y188.626 E30.10974
G1 X126.078 Y188.626 E30.22226
G1 X125.238 Y187.668 E30.34010
G1 X124.662 Y187.668 E30.39338
G1 X123.822 Y188.626 E30.51122
G1 X122.605 Y188.626 E30.62374
G1 X122.226 Y189.059 E30.67702
G1 X122.341 Y189.938 E30.75904
G1 X122.341 Y190.480 E30.80915
G1 X122.214 Y191.445 E30.89917
G1 X122.074 Y191.967 E30.94923
G1 X121.702 Y192.866 E31.03913
G1 X121.431 Y193.335 E31.08926
G1 X120.839 Y194.107 E31.17924
G1 X120.456 Y194.489 E31.22929
G1 X119.685 Y195.082 E31.31928
G1 X119.215 Y195.353 E31.36940
G1 X118.317 Y195.725 E31.45931
G1 X117.794 Y195.865 E31.50939
G1 X116.830 Y195.992 E31.59937
G1 X116.288 Y195.992 E31.64947
G1 X115.324 Y195.865 E31.73939
G1 X114.801 Y195.725 E31.78944
G1 X113.902 Y195.352 E31.87946
G1 X113.433 Y195.081 E31.92956
G1 X112.641 Y194.474 E32.02192
G1 X112.209 Y194.474 E32.06183
G1 X111.417 Y195.082 E32.15423
G1 X110.947 Y195.353 E32.20436
G1 X110.050 Y195.724 E32.29423
G1 X109.527 Y195.865 E32.34429
G1 X109.246 Y195.902 E32.37047
G1 X108.562 Y195.992 E32.43430
G1 X108.020 Y195.992 E32.48440
G1 X107.056 Y195.865 E32.57431
G1 X106.534 Y195.725 E32.62436
G1 X106.273 Y195.617 E32.65050
G1 X105.634 Y195.352 E32.71440
G1 X105.165 Y195.081 E32.76449
G1 X104.394 Y194.490 E32.85443
G1 X104.011 Y194.107 E32.90452
G1 X103.419 Y193.335 E32.99445
G1 X103.148 Y192.866 E33.04457
G1 X102.776 Y191.967 E33.13458
G1 X102.636 Y191.444 E33.18464
G1 X102.509 Y190.480 E33.27454
G1 X102.509 Y189.939 E33.32465
G1 X102.624 Y189.059 E33.40673
G1 X102.245 Y188.626 E33.46000
G1 X101.028 Y188.626 E33.57253
G1 X98.560 Y185.811 E33.91880
G1 X98.885 Y183.339 E34.14936
G1 X98.977 Y182.944 E34.18693
G1 X99.256 Y182.176 E34.26252
G1 X99.605 Y181.510 E34.33202
G1 X99.869 Y181.114 E34.37602
G1 X100.260 Y180.641 E34.43281
G1 X100.542 Y180.346 E34.47059
G1 X100.905 Y180.028 E34.51521
G1 X101.121 Y179.862 E34.54044
G1 X101.751 Y179.463 E34.60935
G1 X102.433 Y179.146 E34.67890
G1 X103.177 Y178.893 E34.75165
G1 X103.389 Y178.330 E34.80726
G1 X103.148 Y177.913 E34.85189
G1 X102.776 Y177.013 E34.94190
G1 X102.636 Y176.491 E34.99196
G1 X102.509 Y175.527 E35.08186
G1 X102.509 Y174.985 E35.13197
G1 X102.624 Y174.105 E35.21405
G1 X102.245 Y173.672 E35.26732
G1 X101.028 Y173.672 E35.37985
G1 X98.560 Y170.858 E35.72612
G1 X98.885 Y168.386 E35.95668
G1 X98.977 Y167.990 E35.99425
G1 X99.256 Y167.222 E36.06984
G1 X99.605 Y166.557 E36.13934
G1 X99.869 Y166.161 E36.18334
G1 X100.260 Y165.688 E36.24014
G1 X100.542 Y165.392 E36.27791
G1 X100.905 Y165.074 E36.32253
G1 X101.121 Y164.908 E36.34776
