; generated by Slic3r 1.1.7 on 2014-11-30 at 02:47:55

; perimeters extrusion width = 0.40mm
; infill extrusion width = 0.42mm
; solid infill extrusion width = 0.42mm
; top infill extrusion width = 0.42mm

G21 ; set units to millimeters
M104 S190 ; set temperature
G28
G29
G1 Z5 F5000 ; lift nozzle

M109 S190 ; wait for temperature to be reached
G90 ; use absolute coordinates
G92 E0
M82 ; use absolute distances for extrusion
M204 S1500
G1 F1800.000 E-1.00000
G92 E0
G1 Z0.350 F7800.000
G1 X52.787 Y64.341 F7800.000
G1 E1.00000 F1800.000
G1 X70.912 Y49.471 E3.16832 F1080.000
G1 X71.910 Y48.879 E3.27564
G1 X72.982 Y48.421 E3.38348
G1 X74.090 Y48.110 E3.48991
G1 X74.299 Y48.069 E3.50962
G1 X75.717 Y47.929 E3.64146
G1 X224.283 Y47.929 E17.38245
G1 X225.702 Y48.069 E17.51429
G1 X226.826 Y48.356 E17.62160 F1080.000
G1 X227.902 Y48.787 E17.72885
G1 X228.914 Y49.355 E17.83621
G1 X229.664 Y49.899 E17.92187
G1 X273.941 Y86.275 E23.22196
G1 X274.773 Y87.087 E23.32945
G1 X275.490 Y87.999 E23.43674
G1 X276.082 Y88.997 E23.54406
G1 X276.538 Y90.063 E23.65136
G1 X276.606 Y90.262 E23.67073
G1 X276.929 Y91.650 E23.80257
G1 X277.046 Y93.013 E23.92915
G1 X277.046 Y201.691 E33.98088
G1 X276.649 Y204.062 E34.20319
G1 X275.103 Y206.640 E34.48122
G1 X270.693 Y211.381 E35.08007
G1 X267.832 Y214.193 E35.45110
G1 X223.732 Y250.419 E40.72968
G1 X221.648 Y251.616 E40.95199
G1 X219.116 Y252.071 E41.18988
G1 X80.884 Y252.071 E53.97517
G1 X78.513 Y251.674 E54.19748
G1 X76.268 Y250.419 E54.43537
G1 X31.642 Y213.715 E59.77956
G1 X29.121 Y211.187 E60.10978
G1 X24.897 Y206.640 E60.68382
G1 X23.575 Y204.633 E60.90613
G1 X22.954 Y201.691 E61.18416
G1 X23.016 Y92.064 E71.32367
G1 X23.071 Y91.650 E71.36236
G1 X23.394 Y90.262 E71.49419
G1 X23.825 Y89.185 E71.60147
G1 X24.394 Y88.173 E71.70879
G1 X24.507 Y88.003 E71.72770
G1 X25.089 Y87.245 E71.81612
G1 X25.900 Y86.415 E71.92344
G1 X52.741 Y64.379 E75.13542
G1 X53.189 Y64.831 F7800.000
G1 X71.265 Y50.000 E77.29799 F1080.000
G1 X72.191 Y49.450 E77.39761
G1 X73.186 Y49.023 E77.49777
G1 X74.214 Y48.733 E77.59654
G1 X74.423 Y48.692 E77.61621
G1 X75.717 Y48.564 E77.73653
G1 X224.283 Y48.564 E91.47752
G1 X225.578 Y48.692 E91.59784
G1 X226.621 Y48.957 E91.69745 F1080.000
G1 X227.621 Y49.357 E91.79702
G1 X228.561 Y49.884 E91.89669
G1 X229.261 Y50.390 E91.97655
G1 X273.522 Y86.753 E97.27476
G1 X274.295 Y87.506 E97.37455
G1 X274.961 Y88.352 E97.47415
G1 X275.512 Y89.278 E97.57378
G1 X275.937 Y90.268 E97.67339
G1 X276.004 Y90.466 E97.69276
G1 X276.299 Y91.733 E97.81308
G1 X276.411 Y93.013 E97.93196
G1 X276.411 Y201.691 E107.98370
G1 X276.014 Y203.952 E108.19600
G1 X274.637 Y206.207 E108.44036
G1 X270.243 Y210.931 E109.03704
G1 X267.428 Y213.701 E109.40234
G1 X223.328 Y249.927 E114.68092
G1 X221.330 Y251.056 E114.89321
G1 X219.116 Y251.436 E115.10090
G1 X80.884 Y251.436 E127.88618
G1 X78.623 Y251.039 E128.09848
G1 X76.672 Y249.927 E128.30616
G1 X32.091 Y213.266 E133.64462
G1 X29.587 Y210.755 E133.97267
G1 X25.363 Y206.207 E134.54671
G1 X24.115 Y204.281 E134.75901
G1 X23.589 Y201.691 E135.00337
G1 X23.646 Y92.147 E145.13521
G1 X23.701 Y91.733 E145.17389
G1 X23.996 Y90.466 E145.29420
G1 X24.396 Y89.466 E145.39379
G1 X24.922 Y88.526 E145.49342
G1 X25.036 Y88.356 E145.51232
G1 X25.567 Y87.664 E145.59307
G1 X26.319 Y86.892 E145.69269
G1 X53.143 Y64.869 E148.90274
G1 F1800.000 E147.90274
G92 E0
G1 X48.086 Y195.973 F7800.000
G1 E1.00000 F1800.000
G1 X48.491 Y196.013 E1.03762 F1080.000
G1 X49.027 Y196.119 E1.08818 F1080.000
G1 X49.743 Y196.343 E1.15753
G1 X50.423 Y196.659 E1.22692
G1 X50.658 Y196.795 E1.25196
G1 X51.270 Y197.225 E1.32123
G1 X51.632 Y197.542 E1.36570
G1 X52.047 Y197.988 E1.42203
G1 X52.304 Y198.309 E1.46007
G1 X52.571 Y198.709 E1.50453
G1 X52.918 Y199.373 E1.57386
G1 X53.198 Y200.141 E1.64945
G1 X53.290 Y200.536 E1.68701
G1 X53.616 Y203.008 E1.91758
G1 X51.147 Y205.823 E2.26387
G1 X49.567 Y205.823 E2.40996
G1 X49.191 Y206.225 E2.46093
G1 X49.296 Y207.837 E2.61031
G1 X44.314 Y212.819 E3.26199
G1 X40.578 Y212.574 E3.60828
G1 X40.063 Y211.903 E3.68649
G1 X39.437 Y211.903 E3.74447
G1 X38.922 Y212.574 E3.82267
G1 X35.186 Y212.819 E4.16896
G1 X30.204 Y207.837 E4.82065
G1 X30.309 Y206.225 E4.97002
G1 X29.932 Y205.823 E5.02100
G1 X28.353 Y205.823 E5.16708
G1 X25.884 Y203.008 E5.51336
G1 X26.210 Y200.536 E5.74395
G1 X26.302 Y200.141 E5.78149
G1 X26.582 Y199.373 E5.85714
G1 X26.929 Y198.708 E5.92648
G1 X27.196 Y198.309 E5.97091
G1 X27.676 Y197.734 E6.04018
G1 X27.869 Y197.542 E6.06535
G1 X28.444 Y197.061 E6.13466
G1 X28.843 Y196.794 E6.17905
G1 X29.077 Y196.659 E6.20410
G1 X29.756 Y196.344 E6.27334
G1 X30.472 Y196.120 E6.34266
G1 X31.010 Y196.012 E6.39346
G1 X31.414 Y195.973 E6.43100
G1 X48.026 Y195.973 E7.96748
G1 X48.055 Y196.608 F7800.000
G1 X48.398 Y196.642 E7.99931 F1080.000
G1 X49.104 Y196.798 E8.06626
G1 X49.730 Y197.026 E8.12786
G1 X50.123 Y197.220 E8.16843
G1 X50.322 Y197.335 E8.18961
G1 X50.867 Y197.717 E8.25120
G1 X51.197 Y198.006 E8.29181
G1 X51.648 Y198.498 E8.35349
G1 X51.964 Y198.944 E8.40411
G1 X52.145 Y199.242 E8.43635
G1 X52.427 Y199.847 E8.49801
G1 X52.586 Y200.316 E8.54383
G1 X52.664 Y200.650 E8.57561
G1 X52.948 Y202.805 E8.77665
G1 X50.859 Y205.187 E9.06967
G1 X48.889 Y205.187 E9.25189
G1 X48.512 Y205.590 E9.30287
G1 X48.643 Y207.591 E9.48837
G1 X44.068 Y212.166 E10.08678
G1 X40.907 Y211.959 E10.37979
G1 X40.063 Y210.859 E10.50798
G1 X39.437 Y210.859 E10.56597
G1 X38.593 Y211.959 E10.69415
G1 X35.432 Y212.166 E10.98716
G1 X30.857 Y207.591 E11.58558
G1 X30.988 Y205.590 E11.77108
G1 X30.611 Y205.187 E11.82205
G1 X28.641 Y205.187 E12.00427
G1 X26.552 Y202.806 E12.29728
G1 X26.836 Y200.650 E12.49833
G1 X26.914 Y200.316 E12.53010
G1 X27.074 Y199.846 E12.57601
G1 X27.355 Y199.242 E12.63758
G1 X27.469 Y199.044 E12.65877
G1 X27.852 Y198.498 E12.72047
G1 X28.303 Y198.006 E12.78221
G1 X28.632 Y197.717 E12.82269
G1 X29.179 Y197.335 E12.88438
G1 X29.377 Y197.220 E12.90558
G1 X29.981 Y196.939 E12.96714
G1 X30.396 Y196.798 E13.00772
G1 X31.104 Y196.642 E13.07474
G1 X31.386 Y196.614 E13.10096
G1 F1800.000 E12.10096
G92 E0
G1 X48.024 Y197.244 F7800.000
G1 E1.00000 F1800.000
G1 X48.304 Y197.271 E1.02605 F1080.000
G1 X48.920 Y197.407 E1.08434 F1080.000
G1 X49.468 Y197.605 E1.13826
G1 X49.986 Y197.875 E1.19228
G1 X50.464 Y198.209 E1.24620
G1 X50.762 Y198.471 E1.28295
G1 X51.156 Y198.901 E1.33693
G1 X51.491 Y199.380 E1.39096
G1 X51.760 Y199.898 E1.44492
G1 X51.974 Y200.491 E1.50321
G1 X52.038 Y200.764 E1.52921
G1 X52.280 Y202.603 E1.70073
G1 X50.571 Y204.552 E1.94047
G1 X48.210 Y204.552 E2.15883
G1 X47.833 Y204.954 E2.20980
G1 X47.990 Y207.345 E2.43144
G1 X43.823 Y211.513 E2.97657
G1 X41.236 Y211.343 E3.21631
G1 X40.063 Y209.815 E3.39448
G1 X39.437 Y209.815 E3.45246
G1 X38.264 Y211.343 E3.63062
G1 X35.677 Y211.513 E3.87036
G1 X31.510 Y207.345 E4.41550
G1 X31.667 Y204.954 E4.63714
G1 X31.290 Y204.552 E4.68811
G1 X28.929 Y204.552 E4.90646
G1 X27.220 Y202.603 E5.14619
G1 X27.462 Y200.764 E5.31772
G1 X27.526 Y200.491 E5.34372
G1 X27.669 Y200.070 E5.38480
G1 X27.915 Y199.542 E5.43869
G1 X28.344 Y198.901 E5.50999
G1 X28.738 Y198.470 E5.56402
G1 X29.036 Y198.209 E5.60066
G1 X29.677 Y197.781 E5.67195
G1 X30.205 Y197.534 E5.72585
G1 X30.581 Y197.406 E5.76257
G1 X31.197 Y197.271 E5.82092
G1 X31.477 Y197.244 E5.84691
G1 X47.964 Y197.244 E7.37182
G1 F1800.000 E6.37182
G92 E0
G1 X47.095 Y203.916 F7800.000
G1 E1.00000 F1800.000
G1 X46.803 Y204.779 E1.08426 F1080.000
G1 X47.205 Y205.088 E1.13120
G1 X47.337 Y207.099 E1.31766
G1 X43.577 Y210.860 E1.80952
G1 X41.565 Y210.728 E1.99598
G1 X40.600 Y209.470 E2.14257
G1 X40.454 Y209.218 E2.16954
G1 X40.175 Y208.543 E2.23716
G1 X39.325 Y208.543 E2.31572
G1 X39.045 Y209.218 E2.38337
G1 X38.900 Y209.471 E2.41033
G1 X37.935 Y210.728 E2.55690
G1 X35.923 Y210.860 E2.74336
G1 X32.163 Y207.099 E3.23522
G1 X32.295 Y205.088 E3.42168
G1 X32.697 Y204.779 E3.46862
G1 X32.405 Y203.916 E3.55288
G1 X29.217 Y203.916 E3.84770
G1 X27.888 Y202.400 E4.03416
G1 X28.088 Y200.878 E4.17616
G1 X28.138 Y200.665 E4.19638
G1 X28.319 Y200.160 E4.24605
G1 X28.549 Y199.716 E4.29232
G1 X28.747 Y199.420 E4.32519
G1 X29.069 Y199.038 E4.37143
G1 X29.439 Y198.701 E4.41776
G1 X29.850 Y198.415 E4.46406
G1 X30.295 Y198.185 E4.51033
G1 X30.765 Y198.015 E4.55662
G1 X31.290 Y197.901 E4.60631
G1 X31.508 Y197.879 E4.62652
G1 X47.992 Y197.879 E6.15120
G1 X48.210 Y197.901 E6.17146
G1 X48.735 Y198.015 E6.22110
G1 X49.205 Y198.185 E6.26734
G1 X49.524 Y198.342 E6.30020
G1 X50.060 Y198.700 E6.35989
G1 X50.431 Y199.038 E6.40622
G1 X50.753 Y199.420 E6.45251
G1 X50.951 Y199.716 E6.48539
G1 X51.181 Y200.160 E6.53166
G1 X51.362 Y200.665 E6.58130
G1 X51.412 Y200.878 E6.60153
G1 X51.612 Y202.400 E6.74352
G1 X50.283 Y203.916 E6.92999
G1 X47.155 Y203.916 E7.21926
G1 F1800.000 E6.21926
G92 E0
G1 X38.869 Y203.666 F7800.000
G1 E1.00000 F1800.000
G1 X38.856 Y207.462 E1.35114 F1080.000
G1 X38.773 Y208.145 E1.41469
G1 X38.719 Y208.346 E1.43396
G1 X38.474 Y208.936 E1.49310
G1 X38.370 Y209.117 E1.51236
G1 X37.606 Y210.112 E1.62844
G1 X36.169 Y210.207 E1.76162
G1 X32.816 Y206.854 E2.20022
G1 X32.910 Y205.417 E2.33340
G1 X33.896 Y204.660 E2.44833
G1 X34.027 Y204.394 E2.47575
G1 X34.027 Y203.653 E2.54433
G1 X33.655 Y203.281 E2.59303
G1 X29.505 Y203.281 E2.97685
G1 X28.556 Y202.198 E3.11003
G1 X28.714 Y200.992 E3.22251
G1 X28.859 Y200.518 E3.26833
G1 X29.089 Y200.051 E3.31649
G1 X29.264 Y199.791 E3.34550
G1 X29.533 Y199.473 E3.38406
G1 X29.925 Y199.129 E3.43229
G1 X30.186 Y198.955 E3.46128
G1 X30.557 Y198.764 E3.49987
G1 X31.050 Y198.597 E3.54802
G1 X31.539 Y198.515 E3.59387
G1 X47.961 Y198.515 E5.11277
G1 X48.449 Y198.597 E5.15856
G1 X48.943 Y198.764 E5.20674
G1 X49.314 Y198.955 E5.24536
G1 X49.657 Y199.192 E5.28392
G1 X49.893 Y199.399 E5.31294
G1 X50.173 Y199.708 E5.35154
G1 X50.411 Y200.052 E5.39017
G1 X50.601 Y200.423 E5.42875
G1 X50.750 Y200.840 E5.46974
G1 X50.786 Y200.992 E5.48419
G1 X50.944 Y202.198 E5.59666
G1 X49.995 Y203.281 E5.72985
G1 X45.845 Y203.281 E6.11366
G1 X45.473 Y203.653 E6.16237
G1 X45.473 Y204.394 E6.23095
G1 X45.604 Y204.660 E6.25836
G1 X46.590 Y205.417 E6.37330
G1 X46.684 Y206.854 E6.50648
G1 X43.331 Y210.207 E6.94507
G1 X41.894 Y210.112 E7.07826
G1 X41.130 Y209.117 E7.19436
G1 X41.026 Y208.936 E7.21361
G1 X40.781 Y208.346 E7.27273
G1 X40.727 Y208.145 E7.29200
G1 X40.644 Y207.462 E7.35555
G1 X40.631 Y203.666 E7.70670
G1 X40.261 Y203.295 E7.75513
G1 X39.239 Y203.295 E7.84972
G1 X38.911 Y203.624 E7.89261
G1 X38.233 Y203.664 F7800.000
G1 X38.220 Y207.440 E8.24187 F1080.000
G1 X38.148 Y208.020 E8.29595
G1 X38.116 Y208.141 E8.30751
G1 X37.903 Y208.655 E8.35894
G1 X37.840 Y208.763 E8.37049
G1 X37.277 Y209.497 E8.45609
G1 X36.415 Y209.554 E8.53600
G1 X33.469 Y206.608 E8.92132
G1 X33.526 Y205.746 E9.00123
G1 X34.260 Y205.182 E9.08683
G1 X34.492 Y205.048 E9.11166
G1 X34.663 Y204.753 E9.14317
G1 X34.663 Y203.017 E9.30371
G1 X34.290 Y202.645 E9.35241
G1 X29.793 Y202.645 E9.76838
G1 X29.223 Y201.995 E9.84829
G1 X29.362 Y201.015 E9.93986
G1 X29.478 Y200.685 E9.97222
G1 X29.629 Y200.387 E10.00312
G1 X29.818 Y200.112 E10.03403
G1 X30.042 Y199.863 E10.06495
G1 X30.296 Y199.646 E10.09584
G1 X30.522 Y199.495 E10.12099
G1 X30.820 Y199.343 E10.15189
G1 X31.195 Y199.216 E10.18853
G1 X31.570 Y199.151 E10.22378
G1 X47.930 Y199.151 E11.73690
G1 X48.365 Y199.232 E11.77788 F1080.000
G1 X48.680 Y199.343 E11.80877
G1 X48.924 Y199.464 E11.83392
G1 X49.254 Y199.684 E11.87057
G1 X49.458 Y199.863 E11.89573
G1 X49.682 Y200.112 E11.92664
G1 X49.902 Y200.441 E11.96331
G1 X50.046 Y200.743 E11.99421
G1 X50.138 Y201.015 E12.02079
G1 X50.277 Y201.995 E12.11237
G1 X49.707 Y202.645 E12.19228
G1 X45.210 Y202.645 E12.60825
G1 X44.837 Y203.017 E12.65695
G1 X44.837 Y204.753 E12.81749
G1 X45.008 Y205.048 E12.84899
G1 X45.240 Y205.182 E12.87384
G1 X45.974 Y205.746 E12.95943
G1 X46.031 Y206.608 E13.03934
G1 X43.085 Y209.554 E13.42466
G1 X42.223 Y209.497 E13.50457
G1 X41.660 Y208.763 E13.59018
G1 X41.597 Y208.655 E13.60173
G1 X41.384 Y208.141 E13.65315
G1 X41.352 Y208.020 E13.66471
G1 X41.280 Y207.440 E13.71879
G1 X41.266 Y203.217 E14.10937
G1 X41.211 Y203.038 E14.12671
G1 X41.120 Y202.907 E14.14148
G1 X41.021 Y202.808 E14.15443
G1 X40.890 Y202.717 E14.16921
G1 X40.711 Y202.662 E14.18652
G1 X38.789 Y202.662 E14.36421
G1 X38.610 Y202.717 E14.38152
G1 X38.512 Y202.782 E14.39246
G1 X38.380 Y202.907 E14.40923
G1 X38.289 Y203.038 E14.42400
G1 X38.234 Y203.217 E14.44134
G1 X38.233 Y203.604 E14.47711
G1 F1800.000 E13.47711
G92 E0
G1 X34.122 Y206.362 F7800.000
G1 E1.00000 F1800.000
G1 X34.141 Y206.075 E1.02664 F1080.000
G1 X34.614 Y205.712 E1.08175
G1 X35.084 Y205.511 E1.12905
G1 X35.298 Y205.191 E1.16471
G1 X35.298 Y202.382 E1.42451
G1 X34.926 Y202.009 E1.47321
G1 X30.081 Y202.009 E1.92133
G1 X29.891 Y201.793 E1.94797
G1 X29.966 Y201.220 E2.00139
G1 X30.057 Y200.948 E2.02796
G1 X30.169 Y200.723 E2.05117
G1 X30.297 Y200.532 E2.07247
G1 X30.477 Y200.327 E2.09761
G1 X30.650 Y200.175 E2.11890
G1 X30.858 Y200.035 E2.14212
G1 X31.101 Y199.915 E2.16725
G1 X31.339 Y199.835 E2.19046
G1 X31.601 Y199.786 E2.21512
G1 X47.899 Y199.786 E3.72245
G1 X48.161 Y199.835 E3.74710
G1 X48.418 Y199.923 E3.77224
G1 X48.642 Y200.035 E3.79546
G1 X48.850 Y200.175 E3.81866
G1 X49.023 Y200.327 E3.83997
G1 X49.190 Y200.515 E3.86318
G1 X49.331 Y200.723 E3.88640
G1 X49.443 Y200.948 E3.90961
G1 X49.526 Y201.190 E3.93331
G1 X49.609 Y201.793 E3.98960
G1 X49.419 Y202.009 E4.01624
G1 X44.574 Y202.009 E4.46436
G1 X44.202 Y202.382 E4.51306
G1 X44.202 Y205.191 E4.77286
G1 X44.416 Y205.511 E4.80853
G1 X44.886 Y205.712 E4.85583
G1 X45.359 Y206.075 E4.91094
G1 X45.378 Y206.362 E4.93757
G1 X42.839 Y208.900 E5.26962
G1 X42.552 Y208.882 E5.29625
G1 X42.189 Y208.409 E5.35136
G1 X41.977 Y207.896 E5.40272
G1 X41.915 Y207.418 E5.44732
G1 X41.901 Y203.193 E5.83808
G1 X41.862 Y202.981 E5.85800
G1 X41.724 Y202.662 E5.89014
G1 X41.538 Y202.419 E5.91847
G1 X41.265 Y202.203 E5.95061
G1 X40.946 Y202.065 E5.98275
G1 X40.735 Y202.026 E6.00267
G1 X38.705 Y202.032 E6.19044
G1 X38.390 Y202.124 E6.22078
G1 X38.124 Y202.277 E6.24910
G1 X37.962 Y202.419 E6.26905
G1 X37.776 Y202.662 E6.29737
G1 X37.638 Y202.981 E6.32952
G1 X37.599 Y203.193 E6.34944
G1 X37.585 Y207.418 E6.74020
G1 X37.523 Y207.896 E6.78480
G1 X37.311 Y208.409 E6.83616
G1 X36.948 Y208.882 E6.89126
G1 X36.661 Y208.900 E6.91790
G1 X34.165 Y206.404 E7.24439
G1 F1800.000 E6.24439
G92 E0
G1 X35.186 Y176.593 F7800.000
G1 E1.00000 F1800.000
G1 X30.204 Y171.611 E1.65169 F1080.000
G1 X30.309 Y169.999 E1.80106
G1 X29.932 Y169.597 E1.85204
G1 X28.353 Y169.597 E1.99812
G1 X25.884 Y166.782 E2.34440
G1 X26.210 Y164.310 E2.57499
G1 X26.302 Y163.915 E2.61253
G1 X26.478 Y163.396 E2.66326
G1 X26.794 Y162.717 E2.73250
G1 X26.929 Y162.482 E2.75755
G1 X27.361 Y161.868 E2.82695
G1 X27.869 Y161.316 E2.89639
G1 X28.229 Y161.000 E2.94071
G1 X28.843 Y160.568 E3.01009
G1 X29.077 Y160.433 E3.03514
G1 X29.756 Y160.118 E3.10438
G1 X30.211 Y159.963 E3.14882
G1 X31.010 Y159.786 E3.22450
G1 X31.414 Y159.747 E3.26204
G1 X48.086 Y159.747 E4.80407
G1 X48.491 Y159.787 E4.84169
G1 X49.027 Y159.893 E4.89225 F1080.000
G1 X49.743 Y160.117 E4.96160
G1 X50.423 Y160.433 E5.03099
G1 X50.658 Y160.569 E5.05603
G1 X51.270 Y160.999 E5.12529
G1 X51.632 Y161.316 E5.16977
G1 X52.047 Y161.762 E5.22610
G1 X52.304 Y162.083 E5.26414
G1 X52.571 Y162.483 E5.30860
G1 X52.918 Y163.147 E5.37793
G1 X53.198 Y163.915 E5.45352
G1 X53.290 Y164.310 E5.49108
G1 X53.616 Y166.782 E5.72164
G1 X51.147 Y169.597 E6.06794
G1 X49.567 Y169.597 E6.21403
G1 X49.191 Y169.999 E6.26500
G1 X49.296 Y171.611 E6.41438
G1 X44.314 Y176.593 E7.06606
G1 X40.578 Y176.348 E7.41234
G1 X40.063 Y175.677 E7.49055
G1 X39.437 Y175.677 E7.54854
G1 X38.922 Y176.348 E7.62674
G1 X35.246 Y176.589 E7.96748
G1 X35.432 Y175.940 F7800.000
G1 X30.857 Y171.365 E8.56589 F1080.000
G1 X30.988 Y169.364 E8.75140
G1 X30.611 Y168.961 E8.80237
G1 X28.641 Y168.961 E8.98459
G1 X26.552 Y166.580 E9.27759
G1 X26.836 Y164.424 E9.47865
G1 X26.914 Y164.090 E9.51042
G1 X27.074 Y163.620 E9.55632
G1 X27.355 Y163.016 E9.61789
G1 X27.469 Y162.818 E9.63909
G1 X27.852 Y162.272 E9.70079
