; generated by Slic3r 1.1.7 on 2014-11-29 at 01:39:04

; perimeters extrusion width = 0.40mm
; infill extrusion width = 0.42mm
; solid infill extrusion width = 0.42mm
; top infill extrusion width = 0.42mm
; support material extrusion width = 0.40mm

G21 ; set units to millimeters
M104 S190 ; set temperature
G28
G29
G1 Z5 F5000 ; lift nozzle

M109 S190 ; wait for temperature to be reached
G90 ; use absolute coordinates
G92 E0
M82 ; use absolute distances for extrusion
M204 S1500
G1 F1800.000 E-1.00000
G92 E0
G1 Z0.350 F7800.000
G1 X124.610 Y134.010 F7800.000
G1 E1.00000 F1800.000
G1 X127.542 Y132.263 E1.31567 F1080.000
G1 X141.499 Y127.941 E2.66704
G1 X143.650 Y127.616 E2.86824
G1 X156.350 Y127.616 E4.04288
G1 X158.551 Y127.957 E4.24883
G1 X172.162 Y132.279 E5.56973 F1080.000
G1 X174.942 Y133.911 E5.86785
G1 X175.550 Y134.483 E5.94506
G1 X177.005 Y136.396 E6.16737
G1 X177.841 Y139.781 E6.48988
G1 X177.841 Y154.064 E7.81096
G1 X177.070 Y157.322 E8.12062
G1 X176.627 Y158.207 E8.21217
G1 X175.210 Y160.148 E8.43447
G1 X174.004 Y161.100 E8.57659
G1 X157.878 Y171.264 E10.33964
G1 X155.660 Y172.192 E10.56195
G1 X154.000 Y172.384 E10.71650
G1 X145.999 Y172.384 E11.45652
G1 X143.629 Y171.987 E11.67882
G1 X142.103 Y171.252 E11.83550
G1 X125.992 Y161.026 E13.60040
G1 X124.204 Y159.420 E13.82271
G1 X123.458 Y158.281 E13.94864
G1 X122.999 Y157.411 E14.03959
G1 X122.159 Y154.017 E14.36298
G1 X122.159 Y139.734 E15.68406
G1 X122.930 Y136.476 E15.99372
G1 X123.193 Y135.951 E16.04803
G1 X124.575 Y134.058 E16.26479
G1 X125.128 Y134.394 F7800.000
G1 X127.730 Y132.870 E16.54372 F1080.000
G1 X141.687 Y128.548 E17.89508
G1 X143.650 Y128.251 E18.07870
G1 X156.350 Y128.251 E19.25333
G1 X158.358 Y128.563 E19.44128
G1 X171.970 Y132.885 E20.76218 F1080.000
G1 X174.506 Y134.374 E21.03424
G1 X175.115 Y134.946 E21.11146
G1 X176.490 Y136.783 E21.32375
G1 X177.206 Y139.781 E21.60878
G1 X177.206 Y154.064 E22.92986
G1 X176.502 Y157.037 E23.21245
G1 X176.059 Y157.922 E23.30400
G1 X174.691 Y159.765 E23.51629
G1 X173.665 Y160.563 E23.63648
G1 X157.539 Y170.727 E25.39953
G1 X155.414 Y171.596 E25.61182
G1 X154.000 Y171.749 E25.74336
G1 X145.999 Y171.749 E26.48338
G1 X143.739 Y171.352 E26.69568
G1 X142.443 Y170.715 E26.82916
G1 X126.333 Y160.489 E28.59406
G1 X124.021 Y157.984 E28.90938
G1 X123.562 Y157.115 E29.00034
G1 X122.794 Y154.017 E29.29546
G1 X122.794 Y139.734 E30.61654
G1 X123.498 Y136.761 E30.89913
G1 X123.761 Y136.236 E30.95344
G1 X125.092 Y134.442 E31.16002
G1 F1800.000 E30.16002
G92 E0
G1 X136.216 Y159.223 F7800.000
G1 E1.00000 F1800.000
G1 X135.565 Y158.860 E1.06904 F1080.000
G1 X135.249 Y159.055 E1.10336
G1 X134.143 Y159.369 E1.20971
G1 X128.562 Y159.383 E1.72591
G1 X126.567 Y158.194 E1.94065
G1 X125.197 Y155.598 E2.21216
G1 X124.955 Y154.642 E2.30337
G1 X124.943 Y153.487 E2.41025
G1 X124.958 Y153.357 E2.42232
G1 X124.826 Y151.416 E2.60226
G1 X124.952 Y151.164 E2.62831
G1 X124.970 Y150.912 E2.65170
G1 X124.657 Y149.968 E2.74368
G1 X126.003 Y147.282 E3.02161
G1 X126.021 Y147.030 E3.04500
G1 X125.538 Y145.576 E3.18673
G1 X124.979 Y144.738 E3.27982
G1 X124.826 Y142.489 E3.48835
G1 X124.952 Y142.237 E3.51440
G1 X124.970 Y141.985 E3.53778
G1 X124.657 Y141.041 E3.62977
G1 X124.952 Y140.452 E3.69075
G1 X124.970 Y140.200 E3.71414
G1 X124.657 Y139.256 E3.80612
G1 X125.989 Y136.598 E4.08108
G1 X126.765 Y135.750 E4.18743
G1 X127.913 Y135.041 E4.31216
G1 X129.019 Y134.727 E4.41852
G1 X130.063 Y134.727 E4.51510
G1 X130.224 Y134.685 E4.53048
G1 X130.302 Y134.640 E4.53878
G1 X131.640 Y134.727 E4.66288
G1 X134.542 Y134.727 E4.93126
G1 X136.419 Y135.774 E5.13002
G1 X136.533 Y135.960 E5.15018
G1 X136.664 Y136.079 E5.16654
G1 X137.630 Y136.563 E5.26646
G1 X137.774 Y136.597 E5.28018
G1 X139.146 Y136.597 E5.40709
G1 X139.518 Y136.225 E5.45579
G1 X139.518 Y133.176 E5.73784
G1 X141.939 Y130.755 E6.05440
G1 X148.536 Y130.755 E6.66463
G1 X149.737 Y131.956 E6.82164
G1 X150.263 Y131.956 E6.87034
G1 X151.464 Y130.755 E7.02736
G1 X158.061 Y130.755 E7.63758
G1 X160.482 Y133.176 E7.95415
G1 X160.482 Y136.225 E8.23620
G1 X160.854 Y136.597 E8.28490
G1 X162.532 Y136.597 E8.44015
G1 X162.777 Y136.490 E8.46489
G1 X163.454 Y135.750 E8.55765
G1 X164.602 Y135.041 E8.68238
G1 X165.708 Y134.727 E8.78873
G1 X169.539 Y134.727 E9.14302
G1 X170.314 Y134.595 E9.21580
G1 X172.190 Y135.153 E9.39682
G1 X174.210 Y137.052 E9.65325
G1 X174.845 Y138.225 E9.77668
G1 X175.119 Y139.768 E9.92158
G1 X175.028 Y140.459 E9.98607
G1 X175.210 Y142.310 E10.15804
G1 X175.048 Y142.634 E10.19157
G1 X175.030 Y142.886 E10.21496
G1 X175.343 Y143.830 E10.30695
G1 X173.782 Y146.944 E10.62918
G1 X173.806 Y147.291 E10.66133
G1 X174.630 Y148.487 E10.79564
G1 X174.996 Y149.534 E10.89825
G1 X175.086 Y150.832 E11.01856
G1 X175.039 Y151.121 E11.04561
G1 X175.174 Y153.095 E11.22858
G1 X175.048 Y153.346 E11.25462
G1 X175.030 Y153.598 E11.27801
G1 X175.343 Y154.542 E11.37000
G1 X173.831 Y157.560 E11.68219
G1 X173.054 Y158.408 E11.78855
G1 X171.907 Y159.117 E11.91328
G1 X170.801 Y159.431 E12.01963
G1 X167.001 Y159.431 E12.37107
G1 X166.270 Y159.564 E12.43983
G1 X164.285 Y159.015 E12.63031
G1 X163.784 Y159.396 E12.68860
G1 X163.784 Y160.722 E12.81125
G1 X163.095 Y162.301 E12.97056
G1 X156.240 Y168.672 E13.83617
G1 X154.783 Y169.245 E13.98092
G1 X145.217 Y169.245 E14.86570
G1 X143.760 Y168.672 E15.01046
G1 X136.905 Y162.301 E15.87606
G1 X136.216 Y160.722 E16.03537
G1 X136.216 Y159.283 E16.16846
G1 X136.852 Y158.084 F7800.000
G1 X136.200 Y157.720 E16.23751 F1080.000
G1 X134.990 Y158.467 E16.36902
G1 X134.054 Y158.733 E16.45902
G1 X128.734 Y158.745 E16.95113
G1 X127.046 Y157.740 E17.13284
G1 X125.794 Y155.369 E17.38082
G1 X125.590 Y154.560 E17.45799
G1 X125.579 Y153.556 E17.55084
G1 X125.599 Y153.408 E17.56462
G1 X125.472 Y151.546 E17.73727
G1 X125.638 Y151.214 E17.77162
G1 X125.657 Y150.962 E17.79501
G1 X125.343 Y150.018 E17.88700
G1 X126.689 Y147.331 E18.16492
G1 X126.708 Y147.079 E18.18831
G1 X126.113 Y145.290 E18.36268
G1 X125.602 Y144.522 E18.44802
G1 X125.472 Y142.619 E18.62447
G1 X125.638 Y142.287 E18.65882
G1 X125.657 Y142.034 E18.68221
G1 X125.343 Y141.091 E18.77420
G1 X125.638 Y140.501 E18.83518
G1 X125.657 Y140.249 E18.85856
G1 X125.343 Y139.305 E18.95055
G1 X126.517 Y136.962 E19.19297
G1 X127.174 Y136.244 E19.28297
G1 X128.171 Y135.629 E19.39133
G1 X129.107 Y135.363 E19.48133
G1 X130.232 Y135.363 E19.58537
G1 X130.451 Y135.287 E19.60682
G1 X131.620 Y135.363 E19.71511
G1 X134.377 Y135.363 E19.97014
G1 X135.965 Y136.249 E20.13832
G1 X136.087 Y136.447 E20.15988
G1 X136.218 Y136.567 E20.17624
G1 X137.479 Y137.199 E20.30675
G1 X137.624 Y137.233 E20.32047
G1 X139.782 Y137.233 E20.52007
G1 X140.154 Y136.861 E20.56878
G1 X140.154 Y133.439 E20.88526
G1 X142.202 Y131.391 E21.15313
G1 X148.273 Y131.391 E21.71465
G1 X149.737 Y132.855 E21.90610
G1 X150.263 Y132.855 E21.95480
G1 X151.727 Y131.391 E22.14625
G1 X157.798 Y131.391 E22.70778
G1 X159.846 Y133.439 E22.97564
G1 X159.846 Y136.861 E23.29213
G1 X160.218 Y137.233 E23.34083
G1 X162.812 Y137.233 E23.58076
G1 X163.057 Y137.125 E23.60550
G1 X163.863 Y136.244 E23.71596
G1 X164.860 Y135.629 E23.82433
G1 X165.796 Y135.363 E23.91432
G1 X169.595 Y135.363 E24.26562
G1 X170.277 Y135.247 E24.32965
G1 X171.864 Y135.719 E24.48282
G1 X173.700 Y137.445 E24.71583
G1 X174.237 Y138.438 E24.82027
G1 X174.476 Y139.778 E24.94618
G1 X174.388 Y140.444 E25.00833
G1 X174.560 Y142.189 E25.17048
G1 X174.362 Y142.584 E25.21138
G1 X174.343 Y142.837 E25.23476
G1 X174.657 Y143.780 E25.32675
G1 X173.046 Y146.995 E25.65938
G1 X173.070 Y147.342 E25.69153
G1 X174.058 Y148.777 E25.85270
G1 X174.368 Y149.664 E25.93952
G1 X174.446 Y150.791 E26.04405
G1 X174.399 Y151.079 E26.07106
G1 X174.528 Y152.965 E26.24585
G1 X174.362 Y153.297 E26.28021
G1 X174.343 Y153.549 E26.30360
G1 X174.657 Y154.493 E26.39558
G1 X173.302 Y157.196 E26.67524
G1 X172.645 Y157.914 E26.76524
G1 X171.648 Y158.529 E26.87360
G1 X170.712 Y158.795 E26.96360
G1 X166.941 Y158.795 E27.31242
G1 X166.296 Y158.912 E27.37301
G1 X164.723 Y158.476 E27.52401
G1 X163.900 Y157.741 E27.62611
G1 X163.148 Y158.078 E27.70229
G1 X163.148 Y160.590 E27.93465
G1 X162.566 Y161.926 E28.06945
G1 X155.895 Y168.125 E28.91166
G1 X154.663 Y168.609 E29.03415
G1 X145.337 Y168.609 E29.89666
G1 X144.105 Y168.125 E30.01914
G1 X137.434 Y161.926 E30.86136
G1 X136.852 Y160.590 E30.99616
G1 X136.852 Y158.144 E31.22238
G1 F1800.000 E30.22238
G92 E0
G1 X162.512 Y156.658 F7800.000
G1 E1.00000 F1800.000
G1 X162.512 Y160.457 E1.35143 F1080.000
G1 X162.036 Y161.550 E1.46172
G1 X155.551 Y167.577 E2.28054
G1 X154.542 Y167.973 E2.38076
G1 X145.458 Y167.973 E3.22100
G1 X144.449 Y167.577 E3.32121
G1 X137.964 Y161.550 E4.14004
G1 X137.488 Y160.457 E4.25033
G1 X137.488 Y156.662 E4.60140
G1 X137.115 Y156.289 E4.65010
G1 X136.569 Y156.289 E4.70068
G1 X136.262 Y156.479 E4.73405
G1 X136.116 Y156.770 E4.76419
G1 X135.578 Y157.357 E4.83782
G1 X134.732 Y157.880 E4.92982
G1 X133.966 Y158.097 E5.00345
G1 X128.906 Y158.108 E5.47148
G1 X127.525 Y157.285 E5.62015
G1 X126.392 Y155.139 E5.84460
G1 X126.224 Y154.477 E5.90774
G1 X126.215 Y153.625 E5.98656
G1 X126.253 Y153.464 E6.00182
G1 X126.118 Y151.676 E6.16772
G1 X126.325 Y151.263 E6.21038
G1 X126.343 Y151.011 E6.23377
G1 X126.029 Y150.067 E6.32576
G1 X127.308 Y147.516 E6.58969
G1 X127.674 Y147.251 E6.63153
G1 X127.616 Y146.538 E6.69767
G1 X127.114 Y146.286 E6.74961
G1 X126.688 Y145.005 E6.87452
G1 X126.224 Y144.306 E6.95210
G1 X126.118 Y142.749 E7.09647
G1 X126.325 Y142.336 E7.13913
G1 X126.343 Y142.084 E7.16252
G1 X126.029 Y141.140 E7.25451
G1 X126.325 Y140.551 E7.31549
G1 X126.343 Y140.298 E7.33887
G1 X126.029 Y139.355 E7.43086
G1 X127.046 Y137.326 E7.64075
G1 X127.583 Y136.739 E7.71438
G1 X128.430 Y136.216 E7.80639
G1 X129.196 Y135.999 E7.88002
G1 X130.401 Y135.999 E7.99153
G1 X130.601 Y135.934 E8.01093
G1 X131.770 Y136.011 E8.11932
G1 X134.212 Y135.999 E8.34514
G1 X135.511 Y136.723 E8.48273
G1 X135.641 Y136.935 E8.50569
G1 X135.772 Y137.054 E8.52205
G1 X136.725 Y137.532 E8.62065
G1 X136.757 Y137.628 E8.63007
G1 X137.090 Y137.869 E8.66806
G1 X140.417 Y137.869 E8.97581
G1 X140.790 Y137.496 E9.02451
G1 X140.790 Y133.702 E9.37544
G1 X142.465 Y132.027 E9.59460
G1 X148.010 Y132.027 E10.10742
G1 X149.737 Y133.754 E10.33331
G1 X150.263 Y133.754 E10.38201
G1 X151.990 Y132.027 E10.60790
G1 X157.535 Y132.027 E11.12072
G1 X159.210 Y133.702 E11.33988
G1 X159.210 Y137.496 E11.69081
G1 X159.583 Y137.869 E11.73951
G1 X163.251 Y137.869 E12.07881
G1 X163.558 Y137.679 E12.11218
G1 X163.735 Y137.326 E12.14873
G1 X164.273 Y136.739 E12.22236
G1 X165.119 Y136.216 E12.31437
G1 X165.885 Y135.999 E12.38800
G1 X169.651 Y135.999 E12.73629
G1 X170.240 Y135.899 E12.79158
G1 X171.539 Y136.286 E12.91691
G1 X173.190 Y137.837 E13.12649
G1 X173.630 Y138.650 E13.21194
G1 X173.832 Y139.788 E13.31887
G1 X173.748 Y140.429 E13.37868
G1 X173.909 Y142.068 E13.53100
G1 X173.675 Y142.535 E13.57926
G1 X173.657 Y142.787 E13.60265
G1 X173.971 Y143.731 E13.69463
G1 X172.309 Y147.047 E14.03766
G1 X172.333 Y147.393 E14.06982
G1 X173.486 Y149.068 E14.25784
G1 X173.739 Y149.793 E14.32888
G1 X173.806 Y150.750 E14.41761
G1 X173.745 Y151.055 E14.44643
G1 X173.769 Y151.174 E14.45760
G1 X173.882 Y152.835 E14.61162
G1 X173.675 Y153.247 E14.65429
G1 X173.657 Y153.500 E14.67768
G1 X173.971 Y154.443 E14.76966
G1 X172.774 Y156.832 E15.01679
G1 X172.236 Y157.419 E15.09042
G1 X171.390 Y157.942 E15.18243
G1 X170.624 Y158.159 E15.25606
G1 X166.881 Y158.159 E15.60226
G1 X166.323 Y158.260 E15.65468
G1 X165.036 Y157.903 E15.77823
G1 X163.264 Y156.321 E15.99792
G1 X162.567 Y156.633 E16.06856
G1 F1800.000 E15.06856
G92 E0
G1 X163.364 Y148.778 F7800.000
G1 E1.00000 F1800.000
G1 X163.057 Y148.968 E1.03337 F1080.000
G1 X137.218 Y148.968 E3.42325
G1 X136.885 Y148.727 E3.46124
G1 X136.725 Y148.244 E3.50832
G1 X135.702 Y147.714 E3.61489
G1 X135.536 Y147.214 E3.66359
G1 X136.457 Y145.377 E3.85369
G1 X136.763 Y145.187 E3.88703
G1 X148.012 Y145.176 E4.92742
G1 X149.737 Y143.449 E5.15313
G1 X150.263 Y143.449 E5.20186
G1 X151.988 Y145.176 E5.42757
G1 X162.883 Y145.187 E6.43524
G1 X163.155 Y145.327 E6.46356
G1 X164.178 Y146.745 E6.62528
G1 X164.206 Y147.099 E6.65811
G1 X163.391 Y148.724 E6.82627
G1 X163.465 Y147.158 F7800.000
G1 X162.972 Y148.142 E6.92809 F1080.000
G1 X162.665 Y148.332 E6.96146
G1 X137.677 Y148.332 E9.27263
G1 X137.344 Y148.092 E9.31062
G1 X137.245 Y147.794 E9.33963
G1 X136.548 Y147.445 E9.41175
G1 X136.382 Y146.945 E9.46046
G1 X136.849 Y146.012 E9.55696
G1 X137.156 Y145.823 E9.59030
G1 X148.276 Y145.811 E10.61878
G1 X149.737 Y144.348 E10.80996
G1 X150.263 Y144.348 E10.85870
G1 X151.724 Y145.811 E11.04989
G1 X162.557 Y145.822 E12.05184
G1 X162.830 Y145.962 E12.08015
G1 X163.437 Y146.805 E12.17622
G1 X163.460 Y147.099 E12.20349
G1 F1800.000 E11.20349
G92 E0
G1 X151.926 Y146.912 F7800.000
G1 E1.00000 F1800.000
G1 X151.601 Y147.696 E1.07854 F1080.000
G1 X148.399 Y147.696 E1.37464
G1 X148.074 Y146.912 E1.45318
G1 X149.737 Y145.248 E1.67073
G1 X150.263 Y145.248 E1.71947
G1 X151.883 Y146.869 E1.93147
G1 F1800.000 E0.93147
G92 E0
G1 X158.576 Y138.504 F7800.000
G1 E1.00000 F1800.000
G1 X163.644 Y138.504 E1.46869 F1080.000
G1 X163.951 Y138.315 E1.50206
G1 X164.264 Y137.690 E1.56672
G1 X164.682 Y137.233 E1.62399
G1 X165.378 Y136.803 E1.69963
G1 X165.973 Y136.634 E1.75690
G1 X169.707 Y136.634 E2.10220
G1 X170.203 Y136.551 E2.14875
G1 X171.213 Y136.852 E2.24622
G1 X172.680 Y138.230 E2.43239
G1 X173.022 Y138.862 E2.49885
G1 X173.188 Y139.798 E2.58678
G1 X173.093 Y140.452 E2.64784
G1 X173.123 Y140.563 E2.65848
G1 X173.259 Y141.948 E2.78720
G1 X172.989 Y142.485 E2.84282
G1 X172.971 Y142.738 E2.86621
G1 X173.285 Y143.681 E2.95819
G1 X171.945 Y146.355 E3.23475
G1 X171.352 Y146.707 E3.29855
G1 X171.384 Y147.467 E3.36890
G1 X171.725 Y147.631 E3.40383
G1 X172.914 Y149.358 E3.59781
G1 X173.111 Y149.922 E3.65306
G1 X173.166 Y150.709 E3.72601
G1 X173.069 Y151.193 E3.77173
G1 X173.120 Y151.445 E3.79552
G1 X173.154 Y151.494 E3.80098
G1 X173.236 Y152.705 E3.91327
G1 X172.989 Y153.198 E3.96424
G1 X172.971 Y153.450 E3.98763
G1 X173.285 Y154.394 E4.07962
G1 X172.245 Y156.468 E4.29421
G1 X171.827 Y156.925 E4.35148
G1 X171.131 Y157.355 E4.42713
G1 X170.535 Y157.524 E4.48439
G1 X166.821 Y157.524 E4.82797
G1 X166.350 Y157.608 E4.87223
G1 X165.348 Y157.330 E4.96832
G1 X163.852 Y155.994 E5.15388
G1 X163.757 Y155.827 E5.17168
G1 X163.461 Y155.654 E5.20345
G1 X162.069 Y155.654 E5.33218
G1 X161.744 Y156.438 E5.41075
G1 X161.877 Y156.572 E5.42815
G1 X161.877 Y160.325 E5.77530
G1 X161.506 Y161.175 E5.86109
G1 X155.206 Y167.029 E6.65652
G1 X154.422 Y167.338 E6.73447
G1 X145.578 Y167.338 E7.55243
G1 X144.794 Y167.029 E7.63038
G1 X138.494 Y161.175 E8.42581
G1 X138.123 Y160.325 E8.51160
G1 X138.123 Y156.572 E8.85874
G1 X138.256 Y156.438 E8.87615
G1 X137.931 Y155.654 E8.95472
G1 X136.176 Y155.654 E9.11706
G1 X135.869 Y155.843 E9.15043
G1 X135.587 Y156.406 E9.20868
G1 X135.169 Y156.863 E9.26595
G1 X134.473 Y157.293 E9.34159
G1 X133.877 Y157.462 E9.39886
G1 X129.077 Y157.470 E9.84281
G1 X128.003 Y156.830 E9.95844
G1 X126.990 Y154.909 E10.15935
G1 X126.859 Y154.395 E10.20846
G1 X126.852 Y153.694 E10.27325
G1 X126.935 Y153.335 E10.30732
G1 X126.885 Y153.073 E10.33201
G1 X126.846 Y153.017 E10.33833
G1 X126.764 Y151.805 E10.45061
G1 X127.011 Y151.313 E10.50159
G1 X127.029 Y151.060 E10.52498
G1 X126.715 Y150.117 E10.61696
G1 X127.806 Y147.940 E10.84220
G1 X128.586 Y147.374 E10.93130
G1 X128.725 Y147.102 E10.95956
G1 X128.725 Y146.595 E11.00646
G1 X128.536 Y146.288 E11.03983
G1 X127.634 Y145.836 E11.13313
G1 X127.263 Y144.719 E11.24197
G1 X126.846 Y144.089 E11.31180
G1 X126.764 Y142.878 E11.42408
G1 X127.011 Y142.386 E11.47506
G1 X127.029 Y142.133 E11.49845
G1 X126.715 Y141.190 E11.59043
G1 X127.011 Y140.600 E11.65141
G1 X127.029 Y140.348 E11.67480
G1 X126.715 Y139.404 E11.76678
G1 X127.575 Y137.690 E11.94415
G1 X127.993 Y137.233 E12.00141
G1 X128.689 Y136.803 E12.07706
G1 X129.284 Y136.634 E12.13433
G1 X130.571 Y136.634 E12.25330
G1 X130.750 Y136.581 E12.27066
G1 X131.838 Y136.652 E12.37148
G1 X131.969 Y136.634 E12.38368
