( Made using CamBam - http://www.cambam.co.uk )
( x_carrier_brackets 1/13/2015 1:01:46 AM )
( T0 : 0.0 )
G20 G90 G64 G40
G0 Z0.125
( T0 : 0.0 )
T0 M6
( Drill1 )
G17
M3 S1000
G0 X0.669 Y2.5618
G98
G81 X0.669 Y2.5618 Z-0.075 R0.125 F10.0
G81 X1.2596 Z-0.075
G81 X2.7226 Y1.5902 Z-0.075
G81 X2.7227 Y0.3894 Z-0.075
G81 X1.8418 Y0.6458 Z-0.075
G81 X1.2513 Z-0.075
G81 X2.7579 Y3.8272 Z-0.075
G81 Y4.8322 Z-0.075
G81 X3.8954 Z-0.075
G81 Y3.8272 Z-0.075
G80
( Drill2 )
S1000
G0 Z0.125
G0 X1.6447 Y4.5147
G98
G81 X1.6447 Y4.5147 Z-0.075 R0.125 F10.0
G81 Y3.0774 Z-0.075
G81 X2.4549 Y1.2914 Z-0.075
G81 Y0.1631 Z-0.075
G80
( outline )
S1000
G0 Z-0.01
G1 F10.0 X2.5158 Y0.1006
G1 F15.0 X2.9359
G3 X3.1234 Y0.2881 I0.0 J0.1875
G1 X3.1233 Y1.6916
G3 X2.9358 Y1.8791 I-0.1875 J0.0
G1 X2.5799
G3 X2.3924 Y1.6916 I0.0 J-0.1875
G1 Y1.3539
G1 X0.6254 Y1.3538
G3 X0.4379 Y1.1662 I0.0 J-0.1875
G1 X0.438 Y0.125
G3 X0.6256 Y-0.0625 I0.1875 J0.0
G1 X2.3299 Y-0.0623
G3 X2.5158 Y0.1006 I0.0 J0.1875
G1 F10.0 Z-0.02
G1 F15.0 X2.9359
G3 X3.1234 Y0.2881 I0.0 J0.1875
G1 X3.1233 Y1.6916
G3 X2.9358 Y1.8791 I-0.1875 J0.0
G1 X2.5799
G3 X2.3924 Y1.6916 I0.0 J-0.1875
G1 Y1.3539
G1 X0.6254 Y1.3538
G3 X0.4379 Y1.1662 I0.0 J-0.1875
G1 X0.438 Y0.125
G3 X0.6256 Y-0.0625 I0.1875 J0.0
G1 X2.3299 Y-0.0623
G3 X2.5158 Y0.1006 I0.0 J0.1875
G1 F10.0 Z-0.03
G1 F15.0 X2.9359
G3 X3.1234 Y0.2881 I0.0 J0.1875
G1 X3.1233 Y1.6916
G3 X2.9358 Y1.8791 I-0.1875 J0.0
G1 X2.5799
G3 X2.3924 Y1.6916 I0.0 J-0.1875
G1 Y1.3539
G1 X0.6254 Y1.3538
G3 X0.4379 Y1.1662 I0.0 J-0.1875
G1 X0.438 Y0.125
G3 X0.6256 Y-0.0625 I0.1875 J0.0
G1 X2.3299 Y-0.0623
G3 X2.5158 Y0.1006 I0.0 J0.1875
G1 F10.0 Z-0.04
G1 F15.0 X2.9359
G3 X3.1234 Y0.2881 I0.0 J0.1875
G1 X3.1233 Y1.6916
G3 X2.9358 Y1.8791 I-0.1875 J0.0
G1 X2.5799
G3 X2.3924 Y1.6916 I0.0 J-0.1875
G1 Y1.3539
G1 X0.6254 Y1.3538
G3 X0.4379 Y1.1662 I0.0 J-0.1875
G1 X0.438 Y0.125
G3 X0.6256 Y-0.0625 I0.1875 J0.0
G1 X2.3299 Y-0.0623
G3 X2.5158 Y0.1006 I0.0 J0.1875
G1 F10.0 Z-0.05
G1 F15.0 X2.9359
G3 X3.1234 Y0.2881 I0.0 J0.1875
G1 X3.1233 Y1.6916
G3 X2.9358 Y1.8791 I-0.1875 J0.0
G1 X2.5799
G3 X2.3924 Y1.6916 I0.0 J-0.1875
G1 Y1.3539
G1 X0.6254 Y1.3538
G3 X0.4379 Y1.1662 I0.0 J-0.1875
G1 X0.438 Y0.125
G3 X0.6256 Y-0.0625 I0.1875 J0.0
G1 X2.3299 Y-0.0623
G3 X2.5158 Y0.1006 I0.0 J0.1875
G1 F10.0 Z-0.06
G1 F15.0 X2.9359
G3 X3.1234 Y0.2881 I0.0 J0.1875
G1 X3.1233 Y1.6916
G3 X2.9358 Y1.8791 I-0.1875 J0.0
G1 X2.5799
G3 X2.3924 Y1.6916 I0.0 J-0.1875
G1 Y1.3539
G1 X0.6254 Y1.3538
G3 X0.4379 Y1.1662 I0.0 J-0.1875
G1 X0.438 Y0.125
G3 X0.6256 Y-0.0625 I0.1875 J0.0
G1 X2.3299 Y-0.0623
G3 X2.5158 Y0.1006 I0.0 J0.1875
G1 F10.0 Z-0.07
G1 F15.0 X2.9359
G3 X3.1234 Y0.2881 I0.0 J0.1875
G1 X3.1233 Y1.6916
G3 X2.9358 Y1.8791 I-0.1875 J0.0
G1 X2.5799
G3 X2.3924 Y1.6916 I0.0 J-0.1875
G1 Y1.3539
G1 X0.6254 Y1.3538
G3 X0.4379 Y1.1662 I0.0 J-0.1875
G1 X0.438 Y0.125
G3 X0.6256 Y-0.0625 I0.1875 J0.0
G1 X2.3299 Y-0.0623
G3 X2.5158 Y0.1006 I0.0 J0.1875
G1 F10.0 Z-0.075
G1 F15.0 X2.9359
G3 X3.1234 Y0.2881 I0.0 J0.1875
G1 X3.1233 Y1.6916
G3 X2.9358 Y1.8791 I-0.1875 J0.0
G1 X2.5799
G3 X2.3924 Y1.6916 I0.0 J-0.1875
G1 Y1.3539
G1 X0.6254 Y1.3538
G3 X0.4379 Y1.1662 I0.0 J-0.1875
G1 X0.438 Y0.125
G3 X0.6256 Y-0.0625 I0.1875 J0.0
G1 X2.3299 Y-0.0623
G3 X2.5158 Y0.1006 I0.0 J0.1875
G0 Z0.125
G0 X1.6719 Y1.86
G0 Z0.0625
G1 F10.0 Z-0.01
G3 F15.0 X1.7074 Y1.9164 I-0.027 J0.0564
G1 X1.7073 Y3.0149
G1 X1.9291
G3 X2.2416 Y3.3274 I0.0 J0.3125
G1 Y3.4822
G1 X3.9742
G3 X4.1617 Y3.6697 I0.0 J0.1875
G1 Y5.1147
G3 X3.9742 Y5.3022 I-0.1875 J0.0
G1 X2.6792
G3 X2.4917 Y5.1147 I0.0 J-0.1875
G1 Y4.5772
G1 X0.8222 Y4.5771
G3 X0.7694 Y4.5481 I0.0 J-0.0625
G1 X-0.053 Y3.2488
G3 X-0.0627 Y3.2154 I0.0528 J-0.0334
G1 X-0.0626 Y1.9162
G3 X-0.0001 Y1.8538 I0.0625 J0.0
G1 X1.6449
G3 X1.6719 Y1.86 I0.0 J0.0625
G1 F10.0 Z-0.02
G3 F15.0 X1.7074 Y1.9164 I-0.027 J0.0564
G1 X1.7073 Y3.0149
G1 X1.9291
G3 X2.2416 Y3.3274 I0.0 J0.3125
G1 Y3.4822
G1 X3.9742
G3 X4.1617 Y3.6697 I0.0 J0.1875
G1 Y5.1147
G3 X3.9742 Y5.3022 I-0.1875 J0.0
G1 X2.6792
G3 X2.4917 Y5.1147 I0.0 J-0.1875
G1 Y4.5772
G1 X0.8222 Y4.5771
G3 X0.7694 Y4.5481 I0.0 J-0.0625
G1 X-0.053 Y3.2488
G3 X-0.0627 Y3.2154 I0.0528 J-0.0334
G1 X-0.0626 Y1.9162
G3 X-0.0001 Y1.8538 I0.0625 J0.0
G1 X1.6449
G3 X1.6719 Y1.86 I0.0 J0.0625
G1 F10.0 Z-0.03
G3 F15.0 X1.7074 Y1.9164 I-0.027 J0.0564
G1 X1.7073 Y3.0149
G1 X1.9291
G3 X2.2416 Y3.3274 I0.0 J0.3125
G1 Y3.4822
G1 X3.9742
G3 X4.1617 Y3.6697 I0.0 J0.1875
G1 Y5.1147
G3 X3.9742 Y5.3022 I-0.1875 J0.0
G1 X2.6792
G3 X2.4917 Y5.1147 I0.0 J-0.1875
G1 Y4.5772
G1 X0.8222 Y4.5771
G3 X0.7694 Y4.5481 I0.0 J-0.0625
G1 X-0.053 Y3.2488
G3 X-0.0627 Y3.2154 I0.0528 J-0.0334
G1 X-0.0626 Y1.9162
G3 X-0.0001 Y1.8538 I0.0625 J0.0
G1 X1.6449
G3 X1.6719 Y1.86 I0.0 J0.0625
G1 F10.0 Z-0.04
G3 F15.0 X1.7074 Y1.9164 I-0.027 J0.0564
G1 X1.7073 Y3.0149
G1 X1.9291
G3 X2.2416 Y3.3274 I0.0 J0.3125
G1 Y3.4822
G1 X3.9742
G3 X4.1617 Y3.6697 I0.0 J0.1875
G1 Y5.1147
G3 X3.9742 Y5.3022 I-0.1875 J0.0
G1 X2.6792
G3 X2.4917 Y5.1147 I0.0 J-0.1875
G1 Y4.5772
G1 X0.8222 Y4.5771
G3 X0.7694 Y4.5481 I0.0 J-0.0625
G1 X-0.053 Y3.2488
G3 X-0.0627 Y3.2154 I0.0528 J-0.0334
G1 X-0.0626 Y1.9162
G3 X-0.0001 Y1.8538 I0.0625 J0.0
G1 X1.6449
G3 X1.6719 Y1.86 I0.0 J0.0625
G1 F10.0 Z-0.05
G3 F15.0 X1.7074 Y1.9164 I-0.027 J0.0564
G1 X1.7073 Y3.0149
G1 X1.9291
G3 X2.2416 Y3.3274 I0.0 J0.3125
G1 Y3.4822
G1 X3.9742
G3 X4.1617 Y3.6697 I0.0 J0.1875
G1 Y5.1147
G3 X3.9742 Y5.3022 I-0.1875 J0.0
G1 X2.6792
G3 X2.4917 Y5.1147 I0.0 J-0.1875
G1 Y4.5772
G1 X0.8222 Y4.5771
G3 X0.7694 Y4.5481 I0.0 J-0.0625
G1 X-0.053 Y3.2488
G3 X-0.0627 Y3.2154 I0.0528 J-0.0334
G1 X-0.0626 Y1.9162
G3 X-0.0001 Y1.8538 I0.0625 J0.0
G1 X1.6449
G3 X1.6719 Y1.86 I0.0 J0.0625
G1 F10.0 Z-0.06
G3 F15.0 X1.7074 Y1.9164 I-0.027 J0.0564
G1 X1.7073 Y3.0149
G1 X1.9291
G3 X2.2416 Y3.3274 I0.0 J0.3125
G1 Y3.4822
G1 X3.9742
G3 X4.1617 Y3.6697 I0.0 J0.1875
G1 Y5.1147
G3 X3.9742 Y5.3022 I-0.1875 J0.0
G1 X2.6792
G3 X2.4917 Y5.1147 I0.0 J-0.1875
G1 Y4.5772
G1 X0.8222 Y4.5771
G3 X0.7694 Y4.5481 I0.0 J-0.0625
G1 X-0.053 Y3.2488
G3 X-0.0627 Y3.2154 I0.0528 J-0.0334
G1 X-0.0626 Y1.9162
G3 X-0.0001 Y1.8538 I0.0625 J0.0
G1 X1.6449
G3 X1.6719 Y1.86 I0.0 J0.0625
G1 F10.0 Z-0.07
G3 F15.0 X1.7074 Y1.9164 I-0.027 J0.0564
G1 X1.7073 Y3.0149
G1 X1.9291
G3 X2.2416 Y3.3274 I0.0 J0.3125
G1 Y3.4822
G1 X3.9742
G3 X4.1617 Y3.6697 I0.0 J0.1875
G1 Y5.1147
G3 X3.9742 Y5.3022 I-0.1875 J0.0
G1 X2.6792
G3 X2.4917 Y5.1147 I0.0 J-0.1875
G1 Y4.5772
G1 X0.8222 Y4.5771
G3 X0.7694 Y4.5481 I0.0 J-0.0625
G1 X-0.053 Y3.2488
G3 X-0.0627 Y3.2154 I0.0528 J-0.0334
G1 X-0.0626 Y1.9162
G3 X-0.0001 Y1.8538 I0.0625 J0.0
G1 X1.6449
G3 X1.6719 Y1.86 I0.0 J0.0625
G1 F10.0 Z-0.075
G3 F15.0 X1.7074 Y1.9164 I-0.027 J0.0564
G1 X1.7073 Y3.0149
G1 X1.9291
G3 X2.2416 Y3.3274 I0.0 J0.3125
G1 Y3.4822
G1 X3.9742
G3 X4.1617 Y3.6697 I0.0 J0.1875
G1 Y5.1147
G3 X3.9742 Y5.3022 I-0.1875 J0.0
G1 X2.6792
G3 X2.4917 Y5.1147 I0.0 J-0.1875
G1 Y4.5772
G1 X0.8222 Y4.5771
G3 X0.7694 Y4.5481 I0.0 J-0.0625
G1 X-0.053 Y3.2488
G3 X-0.0627 Y3.2154 I0.0528 J-0.0334
G1 X-0.0626 Y1.9162
G3 X-0.0001 Y1.8538 I0.0625 J0.0
G1 X1.6449
G3 X1.6719 Y1.86 I0.0 J0.0625
G0 Z0.125
M5
M30
