( Made using CamBam - http://www.cambam.co.uk )
( x_carrier_brackets 1/13/2015 12:16:47 AM )
( T0 : 0.0 )
G20 G90 G64 G40
G0 Z0.125
( T0 : 0.0 )
T0 M6
( Drill1 )
G17
M3 S1000
G0 X1.6447 Y4.5147
G98
G81 X1.6447 Y4.5147 Z-0.075 R0.125 F10.0
G81 Y3.0774 Z-0.075
G81 X2.4549 Y1.2914 Z-0.075
G81 Y0.1631 Z-0.075
G80
( holes )
S1000
G0 Z0.125
G0 X0.7694 Y2.5618
G0 Z0.0625
G1 F10.0 Z-0.01
G2 F15.0 X0.6188 Y2.4749 I-0.1004 J0.0
G2 Y2.6488 I0.0502 J0.0869
G2 X0.7694 Y2.5618 I0.0502 J-0.0869
G1 F10.0 Z-0.02
G2 F15.0 X0.6188 Y2.4749 I-0.1004 J0.0
G2 Y2.6488 I0.0502 J0.0869
G2 X0.7694 Y2.5618 I0.0502 J-0.0869
G1 F10.0 Z-0.03
G2 F15.0 X0.6188 Y2.4749 I-0.1004 J0.0
G2 Y2.6488 I0.0502 J0.0869
G2 X0.7694 Y2.5618 I0.0502 J-0.0869
G1 F10.0 Z-0.04
G2 F15.0 X0.6188 Y2.4749 I-0.1004 J0.0
G2 Y2.6488 I0.0502 J0.0869
G2 X0.7694 Y2.5618 I0.0502 J-0.0869
G1 F10.0 Z-0.05
G2 F15.0 X0.6188 Y2.4749 I-0.1004 J0.0
G2 Y2.6488 I0.0502 J0.0869
G2 X0.7694 Y2.5618 I0.0502 J-0.0869
G1 F10.0 Z-0.06
G2 F15.0 X0.6188 Y2.4749 I-0.1004 J0.0
G2 Y2.6488 I0.0502 J0.0869
G2 X0.7694 Y2.5618 I0.0502 J-0.0869
G1 F10.0 Z-0.07
G2 F15.0 X0.6188 Y2.4749 I-0.1004 J0.0
G2 Y2.6488 I0.0502 J0.0869
G2 X0.7694 Y2.5618 I0.0502 J-0.0869
G1 F10.0 Z-0.075
G2 F15.0 X0.6188 Y2.4749 I-0.1004 J0.0
G2 Y2.6488 I0.0502 J0.0869
G2 X0.7694 Y2.5618 I0.0502 J-0.0869
G0 Z0.125
G0 X1.1592
G0 Z0.0625
G1 F10.0 Z-0.01
G2 F15.0 X1.2094 Y2.6488 I0.1004 J0.0
G2 X1.36 Y2.5618 I0.0502 J-0.0869
G2 X1.2094 Y2.4749 I-0.1004 J0.0
G2 X1.1592 Y2.5618 I0.0502 J0.0869
G1 F10.0 Z-0.02
G2 F15.0 X1.2094 Y2.6488 I0.1004 J0.0
G2 X1.36 Y2.5618 I0.0502 J-0.0869
G2 X1.2094 Y2.4749 I-0.1004 J0.0
G2 X1.1592 Y2.5618 I0.0502 J0.0869
G1 F10.0 Z-0.03
G2 F15.0 X1.2094 Y2.6488 I0.1004 J0.0
G2 X1.36 Y2.5618 I0.0502 J-0.0869
G2 X1.2094 Y2.4749 I-0.1004 J0.0
G2 X1.1592 Y2.5618 I0.0502 J0.0869
G1 F10.0 Z-0.04
G2 F15.0 X1.2094 Y2.6488 I0.1004 J0.0
G2 X1.36 Y2.5618 I0.0502 J-0.0869
G2 X1.2094 Y2.4749 I-0.1004 J0.0
G2 X1.1592 Y2.5618 I0.0502 J0.0869
G1 F10.0 Z-0.05
G2 F15.0 X1.2094 Y2.6488 I0.1004 J0.0
G2 X1.36 Y2.5618 I0.0502 J-0.0869
G2 X1.2094 Y2.4749 I-0.1004 J0.0
G2 X1.1592 Y2.5618 I0.0502 J0.0869
G1 F10.0 Z-0.06
G2 F15.0 X1.2094 Y2.6488 I0.1004 J0.0
G2 X1.36 Y2.5618 I0.0502 J-0.0869
G2 X1.2094 Y2.4749 I-0.1004 J0.0
G2 X1.1592 Y2.5618 I0.0502 J0.0869
G1 F10.0 Z-0.07
G2 F15.0 X1.2094 Y2.6488 I0.1004 J0.0
G2 X1.36 Y2.5618 I0.0502 J-0.0869
G2 X1.2094 Y2.4749 I-0.1004 J0.0
G2 X1.1592 Y2.5618 I0.0502 J0.0869
G1 F10.0 Z-0.075
G2 F15.0 X1.2094 Y2.6488 I0.1004 J0.0
G2 X1.36 Y2.5618 I0.0502 J-0.0869
G2 X1.2094 Y2.4749 I-0.1004 J0.0
G2 X1.1592 Y2.5618 I0.0502 J0.0869
G0 Z0.125
G0 X2.6419 Y1.6404
G0 Z0.0625
G1 F10.0 Z-0.01
G2 F15.0 X2.6751 Y1.6726 I0.0808 J-0.0502
G2 X2.8177 Y1.5902 I0.0475 J-0.0823
G2 X2.6751 Y1.5079 I-0.0951 J0.0
G2 X2.6419 Y1.6404 I0.0475 J0.0823
G1 F10.0 Z-0.02
G2 F15.0 X2.6751 Y1.6726 I0.0808 J-0.0502
G2 X2.8177 Y1.5902 I0.0475 J-0.0823
G2 X2.6751 Y1.5079 I-0.0951 J0.0
G2 X2.6419 Y1.6404 I0.0475 J0.0823
G1 F10.0 Z-0.03
G2 F15.0 X2.6751 Y1.6726 I0.0808 J-0.0502
G2 X2.8177 Y1.5902 I0.0475 J-0.0823
G2 X2.6751 Y1.5079 I-0.0951 J0.0
G2 X2.6419 Y1.6404 I0.0475 J0.0823
G1 F10.0 Z-0.04
G2 F15.0 X2.6751 Y1.6726 I0.0808 J-0.0502
G2 X2.8177 Y1.5902 I0.0475 J-0.0823
G2 X2.6751 Y1.5079 I-0.0951 J0.0
G2 X2.6419 Y1.6404 I0.0475 J0.0823
G1 F10.0 Z-0.05
G2 F15.0 X2.6751 Y1.6726 I0.0808 J-0.0502
G2 X2.8177 Y1.5902 I0.0475 J-0.0823
G2 X2.6751 Y1.5079 I-0.0951 J0.0
G2 X2.6419 Y1.6404 I0.0475 J0.0823
G1 F10.0 Z-0.06
G2 F15.0 X2.6751 Y1.6726 I0.0808 J-0.0502
G2 X2.8177 Y1.5902 I0.0475 J-0.0823
G2 X2.6751 Y1.5079 I-0.0951 J0.0
G2 X2.6419 Y1.6404 I0.0475 J0.0823
G1 F10.0 Z-0.07
G2 F15.0 X2.6751 Y1.6726 I0.0808 J-0.0502
G2 X2.8177 Y1.5902 I0.0475 J-0.0823
G2 X2.6751 Y1.5079 I-0.0951 J0.0
G2 X2.6419 Y1.6404 I0.0475 J0.0823
G1 F10.0 Z-0.075
G2 F15.0 X2.6751 Y1.6726 I0.0808 J-0.0502
G2 X2.8177 Y1.5902 I0.0475 J-0.0823
G2 X2.6751 Y1.5079 I-0.0951 J0.0
G2 X2.6419 Y1.6404 I0.0475 J0.0823
G0 Z0.125
G0 X2.7164 Y0.4877
G0 Z0.0625
G1 F10.0 Z-0.01
G2 F15.0 X2.8211 Y0.3894 I0.0063 J-0.0982
G2 X2.6735 Y0.3042 I-0.0984 J0.0
G2 Y0.4747 I0.0492 J0.0852
G2 X2.7164 Y0.4877 I0.0492 J-0.0852
G1 F10.0 Z-0.02
G2 F15.0 X2.8211 Y0.3894 I0.0063 J-0.0982
G2 X2.6735 Y0.3042 I-0.0984 J0.0
G2 Y0.4747 I0.0492 J0.0852
G2 X2.7164 Y0.4877 I0.0492 J-0.0852
G1 F10.0 Z-0.03
G2 F15.0 X2.8211 Y0.3894 I0.0063 J-0.0982
G2 X2.6735 Y0.3042 I-0.0984 J0.0
G2 Y0.4747 I0.0492 J0.0852
G2 X2.7164 Y0.4877 I0.0492 J-0.0852
G1 F10.0 Z-0.04
G2 F15.0 X2.8211 Y0.3894 I0.0063 J-0.0982
G2 X2.6735 Y0.3042 I-0.0984 J0.0
G2 Y0.4747 I0.0492 J0.0852
G2 X2.7164 Y0.4877 I0.0492 J-0.0852
G1 F10.0 Z-0.05
G2 F15.0 X2.8211 Y0.3894 I0.0063 J-0.0982
G2 X2.6735 Y0.3042 I-0.0984 J0.0
G2 Y0.4747 I0.0492 J0.0852
G2 X2.7164 Y0.4877 I0.0492 J-0.0852
G1 F10.0 Z-0.06
G2 F15.0 X2.8211 Y0.3894 I0.0063 J-0.0982
G2 X2.6735 Y0.3042 I-0.0984 J0.0
G2 Y0.4747 I0.0492 J0.0852
G2 X2.7164 Y0.4877 I0.0492 J-0.0852
G1 F10.0 Z-0.07
G2 F15.0 X2.8211 Y0.3894 I0.0063 J-0.0982
G2 X2.6735 Y0.3042 I-0.0984 J0.0
G2 Y0.4747 I0.0492 J0.0852
G2 X2.7164 Y0.4877 I0.0492 J-0.0852
G1 F10.0 Z-0.075
G2 F15.0 X2.8211 Y0.3894 I0.0063 J-0.0982
G2 X2.6735 Y0.3042 I-0.0984 J0.0
G2 Y0.4747 I0.0492 J0.0852
G2 X2.7164 Y0.4877 I0.0492 J-0.0852
G0 Z0.125
G0 X1.9406 Y0.6279
G0 Z0.0625
G1 F10.0 Z-0.01
G2 F15.0 X1.7916 Y0.5588 I-0.0988 J0.0179
G2 Y0.7327 I0.0502 J0.0869
G2 X1.9422 Y0.6458 I0.0502 J-0.0869
G2 X1.9406 Y0.6279 I-0.1004 J0.0
G1 F10.0 Z-0.02
G2 F15.0 X1.7916 Y0.5588 I-0.0988 J0.0179
G2 Y0.7327 I0.0502 J0.0869
G2 X1.9422 Y0.6458 I0.0502 J-0.0869
G2 X1.9406 Y0.6279 I-0.1004 J0.0
G1 F10.0 Z-0.03
G2 F15.0 X1.7916 Y0.5588 I-0.0988 J0.0179
G2 Y0.7327 I0.0502 J0.0869
G2 X1.9422 Y0.6458 I0.0502 J-0.0869
G2 X1.9406 Y0.6279 I-0.1004 J0.0
G1 F10.0 Z-0.04
G2 F15.0 X1.7916 Y0.5588 I-0.0988 J0.0179
G2 Y0.7327 I0.0502 J0.0869
G2 X1.9422 Y0.6458 I0.0502 J-0.0869
G2 X1.9406 Y0.6279 I-0.1004 J0.0
G1 F10.0 Z-0.05
G2 F15.0 X1.7916 Y0.5588 I-0.0988 J0.0179
G2 Y0.7327 I0.0502 J0.0869
G2 X1.9422 Y0.6458 I0.0502 J-0.0869
G2 X1.9406 Y0.6279 I-0.1004 J0.0
G1 F10.0 Z-0.06
G2 F15.0 X1.7916 Y0.5588 I-0.0988 J0.0179
G2 Y0.7327 I0.0502 J0.0869
G2 X1.9422 Y0.6458 I0.0502 J-0.0869
G2 X1.9406 Y0.6279 I-0.1004 J0.0
G1 F10.0 Z-0.07
G2 F15.0 X1.7916 Y0.5588 I-0.0988 J0.0179
G2 Y0.7327 I0.0502 J0.0869
G2 X1.9422 Y0.6458 I0.0502 J-0.0869
G2 X1.9406 Y0.6279 I-0.1004 J0.0
G1 F10.0 Z-0.075
G2 F15.0 X1.7916 Y0.5588 I-0.0988 J0.0179
G2 Y0.7327 I0.0502 J0.0869
G2 X1.9422 Y0.6458 I0.0502 J-0.0869
G2 X1.9406 Y0.6279 I-0.1004 J0.0
G0 Z0.125
G0 X1.3517 Y0.6432
G0 Z0.0625
G1 F10.0 Z-0.01
G2 F15.0 X1.2011 Y0.5588 I-0.1004 J0.0026
G2 Y0.7327 I0.0502 J0.0869
G2 X1.3517 Y0.6458 I0.0502 J-0.0869
G2 Y0.6432 I-0.1004 J0.0
G1 F10.0 Z-0.02
G2 F15.0 X1.2011 Y0.5588 I-0.1004 J0.0026
G2 Y0.7327 I0.0502 J0.0869
G2 X1.3517 Y0.6458 I0.0502 J-0.0869
G2 Y0.6432 I-0.1004 J0.0
G1 F10.0 Z-0.03
G2 F15.0 X1.2011 Y0.5588 I-0.1004 J0.0026
G2 Y0.7327 I0.0502 J0.0869
G2 X1.3517 Y0.6458 I0.0502 J-0.0869
G2 Y0.6432 I-0.1004 J0.0
G1 F10.0 Z-0.04
G2 F15.0 X1.2011 Y0.5588 I-0.1004 J0.0026
G2 Y0.7327 I0.0502 J0.0869
G2 X1.3517 Y0.6458 I0.0502 J-0.0869
G2 Y0.6432 I-0.1004 J0.0
G1 F10.0 Z-0.05
G2 F15.0 X1.2011 Y0.5588 I-0.1004 J0.0026
G2 Y0.7327 I0.0502 J0.0869
G2 X1.3517 Y0.6458 I0.0502 J-0.0869
G2 Y0.6432 I-0.1004 J0.0
G1 F10.0 Z-0.06
G2 F15.0 X1.2011 Y0.5588 I-0.1004 J0.0026
G2 Y0.7327 I0.0502 J0.0869
G2 X1.3517 Y0.6458 I0.0502 J-0.0869
G2 Y0.6432 I-0.1004 J0.0
G1 F10.0 Z-0.07
G2 F15.0 X1.2011 Y0.5588 I-0.1004 J0.0026
G2 Y0.7327 I0.0502 J0.0869
G2 X1.3517 Y0.6458 I0.0502 J-0.0869
G2 Y0.6432 I-0.1004 J0.0
G1 F10.0 Z-0.075
G2 F15.0 X1.2011 Y0.5588 I-0.1004 J0.0026
G2 Y0.7327 I0.0502 J0.0869
G2 X1.3517 Y0.6458 I0.0502 J-0.0869
G2 Y0.6432 I-0.1004 J0.0
G0 Z0.125
G0 X2.726 Y3.7548
G0 Z0.0625
G1 F10.0 Z-0.01
G2 F15.0 X2.7184 Y3.7587 I0.0319 J0.0723
G2 Y3.8956 I0.0395 J0.0685
G2 X2.837 Y3.8272 I0.0395 J-0.0685
G2 X2.726 Y3.7548 I-0.0791 J0.0
G1 F10.0 Z-0.02
G2 F15.0 X2.7184 Y3.7587 I0.0319 J0.0723
G2 Y3.8956 I0.0395 J0.0685
G2 X2.837 Y3.8272 I0.0395 J-0.0685
G2 X2.726 Y3.7548 I-0.0791 J0.0
G1 F10.0 Z-0.03
G2 F15.0 X2.7184 Y3.7587 I0.0319 J0.0723
G2 Y3.8956 I0.0395 J0.0685
G2 X2.837 Y3.8272 I0.0395 J-0.0685
G2 X2.726 Y3.7548 I-0.0791 J0.0
G1 F10.0 Z-0.04
G2 F15.0 X2.7184 Y3.7587 I0.0319 J0.0723
G2 Y3.8956 I0.0395 J0.0685
G2 X2.837 Y3.8272 I0.0395 J-0.0685
G2 X2.726 Y3.7548 I-0.0791 J0.0
G1 F10.0 Z-0.05
G2 F15.0 X2.7184 Y3.7587 I0.0319 J0.0723
G2 Y3.8956 I0.0395 J0.0685
G2 X2.837 Y3.8272 I0.0395 J-0.0685
G2 X2.726 Y3.7548 I-0.0791 J0.0
G1 F10.0 Z-0.06
G2 F15.0 X2.7184 Y3.7587 I0.0319 J0.0723
G2 Y3.8956 I0.0395 J0.0685
G2 X2.837 Y3.8272 I0.0395 J-0.0685
G2 X2.726 Y3.7548 I-0.0791 J0.0
G1 F10.0 Z-0.07
G2 F15.0 X2.7184 Y3.7587 I0.0319 J0.0723
G2 Y3.8956 I0.0395 J0.0685
G2 X2.837 Y3.8272 I0.0395 J-0.0685
G2 X2.726 Y3.7548 I-0.0791 J0.0
G1 F10.0 Z-0.075
G2 F15.0 X2.7184 Y3.7587 I0.0319 J0.0723
G2 Y3.8956 I0.0395 J0.0685
G2 X2.837 Y3.8272 I0.0395 J-0.0685
G2 X2.726 Y3.7548 I-0.0791 J0.0
G0 Z0.125
G0 X2.7555 Y4.7504
G0 Z0.0625
G1 F10.0 Z-0.01
G2 F15.0 X2.717 Y4.7613 I0.0024 J0.0818
G2 Y4.9031 I0.0409 J0.0709
G2 X2.8398 Y4.8322 I0.0409 J-0.0709
G2 X2.7555 Y4.7504 I-0.0819 J0.0
G1 F10.0 Z-0.02
G2 F15.0 X2.717 Y4.7613 I0.0024 J0.0818
G2 Y4.9031 I0.0409 J0.0709
G2 X2.8398 Y4.8322 I0.0409 J-0.0709
G2 X2.7555 Y4.7504 I-0.0819 J0.0
G1 F10.0 Z-0.03
G2 F15.0 X2.717 Y4.7613 I0.0024 J0.0818
G2 Y4.9031 I0.0409 J0.0709
G2 X2.8398 Y4.8322 I0.0409 J-0.0709
G2 X2.7555 Y4.7504 I-0.0819 J0.0
G1 F10.0 Z-0.04
G2 F15.0 X2.717 Y4.7613 I0.0024 J0.0818
G2 Y4.9031 I0.0409 J0.0709
G2 X2.8398 Y4.8322 I0.0409 J-0.0709
G2 X2.7555 Y4.7504 I-0.0819 J0.0
G1 F10.0 Z-0.05
G2 F15.0 X2.717 Y4.7613 I0.0024 J0.0818
G2 Y4.9031 I0.0409 J0.0709
G2 X2.8398 Y4.8322 I0.0409 J-0.0709
G2 X2.7555 Y4.7504 I-0.0819 J0.0
G1 F10.0 Z-0.06
G2 F15.0 X2.717 Y4.7613 I0.0024 J0.0818
G2 Y4.9031 I0.0409 J0.0709
G2 X2.8398 Y4.8322 I0.0409 J-0.0709
G2 X2.7555 Y4.7504 I-0.0819 J0.0
G1 F10.0 Z-0.07
G2 F15.0 X2.717 Y4.7613 I0.0024 J0.0818
G2 Y4.9031 I0.0409 J0.0709
G2 X2.8398 Y4.8322 I0.0409 J-0.0709
G2 X2.7555 Y4.7504 I-0.0819 J0.0
G1 F10.0 Z-0.075
G2 F15.0 X2.717 Y4.7613 I0.0024 J0.0818
G2 Y4.9031 I0.0409 J0.0709
G2 X2.8398 Y4.8322 I0.0409 J-0.0709
G2 X2.7555 Y4.7504 I-0.0819 J0.0
G0 Z0.125
G0 X3.8137 Y4.8263
G0 Z0.0625
G1 F10.0 Z-0.01
G2 F15.0 X3.8545 Y4.9031 I0.0817 J0.0059
G2 X3.9773 Y4.8322 I0.0409 J-0.0709
G2 X3.8545 Y4.7613 I-0.0819 J0.0
G2 X3.8137 Y4.8263 I0.0409 J0.0709
G1 F10.0 Z-0.02
G2 F15.0 X3.8545 Y4.9031 I0.0817 J0.0059
G2 X3.9773 Y4.8322 I0.0409 J-0.0709
G2 X3.8545 Y4.7613 I-0.0819 J0.0
G2 X3.8137 Y4.8263 I0.0409 J0.0709
G1 F10.0 Z-0.03
G2 F15.0 X3.8545 Y4.9031 I0.0817 J0.0059
G2 X3.9773 Y4.8322 I0.0409 J-0.0709
G2 X3.8545 Y4.7613 I-0.0819 J0.0
G2 X3.8137 Y4.8263 I0.0409 J0.0709
G1 F10.0 Z-0.04
G2 F15.0 X3.8545 Y4.9031 I0.0817 J0.0059
G2 X3.9773 Y4.8322 I0.0409 J-0.0709
G2 X3.8545 Y4.7613 I-0.0819 J0.0
G2 X3.8137 Y4.8263 I0.0409 J0.0709
G1 F10.0 Z-0.05
G2 F15.0 X3.8545 Y4.9031 I0.0817 J0.0059
G2 X3.9773 Y4.8322 I0.0409 J-0.0709
G2 X3.8545 Y4.7613 I-0.0819 J0.0
G2 X3.8137 Y4.8263 I0.0409 J0.0709
G1 F10.0 Z-0.06
G2 F15.0 X3.8545 Y4.9031 I0.0817 J0.0059
G2 X3.9773 Y4.8322 I0.0409 J-0.0709
G2 X3.8545 Y4.7613 I-0.0819 J0.0
G2 X3.8137 Y4.8263 I0.0409 J0.0709
G1 F10.0 Z-0.07
G2 F15.0 X3.8545 Y4.9031 I0.0817 J0.0059
G2 X3.9773 Y4.8322 I0.0409 J-0.0709
G2 X3.8545 Y4.7613 I-0.0819 J0.0
G2 X3.8137 Y4.8263 I0.0409 J0.0709
G1 F10.0 Z-0.075
G2 F15.0 X3.8545 Y4.9031 I0.0817 J0.0059
G2 X3.9773 Y4.8322 I0.0409 J-0.0709
G2 X3.8545 Y4.7613 I-0.0819 J0.0
G2 X3.8137 Y4.8263 I0.0409 J0.0709
G0 Z0.125
G0 X3.8885 Y3.9116
G0 Z0.0625
G1 F10.0 Z-0.01
G2 F15.0 X3.9802 Y3.8272 I0.0069 J-0.0845
G2 X3.853 Y3.7538 I-0.0847 J0.0
G2 Y3.9005 I0.0424 J0.0734
G2 X3.8885 Y3.9116 I0.0424 J-0.0734
G1 F10.0 Z-0.02
G2 F15.0 X3.9802 Y3.8272 I0.0069 J-0.0845
G2 X3.853 Y3.7538 I-0.0847 J0.0
G2 Y3.9005 I0.0424 J0.0734
G2 X3.8885 Y3.9116 I0.0424 J-0.0734
G1 F10.0 Z-0.03
G2 F15.0 X3.9802 Y3.8272 I0.0069 J-0.0845
G2 X3.853 Y3.7538 I-0.0847 J0.0
G2 Y3.9005 I0.0424 J0.0734
G2 X3.8885 Y3.9116 I0.0424 J-0.0734
G1 F10.0 Z-0.04
G2 F15.0 X3.9802 Y3.8272 I0.0069 J-0.0845
G2 X3.853 Y3.7538 I-0.0847 J0.0
G2 Y3.9005 I0.0424 J0.0734
G2 X3.8885 Y3.9116 I0.0424 J-0.0734
G1 F10.0 Z-0.05
G2 F15.0 X3.9802 Y3.8272 I0.0069 J-0.0845
G2 X3.853 Y3.7538 I-0.0847 J0.0
G2 Y3.9005 I0.0424 J0.0734
G2 X3.8885 Y3.9116 I0.0424 J-0.0734
G1 F10.0 Z-0.06
G2 F15.0 X3.9802 Y3.8272 I0.0069 J-0.0845
G2 X3.853 Y3.7538 I-0.0847 J0.0
G2 Y3.9005 I0.0424 J0.0734
G2 X3.8885 Y3.9116 I0.0424 J-0.0734
G1 F10.0 Z-0.07
G2 F15.0 X3.9802 Y3.8272 I0.0069 J-0.0845
G2 X3.853 Y3.7538 I-0.0847 J0.0
G2 Y3.9005 I0.0424 J0.0734
G2 X3.8885 Y3.9116 I0.0424 J-0.0734
G1 F10.0 Z-0.075
G2 F15.0 X3.9802 Y3.8272 I0.0069 J-0.0845
G2 X3.853 Y3.7538 I-0.0847 J0.0
G2 Y3.9005 I0.0424 J0.0734
G2 X3.8885 Y3.9116 I0.0424 J-0.0734
( outline )
S1000
G0 Z0.125
G0 X2.5158 Y0.1006
G0 Z0.0625
G1 F10.0 Z-0.01
G1 F15.0 X2.9359
G3 X3.1234 Y0.2881 I0.0 J0.1875
G1 X3.1233 Y1.6916
G3 X2.9358 Y1.8791 I-0.1875 J0.0
G1 X2.5799
G3 X2.3924 Y1.6916 I0.0 J-0.1875
G1 Y1.3539
G1 X0.6254 Y1.3538
G3 X0.4379 Y1.1662 I0.0 J-0.1875
G1 X0.438 Y0.125
G3 X0.6256 Y-0.0625 I0.1875 J0.0
G1 X2.3299 Y-0.0623
G3 X2.5158 Y0.1006 I0.0 J0.1875
G1 F10.0 Z-0.02
G1 F15.0 X2.9359
G3 X3.1234 Y0.2881 I0.0 J0.1875
G1 X3.1233 Y1.6916
G3 X2.9358 Y1.8791 I-0.1875 J0.0
G1 X2.5799
G3 X2.3924 Y1.6916 I0.0 J-0.1875
G1 Y1.3539
G1 X0.6254 Y1.3538
G3 X0.4379 Y1.1662 I0.0 J-0.1875
G1 X0.438 Y0.125
G3 X0.6256 Y-0.0625 I0.1875 J0.0
G1 X2.3299 Y-0.0623
G3 X2.5158 Y0.1006 I0.0 J0.1875
G1 F10.0 Z-0.03
G1 F15.0 X2.9359
G3 X3.1234 Y0.2881 I0.0 J0.1875
G1 X3.1233 Y1.6916
G3 X2.9358 Y1.8791 I-0.1875 J0.0
G1 X2.5799
G3 X2.3924 Y1.6916 I0.0 J-0.1875
G1 Y1.3539
G1 X0.6254 Y1.3538
G3 X0.4379 Y1.1662 I0.0 J-0.1875
G1 X0.438 Y0.125
G3 X0.6256 Y-0.0625 I0.1875 J0.0
G1 X2.3299 Y-0.0623
G3 X2.5158 Y0.1006 I0.0 J0.1875
G1 F10.0 Z-0.04
G1 F15.0 X2.9359
G3 X3.1234 Y0.2881 I0.0 J0.1875
G1 X3.1233 Y1.6916
G3 X2.9358 Y1.8791 I-0.1875 J0.0
G1 X2.5799
G3 X2.3924 Y1.6916 I0.0 J-0.1875
G1 Y1.3539
G1 X0.6254 Y1.3538
G3 X0.4379 Y1.1662 I0.0 J-0.1875
G1 X0.438 Y0.125
G3 X0.6256 Y-0.0625 I0.1875 J0.0
G1 X2.3299 Y-0.0623
G3 X2.5158 Y0.1006 I0.0 J0.1875
G1 F10.0 Z-0.05
G1 F15.0 X2.9359
G3 X3.1234 Y0.2881 I0.0 J0.1875
G1 X3.1233 Y1.6916
G3 X2.9358 Y1.8791 I-0.1875 J0.0
G1 X2.5799
G3 X2.3924 Y1.6916 I0.0 J-0.1875
G1 Y1.3539
G1 X0.6254 Y1.3538
G3 X0.4379 Y1.1662 I0.0 J-0.1875
G1 X0.438 Y0.125
G3 X0.6256 Y-0.0625 I0.1875 J0.0
G1 X2.3299 Y-0.0623
G3 X2.5158 Y0.1006 I0.0 J0.1875
G1 F10.0 Z-0.06
G1 F15.0 X2.9359
G3 X3.1234 Y0.2881 I0.0 J0.1875
G1 X3.1233 Y1.6916
G3 X2.9358 Y1.8791 I-0.1875 J0.0
G1 X2.5799
G3 X2.3924 Y1.6916 I0.0 J-0.1875
G1 Y1.3539
G1 X0.6254 Y1.3538
G3 X0.4379 Y1.1662 I0.0 J-0.1875
G1 X0.438 Y0.125
G3 X0.6256 Y-0.0625 I0.1875 J0.0
G1 X2.3299 Y-0.0623
G3 X2.5158 Y0.1006 I0.0 J0.1875
G1 F10.0 Z-0.07
G1 F15.0 X2.9359
G3 X3.1234 Y0.2881 I0.0 J0.1875
G1 X3.1233 Y1.6916
G3 X2.9358 Y1.8791 I-0.1875 J0.0
G1 X2.5799
G3 X2.3924 Y1.6916 I0.0 J-0.1875
G1 Y1.3539
G1 X0.6254 Y1.3538
G3 X0.4379 Y1.1662 I0.0 J-0.1875
G1 X0.438 Y0.125
G3 X0.6256 Y-0.0625 I0.1875 J0.0
G1 X2.3299 Y-0.0623
G3 X2.5158 Y0.1006 I0.0 J0.1875
G1 F10.0 Z-0.075
G1 F15.0 X2.9359
G3 X3.1234 Y0.2881 I0.0 J0.1875
G1 X3.1233 Y1.6916
G3 X2.9358 Y1.8791 I-0.1875 J0.0
G1 X2.5799
G3 X2.3924 Y1.6916 I0.0 J-0.1875
G1 Y1.3539
G1 X0.6254 Y1.3538
G3 X0.4379 Y1.1662 I0.0 J-0.1875
G1 X0.438 Y0.125
G3 X0.6256 Y-0.0625 I0.1875 J0.0
G1 X2.3299 Y-0.0623
G3 X2.5158 Y0.1006 I0.0 J0.1875
G0 Z0.125
G0 X1.6719 Y1.86
G0 Z0.0625
G1 F10.0 Z-0.01
G3 F15.0 X1.7074 Y1.9164 I-0.027 J0.0564
G1 X1.7073 Y3.0149
G1 X1.9291
G3 X2.2416 Y3.3274 I0.0 J0.3125
G1 Y3.4822
G1 X3.9742
G3 X4.1617 Y3.6697 I0.0 J0.1875
G1 Y5.1147
G3 X3.9742 Y5.3022 I-0.1875 J0.0
G1 X2.6792
G3 X2.4917 Y5.1147 I0.0 J-0.1875
G1 Y4.5772
G1 X0.8222 Y4.5771
G3 X0.7694 Y4.5481 I0.0 J-0.0625
G1 X-0.053 Y3.2488
G3 X-0.0627 Y3.2154 I0.0528 J-0.0334
G1 X-0.0626 Y1.9162
G3 X-0.0001 Y1.8538 I0.0625 J0.0
G1 X1.6449
G3 X1.6719 Y1.86 I0.0 J0.0625
G1 F10.0 Z-0.02
G3 F15.0 X1.7074 Y1.9164 I-0.027 J0.0564
G1 X1.7073 Y3.0149
G1 X1.9291
G3 X2.2416 Y3.3274 I0.0 J0.3125
G1 Y3.4822
G1 X3.9742
G3 X4.1617 Y3.6697 I0.0 J0.1875
G1 Y5.1147
G3 X3.9742 Y5.3022 I-0.1875 J0.0
G1 X2.6792
G3 X2.4917 Y5.1147 I0.0 J-0.1875
G1 Y4.5772
G1 X0.8222 Y4.5771
G3 X0.7694 Y4.5481 I0.0 J-0.0625
G1 X-0.053 Y3.2488
G3 X-0.0627 Y3.2154 I0.0528 J-0.0334
G1 X-0.0626 Y1.9162
G3 X-0.0001 Y1.8538 I0.0625 J0.0
G1 X1.6449
G3 X1.6719 Y1.86 I0.0 J0.0625
G1 F10.0 Z-0.03
G3 F15.0 X1.7074 Y1.9164 I-0.027 J0.0564
G1 X1.7073 Y3.0149
G1 X1.9291
G3 X2.2416 Y3.3274 I0.0 J0.3125
G1 Y3.4822
G1 X3.9742
G3 X4.1617 Y3.6697 I0.0 J0.1875
G1 Y5.1147
G3 X3.9742 Y5.3022 I-0.1875 J0.0
G1 X2.6792
G3 X2.4917 Y5.1147 I0.0 J-0.1875
G1 Y4.5772
G1 X0.8222 Y4.5771
G3 X0.7694 Y4.5481 I0.0 J-0.0625
G1 X-0.053 Y3.2488
G3 X-0.0627 Y3.2154 I0.0528 J-0.0334
G1 X-0.0626 Y1.9162
G3 X-0.0001 Y1.8538 I0.0625 J0.0
G1 X1.6449
G3 X1.6719 Y1.86 I0.0 J0.0625
G1 F10.0 Z-0.04
G3 F15.0 X1.7074 Y1.9164 I-0.027 J0.0564
G1 X1.7073 Y3.0149
G1 X1.9291
G3 X2.2416 Y3.3274 I0.0 J0.3125
G1 Y3.4822
G1 X3.9742
G3 X4.1617 Y3.6697 I0.0 J0.1875
G1 Y5.1147
G3 X3.9742 Y5.3022 I-0.1875 J0.0
G1 X2.6792
G3 X2.4917 Y5.1147 I0.0 J-0.1875
G1 Y4.5772
G1 X0.8222 Y4.5771
G3 X0.7694 Y4.5481 I0.0 J-0.0625
G1 X-0.053 Y3.2488
G3 X-0.0627 Y3.2154 I0.0528 J-0.0334
G1 X-0.0626 Y1.9162
G3 X-0.0001 Y1.8538 I0.0625 J0.0
G1 X1.6449
G3 X1.6719 Y1.86 I0.0 J0.0625
G1 F10.0 Z-0.05
G3 F15.0 X1.7074 Y1.9164 I-0.027 J0.0564
G1 X1.7073 Y3.0149
G1 X1.9291
G3 X2.2416 Y3.3274 I0.0 J0.3125
G1 Y3.4822
G1 X3.9742
G3 X4.1617 Y3.6697 I0.0 J0.1875
G1 Y5.1147
G3 X3.9742 Y5.3022 I-0.1875 J0.0
G1 X2.6792
G3 X2.4917 Y5.1147 I0.0 J-0.1875
G1 Y4.5772
G1 X0.8222 Y4.5771
G3 X0.7694 Y4.5481 I0.0 J-0.0625
G1 X-0.053 Y3.2488
G3 X-0.0627 Y3.2154 I0.0528 J-0.0334
G1 X-0.0626 Y1.9162
G3 X-0.0001 Y1.8538 I0.0625 J0.0
G1 X1.6449
G3 X1.6719 Y1.86 I0.0 J0.0625
G1 F10.0 Z-0.06
G3 F15.0 X1.7074 Y1.9164 I-0.027 J0.0564
G1 X1.7073 Y3.0149
G1 X1.9291
G3 X2.2416 Y3.3274 I0.0 J0.3125
G1 Y3.4822
G1 X3.9742
G3 X4.1617 Y3.6697 I0.0 J0.1875
G1 Y5.1147
G3 X3.9742 Y5.3022 I-0.1875 J0.0
G1 X2.6792
G3 X2.4917 Y5.1147 I0.0 J-0.1875
G1 Y4.5772
G1 X0.8222 Y4.5771
G3 X0.7694 Y4.5481 I0.0 J-0.0625
G1 X-0.053 Y3.2488
G3 X-0.0627 Y3.2154 I0.0528 J-0.0334
G1 X-0.0626 Y1.9162
G3 X-0.0001 Y1.8538 I0.0625 J0.0
G1 X1.6449
G3 X1.6719 Y1.86 I0.0 J0.0625
G1 F10.0 Z-0.07
G3 F15.0 X1.7074 Y1.9164 I-0.027 J0.0564
G1 X1.7073 Y3.0149
G1 X1.9291
G3 X2.2416 Y3.3274 I0.0 J0.3125
G1 Y3.4822
G1 X3.9742
G3 X4.1617 Y3.6697 I0.0 J0.1875
G1 Y5.1147
G3 X3.9742 Y5.3022 I-0.1875 J0.0
G1 X2.6792
G3 X2.4917 Y5.1147 I0.0 J-0.1875
G1 Y4.5772
G1 X0.8222 Y4.5771
G3 X0.7694 Y4.5481 I0.0 J-0.0625
G1 X-0.053 Y3.2488
G3 X-0.0627 Y3.2154 I0.0528 J-0.0334
G1 X-0.0626 Y1.9162
G3 X-0.0001 Y1.8538 I0.0625 J0.0
G1 X1.6449
G3 X1.6719 Y1.86 I0.0 J0.0625
G1 F10.0 Z-0.075
G3 F15.0 X1.7074 Y1.9164 I-0.027 J0.0564
G1 X1.7073 Y3.0149
G1 X1.9291
G3 X2.2416 Y3.3274 I0.0 J0.3125
G1 Y3.4822
G1 X3.9742
G3 X4.1617 Y3.6697 I0.0 J0.1875
G1 Y5.1147
G3 X3.9742 Y5.3022 I-0.1875 J0.0
G1 X2.6792
G3 X2.4917 Y5.1147 I0.0 J-0.1875
G1 Y4.5772
G1 X0.8222 Y4.5771
G3 X0.7694 Y4.5481 I0.0 J-0.0625
G1 X-0.053 Y3.2488
G3 X-0.0627 Y3.2154 I0.0528 J-0.0334
G1 X-0.0626 Y1.9162
G3 X-0.0001 Y1.8538 I0.0625 J0.0
G1 X1.6449
G3 X1.6719 Y1.86 I0.0 J0.0625
G0 Z0.125
M5
M30
