; generated by Slic3r 1.1.7 on 2014-10-07 at 00:45:14

; perimeters extrusion width = 0.40mm
; infill extrusion width = 0.42mm
; solid infill extrusion width = 0.42mm
; top infill extrusion width = 0.42mm
; support material extrusion width = 0.40mm

G21 ; set units to millimeters
M107
M104 S185 ; set temperature
G92 X0 Y0 Z0
G1 Z5 F5000 ; lift nozzle

M109 S185 ; wait for temperature to be reached
G90 ; use absolute coordinates
G92 E0
M82 ; use absolute distances for extrusion
M204 S635
G1 F1800.000 E-1.00000
G92 E0
G1 Z0.350 F2400.000
G1 X129.030 Y121.848 F2400.000
G1 E1.00000 F1800.000
G1 X130.783 Y120.366 E1.21230 F630.000
G1 X132.936 Y119.570 E1.42459
G1 X134.125 Y119.463 E1.53502
G1 X163.134 Y119.477 E4.21810
G1 X164.452 Y119.626 E4.34078 F630.000
G1 X165.655 Y119.923 E4.45534
G1 X166.850 Y120.389 E4.57400
G1 X168.010 Y121.031 E4.69666
G1 X169.008 Y121.766 E4.81127
G1 X169.934 Y122.653 E4.92990
G1 X170.179 Y122.933 E4.96427
G1 X170.736 Y123.654 E5.04855
G1 X170.942 Y123.963 E5.08291
G1 X171.401 Y124.751 E5.16726
G1 X171.565 Y125.085 E5.20163
G1 X171.917 Y125.926 E5.28595
G1 X172.036 Y126.278 E5.32031
G1 X172.275 Y127.157 E5.40463
G1 X172.469 Y128.425 E5.52327
G1 X172.511 Y129.274 E5.60183
G1 X172.496 Y171.160 E9.47596
G1 X172.472 Y171.532 E9.51038
G1 X172.356 Y172.435 E9.59466
G1 X172.283 Y172.800 E9.62902
G1 X172.050 Y173.681 E9.71335
G1 X171.931 Y174.033 E9.74772
G1 X171.585 Y174.876 E9.83202
G1 X171.420 Y175.210 E9.86640
G1 X170.967 Y176.000 E9.95072
G1 X170.208 Y177.034 E10.06936
G1 X169.320 Y177.960 E10.18799
G1 X168.319 Y178.763 E10.30662
G1 X167.183 Y179.447 E10.42933
G1 X166.048 Y179.943 E10.54385
G1 X164.817 Y180.301 E10.66249
G1 X163.549 Y180.496 E10.78116
G1 X162.700 Y180.537 E10.85973
G1 X134.125 Y180.537 E13.50266
G1 X131.864 Y180.140 E13.71495
G1 X129.874 Y178.997 E13.92725
G1 X128.392 Y177.243 E14.13955
G1 X127.597 Y175.090 E14.35184
G1 X127.489 Y173.901 E14.46227
G1 X127.489 Y126.099 E18.88360
G1 X127.886 Y123.838 E19.09589
G1 X129.000 Y121.900 E19.30264
G1 F1800.000 E18.30264
G92 E0
G1 X143.136 Y136.759 F2400.000
G1 E1.00000 F1800.000
G1 X142.356 Y137.357 E1.09085 F540.000
G1 X141.449 Y137.733 E1.18170
G1 X140.475 Y137.861 E1.27256
G1 X139.501 Y137.733 E1.36340
G1 X138.594 Y137.357 E1.45426
G1 X137.814 Y136.759 E1.54511
G1 X137.216 Y135.980 E1.63596
G1 X136.840 Y135.072 E1.72681
G1 X136.712 Y134.098 E1.81766
G1 X136.840 Y133.124 E1.90851
G1 X137.216 Y132.217 E1.99936
G1 X137.814 Y131.438 E2.09021
G1 X138.594 Y130.840 E2.18106
G1 X139.501 Y130.464 E2.27192
G1 X140.475 Y130.336 E2.36276
G1 X140.679 Y130.363 E2.38184
G1 X141.449 Y130.464 E2.45362 F540.000
G1 X142.356 Y130.840 E2.54447
G1 X143.136 Y131.438 E2.63532
G1 X143.734 Y132.217 E2.72617
G1 X144.110 Y133.124 E2.81702
G1 X144.238 Y134.098 E2.90787
G1 X144.109 Y135.072 E2.99872
G1 X143.734 Y135.980 E3.08957
G1 X143.172 Y136.711 E3.17487
G1 X142.682 Y136.306 F2400.000
G1 X142.036 Y136.802 E3.25024 F378.000
G1 X141.283 Y137.114 E3.32562
G1 X140.475 Y137.220 E3.40099
G1 X139.667 Y137.114 E3.47635
G1 X138.914 Y136.802 E3.55173
G1 X138.268 Y136.306 E3.62710
G1 X137.772 Y135.659 E3.70247
G1 X137.460 Y134.906 E3.77785
G1 X137.353 Y134.098 E3.85321
G1 X137.460 Y133.290 E3.92859
G1 X137.772 Y132.538 E4.00396
G1 X138.268 Y131.891 E4.07933
G1 X138.914 Y131.395 E4.15470
G1 X139.667 Y131.083 E4.23007
G1 X139.789 Y131.067 E4.24142
G1 X140.475 Y130.977 E4.30544 F378.000
G1 X141.283 Y131.083 E4.38082
G1 X142.036 Y131.395 E4.45619
G1 X142.682 Y131.891 E4.53156
G1 X143.178 Y132.538 E4.60693
G1 X143.490 Y133.290 E4.68230
G1 X143.597 Y134.098 E4.75767
G1 X143.490 Y134.906 E4.83304
G1 X143.178 Y135.659 E4.90842
G1 X142.719 Y136.258 E4.97824
G1 F1800.000 E3.97824
G92 E0
G1 X139.671 Y130.685 F2400.000
G1 X155.918 Y134.563 F2400.000
G1 E1.00000 F1800.000
G1 X155.857 Y134.098 E1.04337 F540.000
G1 X155.982 Y133.149 E1.13194
G1 X156.348 Y132.264 E1.22052
G1 X156.931 Y131.504 E1.30909
G1 X157.691 Y130.921 E1.39766
G1 X158.576 Y130.555 E1.48624
G1 X159.525 Y130.430 E1.57481
G1 X160.272 Y130.528 E1.64454
G1 X160.474 Y130.555 E1.66338 F540.000
G1 X161.359 Y130.921 E1.75195
G1 X162.119 Y131.504 E1.84053
G1 X162.702 Y132.264 E1.92910
G1 X163.068 Y133.149 E2.01767
G1 X163.193 Y134.098 E2.10625
G1 X163.068 Y135.048 E2.19482
G1 X162.702 Y135.933 E2.28339
G1 X162.119 Y136.692 E2.37197
G1 X161.359 Y137.275 E2.46054
G1 X160.474 Y137.642 E2.54911
G1 X159.525 Y137.767 E2.63769
G1 X158.576 Y137.642 E2.72626
G1 X157.691 Y137.275 E2.81483
G1 X156.931 Y136.692 E2.90340
G1 X156.348 Y135.933 E2.99197
G1 X155.982 Y135.048 E3.08055
G1 X155.926 Y134.623 E3.12020
G1 X156.548 Y134.480 F2400.000
G1 X156.498 Y134.098 E3.15583 F378.000
G1 X156.601 Y133.315 E3.22893
G1 X156.903 Y132.585 E3.30202
G1 X157.384 Y131.958 E3.37511
G1 X158.011 Y131.477 E3.44821
G1 X158.741 Y131.174 E3.52130
G1 X159.406 Y131.087 E3.58330
G1 X159.525 Y131.071 E3.59440 F378.000
G1 X160.309 Y131.174 E3.66749
G1 X161.039 Y131.477 E3.74058
G1 X161.666 Y131.958 E3.81368
G1 X162.147 Y132.585 E3.88677
G1 X162.449 Y133.315 E3.95986
G1 X162.552 Y134.098 E4.03296
G1 X162.449 Y134.882 E4.10605
G1 X162.193 Y135.501 E4.16805
G1 X162.147 Y135.612 E4.17915
G1 X161.666 Y136.239 E4.25224
G1 X161.039 Y136.720 E4.32533
G1 X160.309 Y137.022 E4.39843
G1 X159.525 Y137.126 E4.47152
G1 X158.741 Y137.022 E4.54461
G1 X158.011 Y136.720 E4.61771
G1 X157.384 Y136.239 E4.69080
G1 X156.903 Y135.612 E4.76389
G1 X156.601 Y134.882 E4.83699
G1 X156.556 Y134.540 E4.86890
G1 F1800.000 E3.86890
G92 E0
G1 X159.421 Y130.968 F2400.000
G1 X159.525 Y162.233 F2400.000
G1 E1.00000 F1800.000
G1 X160.272 Y162.332 E1.06973 F540.000
G1 X160.474 Y162.358 E1.08857 F540.000
G1 X161.359 Y162.725 E1.17715
G1 X162.119 Y163.308 E1.26572
G1 X162.702 Y164.067 E1.35429
G1 X163.068 Y164.952 E1.44286
G1 X163.193 Y165.902 E1.53144
G1 X163.068 Y166.851 E1.62001
G1 X162.780 Y167.548 E1.68974
G1 X162.702 Y167.736 E1.70859
G1 X162.119 Y168.496 E1.79716
G1 X161.359 Y169.079 E1.88573
G1 X160.474 Y169.445 E1.97430
G1 X159.525 Y169.570 E2.06288
G1 X158.576 Y169.445 E2.15145
G1 X157.691 Y169.079 E2.24002
G1 X156.931 Y168.496 E2.32859
G1 X156.348 Y167.736 E2.41717
G1 X156.270 Y167.548 E2.43601
G1 X155.982 Y166.851 E2.50574
G1 X155.857 Y165.902 E2.59431
G1 X155.982 Y164.952 E2.68289
G1 X156.348 Y164.067 E2.77146
G1 X156.931 Y163.308 E2.86003
G1 X157.691 Y162.725 E2.94861
G1 X158.576 Y162.358 E3.03718
G1 X159.466 Y162.241 E3.12020
G1 X159.525 Y162.874 F2400.000
G1 X160.309 Y162.978 E3.19330 F378.000
G1 X160.928 Y163.234 E3.25529
G1 X161.039 Y163.280 E3.26639
G1 X161.666 Y163.761 E3.33948
G1 X162.147 Y164.388 E3.41258
G1 X162.449 Y165.118 E3.48567
G1 X162.552 Y165.902 E3.55877
G1 X162.449 Y166.685 E3.63186
G1 X162.193 Y167.304 E3.69385
G1 X162.147 Y167.415 E3.70495
G1 X161.666 Y168.042 E3.77805
G1 X161.039 Y168.523 E3.85114
G1 X160.309 Y168.826 E3.92423
G1 X159.644 Y168.913 E3.98623
G1 X159.525 Y168.929 E3.99733
G1 X158.741 Y168.826 E4.07042
G1 X158.011 Y168.523 E4.14352
G1 X157.384 Y168.042 E4.21661
G1 X156.903 Y167.415 E4.28970
G1 X156.857 Y167.304 E4.30080
G1 X156.601 Y166.685 E4.36280
G1 X156.498 Y165.902 E4.43589
G1 X156.601 Y165.118 E4.50898
G1 X156.903 Y164.388 E4.58208
G1 X157.384 Y163.761 E4.65517
G1 X158.011 Y163.280 E4.72826
G1 X158.741 Y162.978 E4.80136
G1 X159.406 Y162.890 E4.86335
G1 X159.466 Y162.882 E4.86890 F378.000
G1 X159.401 Y162.830 F2400.000
G1 X144.110 Y164.928 F2400.000
G1 X144.238 Y165.902 E4.95975 F540.000
G1 X144.109 Y166.876 E5.05061
G1 X143.813 Y167.592 E5.12238
G1 X143.734 Y167.783 E5.14146
G1 X143.136 Y168.562 E5.23231
G1 X142.356 Y169.160 E5.32316
G1 X141.449 Y169.536 E5.41401
G1 X140.475 Y169.664 E5.50486
G1 X139.706 Y169.563 E5.57663
G1 X139.501 Y169.536 E5.59571
G1 X138.594 Y169.160 E5.68657
G1 X137.814 Y168.562 E5.77742
G1 X137.216 Y167.783 E5.86826
G1 X136.840 Y166.876 E5.95912
G1 X136.712 Y165.902 E6.04996
G1 X136.840 Y164.928 E6.14082
G1 X137.216 Y164.020 E6.23167
G1 X137.814 Y163.241 E6.32252
G1 X138.594 Y162.643 E6.41337
G1 X139.501 Y162.267 E6.50422
G1 X140.475 Y162.139 E6.59507
G1 X140.680 Y162.166 E6.61416
G1 X141.449 Y162.267 E6.68592 F540.000
G1 X142.356 Y162.643 E6.77678
G1 X143.136 Y163.241 E6.86763
G1 X143.734 Y164.020 E6.95848
G1 X144.087 Y164.872 E7.04378
G1 X143.490 Y165.094 F2400.000
G1 X143.597 Y165.902 E7.11915 F378.000
G1 X143.490 Y166.710 E7.19452
G1 X143.225 Y167.349 E7.25855
G1 X143.178 Y167.462 E7.26989
G1 X142.682 Y168.109 E7.34526
G1 X142.036 Y168.605 E7.42063
G1 X141.283 Y168.917 E7.49601
G1 X140.475 Y169.023 E7.57138
G1 X139.667 Y168.917 E7.64675
G1 X138.914 Y168.605 E7.72212
G1 X138.268 Y168.109 E7.79749
G1 X137.772 Y167.462 E7.87286
G1 X137.460 Y166.710 E7.94824
G1 X137.353 Y165.902 E8.02361
G1 X137.460 Y165.094 E8.09898
G1 X137.772 Y164.341 E8.17435
G1 X138.268 Y163.694 E8.24972
G1 X138.914 Y163.198 E8.32509
G1 X139.667 Y162.886 E8.40046
G1 X139.789 Y162.870 E8.41181
G1 X140.475 Y162.780 E8.47584 F378.000
G1 X141.283 Y162.886 E8.55121
G1 X142.036 Y163.198 E8.62658
G1 X142.682 Y163.694 E8.70195
G1 X143.178 Y164.341 E8.77732
G1 X143.467 Y165.038 E8.84714
G1 F1800.000 E7.84714
G92 E0
G1 X139.606 Y162.515 F2400.000
G1 X135.111 Y172.916 F2400.000
G1 E1.00000 F1800.000
G1 X135.111 Y127.084 E5.23900 F540.000
G1 X162.668 Y127.084 E7.78778
G1 X162.986 Y127.105 E7.81724
G1 X163.266 Y127.161 E7.84370
G1 X163.537 Y127.253 E7.87017
G1 X163.794 Y127.379 E7.89663
G1 X164.032 Y127.538 E7.92309
G1 X164.247 Y127.727 E7.94955
G1 X164.435 Y127.942 E7.97602
G1 X164.594 Y128.180 E8.00248
G1 X164.721 Y128.437 E8.02894
G1 X164.813 Y128.707 E8.05540
G1 X164.869 Y128.988 E8.08187
G1 X164.889 Y129.306 E8.11132
G1 X164.889 Y170.694 E11.93936
G1 X164.869 Y171.012 E11.96881
G1 X164.813 Y171.293 E11.99527
G1 X164.721 Y171.563 E12.02174
G1 X164.594 Y171.820 E12.04820
G1 X164.435 Y172.058 E12.07466
G1 X164.247 Y172.273 E12.10113
G1 X164.032 Y172.462 E12.12759
G1 X163.794 Y172.621 E12.15405
G1 X163.537 Y172.747 E12.18052
G1 X163.266 Y172.839 E12.20698
G1 X162.985 Y172.895 E12.23344
G1 X162.668 Y172.916 E12.26289
G1 X135.171 Y172.916 E14.80612
G1 X134.475 Y173.551 F2400.000
G1 X134.475 Y126.449 E19.16271 F378.000
G1 X162.689 Y126.449 E21.77220
G1 X163.069 Y126.474 E21.80744
G1 X163.431 Y126.546 E21.84160
G1 X163.781 Y126.664 E21.87577
G1 X164.112 Y126.828 E21.90994
G1 X164.419 Y127.033 E21.94411
G1 X164.697 Y127.277 E21.97828
G1 X164.941 Y127.554 E22.01245
G1 X165.146 Y127.861 E22.04662
G1 X165.309 Y128.193 E22.08079
G1 X165.428 Y128.543 E22.11496
G1 X165.500 Y128.905 E22.14913
G1 X165.525 Y129.285 E22.18436
G1 X165.525 Y170.715 E26.01624
G1 X165.500 Y171.095 E26.05147
G1 X165.428 Y171.457 E26.08564
G1 X165.309 Y171.807 E26.11981
G1 X165.155 Y172.120 E26.15203
G1 X164.941 Y172.446 E26.18814
G1 X164.697 Y172.723 E26.22231
G1 X164.419 Y172.967 E26.25647
G1 X164.112 Y173.172 E26.29065
G1 X163.781 Y173.336 E26.32481
G1 X163.431 Y173.454 E26.35898
G1 X163.069 Y173.526 E26.39315
G1 X162.689 Y173.551 E26.42838
G1 X134.535 Y173.551 E29.03233
G1 X134.675 Y173.205 F2400.000
G1 X135.591 Y172.475 F2400.000
G1 X135.551 Y172.435 E29.03756 F720.000
G1 X135.551 Y171.526 E29.12167
G1 X136.501 Y172.475 E29.24585
G1 X137.410 Y172.475 E29.32996
G1 X135.551 Y170.616 E29.57309
G1 X135.551 Y169.707 E29.65720
G1 X138.320 Y172.475 E30.01927
G1 X139.229 Y172.475 E30.10338
G1 X135.551 Y168.797 E30.58441
G1 X135.551 Y167.888 E30.66852
G1 X140.138 Y172.475 E31.26849
G1 F1800.000 E30.26849
G92 E0
G1 X143.875 Y163.480 F2400.000
G1 E1.00000 F1800.000
G1 X152.870 Y172.475 E2.17655 F720.000
G1 X153.779 Y172.475 E2.26065
G1 X135.551 Y154.247 E4.64485
G1 X135.551 Y153.338 E4.72896
G1 X154.688 Y172.475 E7.23211
G1 X155.598 Y172.475 E7.31622
G1 X135.551 Y152.429 E9.93831
G1 X135.551 Y151.519 E10.02242
G1 X156.507 Y172.475 E12.76346
G1 X157.416 Y172.475 E12.84757
G1 X135.551 Y150.610 E15.70756
G1 X135.551 Y149.701 E15.79167
G1 X158.326 Y172.475 E18.77061
G1 X159.235 Y172.475 E18.85472
G1 X135.551 Y148.791 E21.95260
G1 X135.551 Y136.969 F2400.000
G1 X160.499 Y161.917 E25.21580 F720.000
G1 X159.469 Y161.796 E25.31174
G1 X135.551 Y137.879 E28.44019
G1 X135.551 Y138.788 E28.52430
G1 X158.665 Y161.902 E31.54763
G1 X157.981 Y162.127 E31.61424
G1 X135.551 Y139.697 E34.54811
G1 X135.551 Y140.607 E34.63222
G1 X157.364 Y162.420 E37.48539
G1 X156.850 Y162.815 E37.54537
G1 X135.551 Y141.516 E40.33124
G1 X135.551 Y142.426 E40.41535
G1 X156.401 Y163.275 E43.14247
G1 X156.006 Y163.789 E43.20246
G1 X135.551 Y143.335 E45.87794
G1 X135.551 Y144.244 E45.96205
G1 X155.726 Y164.418 E48.60087
G1 X155.515 Y165.118 E48.66839
G1 X135.551 Y145.154 E51.27970
G1 X135.551 Y146.063 E51.36381
G1 X155.415 Y165.927 E53.96204
G1 X155.557 Y166.978 E54.06014
G1 X135.551 Y146.972 E56.67692
G1 X135.551 Y147.882 E56.76103
G1 X160.145 Y172.475 E59.97787
G1 X161.054 Y172.475 E60.06198
G1 X158.449 Y169.870 E60.40277
G1 X159.500 Y170.011 E60.50086
G1 X161.963 Y172.475 E60.82311
G1 X162.859 Y172.461 E60.90598
G1 X160.309 Y169.911 E61.23954
G1 X161.008 Y169.701 E61.30706
G1 X163.554 Y172.247 E61.64009
G1 X164.042 Y171.825 E61.69971
G1 X161.637 Y169.421 E62.01419
G1 X162.152 Y169.026 E62.07418
G1 X164.365 Y171.239 E62.36370
G1 X164.449 Y170.413 E62.44049
G1 X162.612 Y168.577 E62.68070
G1 X163.007 Y168.062 E62.74068
G1 X164.449 Y169.504 E62.92924
G1 X164.449 Y168.595 E63.01335
G1 X163.299 Y167.445 E63.16367
G1 X163.525 Y166.761 E63.23028
G1 X164.449 Y167.685 E63.35111
G1 X164.449 Y166.776 E63.43522
G1 X163.631 Y165.958 E63.54221
G1 X163.510 Y164.928 E63.63815
G1 X164.449 Y165.866 E63.76095
G1 X164.449 Y164.957 E63.84506
G1 X135.551 Y136.060 E67.62486
G1 F1800.000 E66.62486
G92 E0
G1 X141.315 Y130.002 F2400.000
G1 E1.00000 F1800.000
G1 X138.838 Y127.525 E1.32394 F720.000
G1 X137.929 Y127.525 E1.40805
G1 X140.316 Y129.912 E1.72026
G1 X139.512 Y130.018 E1.79523
G1 X137.020 Y127.525 E2.12128
G1 X136.110 Y127.525 E2.20539
G1 X138.844 Y130.259 E2.56298
G1 X138.235 Y130.559 E2.62578
G1 X135.551 Y127.876 E2.97682
G1 X135.551 Y128.785 E3.06093
G1 X137.721 Y130.954 E3.34465
G1 X137.274 Y131.417 E3.40414
G1 X135.551 Y129.694 E3.62951
G1 X135.551 Y130.604 E3.71362
G1 X136.880 Y131.932 E3.88734
G1 X136.598 Y132.559 E3.95096
G1 X135.551 Y131.513 E4.08779
G1 X135.551 Y132.422 E4.17190
G1 X136.379 Y133.250 E4.28019
G1 X135.551 Y133.332 E4.35713
G1 X136.274 Y134.054 E4.45159
G1 X135.551 Y134.241 E4.52059
G1 X136.398 Y135.088 E4.63131
G1 X135.551 Y135.151 E4.70981
G1 X164.449 Y164.048 E8.48962
G1 X164.449 Y163.138 E8.57373
G1 X139.486 Y138.175 E11.83892
G1 X140.519 Y138.300 E11.93522
G1 X164.449 Y162.229 E15.06519
G1 X164.449 Y161.320 E15.14930
G1 X141.323 Y138.194 E18.17417
G1 X142.014 Y137.976 E18.24120
G1 X164.449 Y160.410 E21.17566
G1 X164.449 Y159.501 E21.25977
G1 X142.642 Y137.694 E24.11218
G1 X143.156 Y137.299 E24.17216
G1 X164.449 Y158.591 E26.95727
G1 X164.449 Y157.682 E27.04137
G1 X143.619 Y136.853 E29.76588
G1 X144.014 Y136.338 E29.82587
G1 X164.449 Y156.773 E32.49874
G1 X164.449 Y155.863 E32.58285
G1 X144.314 Y135.729 E35.21642
G1 X144.556 Y135.061 E35.28213
G1 X164.449 Y154.954 E37.88418
G1 X164.449 Y154.045 E37.96828
G1 X144.661 Y134.257 E40.55649
G1 X144.572 Y133.258 E40.64926
G1 X164.449 Y153.135 E43.24919
G1 X164.449 Y152.226 E43.33330
G1 X139.748 Y127.525 E46.56421
G1 X140.657 Y127.525 E46.64832
G1 X164.449 Y151.316 E49.76028
G1 X164.449 Y150.407 E49.84438
G1 X141.567 Y127.525 E52.83740
G1 X142.476 Y127.525 E52.92151
G1 X164.449 Y149.498 E55.79557
G1 X164.449 Y148.588 E55.87968
G1 X143.385 Y127.525 E58.63479
G1 X144.295 Y127.525 E58.71890
G1 X164.449 Y147.679 E61.35507
G1 X164.449 Y146.770 E61.43918
G1 X145.204 Y127.525 E63.95639
G1 X146.113 Y127.525 E64.04050
G1 X164.449 Y145.860 E66.43877
G1 X163.506 Y133.096 F2400.000
G1 X164.449 Y134.038 E66.56207 F720.000
G1 X163.633 Y134.133 E66.63796
G1 X164.449 Y134.948 E66.74457
G1 X164.449 Y135.857 E66.82868
G1 X163.528 Y134.936 E66.94913
G1 X163.307 Y135.624 E67.01600
G1 X164.449 Y136.766 E67.16537
G1 X164.449 Y137.676 E67.24948
G1 X163.018 Y136.245 E67.43663
G1 X162.623 Y136.760 E67.49661
G1 X164.449 Y138.585 E67.73541
G1 X164.449 Y139.495 E67.81952
G1 X162.166 Y137.212 E68.11809
