( Made using CamBam - http://www.cambam.co.uk )
( bottom_z_support 9/18/2014 5:00:09 PM )
( T0 : 0.125 )
G20 G90 G64 G40
G0 Z0.125
( T0 : 0.125 )
T0 M6
( bearing_insert )
G17
M3 S1000
G0 X2.2129 Y2.2975
G0 Z0.0625
G1 F10.0 Z-0.065
G2 F30.0 X2.1888 Y2.2836 I-0.0161 J0.0
G2 Y2.3114 I0.008 J0.0139
G2 X2.2129 Y2.2975 I0.008 J-0.0139
G1 F10.0 X2.2629
G2 F30.0 X2.1638 Y2.2403 I-0.0661 J0.0
G2 Y2.3547 I0.033 J0.0572
G2 X2.2629 Y2.2975 I0.033 J-0.0572
G1 F10.0 X2.3129
G2 F30.0 X2.1388 Y2.197 I-0.1161 J0.0
G2 Y2.398 I0.058 J0.1005
G2 X2.3129 Y2.2975 I0.058 J-0.1005
G1 F10.0 X2.3629
G2 F30.0 X2.1138 Y2.1537 I-0.1661 J0.0
G2 Y2.4413 I0.083 J0.1438
G2 X2.3629 Y2.2975 I0.083 J-0.1438
G1 F10.0 X2.4129
G2 F30.0 X2.0888 Y2.1104 I-0.2161 J0.0
G2 Y2.4846 I0.108 J0.1871
G2 X2.4129 Y2.2975 I0.108 J-0.1871
G1 F10.0 X2.4629
G2 F30.0 X2.0638 Y2.067 I-0.2661 J0.0
G2 Y2.5279 I0.133 J0.2304
G2 X2.4629 Y2.2975 I0.133 J-0.2304
G1 F10.0 X2.5129
G2 F30.0 X2.0388 Y2.0237 I-0.3161 J0.0
G2 Y2.5712 I0.158 J0.2737
G2 X2.5129 Y2.2975 I0.158 J-0.2737
G1 F10.0 X2.5629
G2 F30.0 X2.0138 Y1.9804 I-0.3661 J0.0
G2 Y2.6145 I0.183 J0.317
G2 X2.5629 Y2.2975 I0.183 J-0.317
G0 Z0.125
G0 X2.2129
G0 Z-0.0025
G1 F10.0 Z-0.125
G2 F30.0 X2.1888 Y2.2836 I-0.0161 J0.0
G2 Y2.3114 I0.008 J0.0139
G2 X2.2129 Y2.2975 I0.008 J-0.0139
G1 F10.0 X2.2629
G2 F30.0 X2.1638 Y2.2403 I-0.0661 J0.0
G2 Y2.3547 I0.033 J0.0572
G2 X2.2629 Y2.2975 I0.033 J-0.0572
G1 F10.0 X2.3129
G2 F30.0 X2.1388 Y2.197 I-0.1161 J0.0
G2 Y2.398 I0.058 J0.1005
G2 X2.3129 Y2.2975 I0.058 J-0.1005
G1 F10.0 X2.3629
G2 F30.0 X2.1138 Y2.1537 I-0.1661 J0.0
G2 Y2.4413 I0.083 J0.1438
G2 X2.3629 Y2.2975 I0.083 J-0.1438
G1 F10.0 X2.4129
G2 F30.0 X2.0888 Y2.1104 I-0.2161 J0.0
G2 Y2.4846 I0.108 J0.1871
G2 X2.4129 Y2.2975 I0.108 J-0.1871
G1 F10.0 X2.4629
G2 F30.0 X2.0638 Y2.067 I-0.2661 J0.0
G2 Y2.5279 I0.133 J0.2304
G2 X2.4629 Y2.2975 I0.133 J-0.2304
G1 F10.0 X2.5129
G2 F30.0 X2.0388 Y2.0237 I-0.3161 J0.0
G2 Y2.5712 I0.158 J0.2737
G2 X2.5129 Y2.2975 I0.158 J-0.2737
G1 F10.0 X2.5629
G2 F30.0 X2.0138 Y1.9804 I-0.3661 J0.0
G2 Y2.6145 I0.183 J0.317
G2 X2.5629 Y2.2975 I0.183 J-0.317
( cutout )
S1000
G0 Z0.125
G0 X2.407
G0 Z0.0625
G1 F10.0 Z-0.065
G2 F30.0 X2.0918 Y2.1155 I-0.2101 J0.0
G2 Y2.4794 I0.1051 J0.182
G2 X2.407 Y2.2975 I0.1051 J-0.182
G1 F10.0 Z-0.13
G2 F30.0 X2.0918 Y2.1155 I-0.2101 J0.0
G2 Y2.4794 I0.1051 J0.182
G2 X2.407 Y2.2975 I0.1051 J-0.182
G1 F10.0 Z-0.195
G2 F30.0 X2.0918 Y2.1155 I-0.2101 J0.0
G2 Y2.4794 I0.1051 J0.182
G2 X2.407 Y2.2975 I0.1051 J-0.182
G1 F10.0 Z-0.26
G2 F30.0 X2.0918 Y2.1155 I-0.2101 J0.0
G2 Y2.4794 I0.1051 J0.182
G2 X2.407 Y2.2975 I0.1051 J-0.182
G0 Z0.125
G0 X1.3432 Y2.2088
G0 Z0.0625
G1 F10.0 Z-0.065
G2 F30.0 X1.3435 Y2.201 I-0.0932 J-0.0078
G2 X1.2033 Y2.12 I-0.0935 J0.0
G2 Y2.282 I0.0468 J0.081
G2 X1.3432 Y2.2088 I0.0468 J-0.081
G1 F10.0 Z-0.13
G2 F30.0 X1.3435 Y2.201 I-0.0932 J-0.0078
G2 X1.2033 Y2.12 I-0.0935 J0.0
G2 Y2.282 I0.0468 J0.081
G2 X1.3432 Y2.2088 I0.0468 J-0.081
G1 F10.0 Z-0.195
G2 F30.0 X1.3435 Y2.201 I-0.0932 J-0.0078
G2 X1.2033 Y2.12 I-0.0935 J0.0
G2 Y2.282 I0.0468 J0.081
G2 X1.3432 Y2.2088 I0.0468 J-0.081
G1 F10.0 Z-0.26
G2 F30.0 X1.3435 Y2.201 I-0.0932 J-0.0078
G2 X1.2033 Y2.12 I-0.0935 J0.0
G2 Y2.282 I0.0468 J0.081
G2 X1.3432 Y2.2088 I0.0468 J-0.081
G0 Z0.125
G0 X0.5922 Y2.2019
G0 Z0.0625
G1 F10.0 Z-0.065
G2 F30.0 Y2.201 I-0.0922 J-0.0008
G2 X0.4539 Y2.1212 I-0.0922 J0.0
G2 Y2.2808 I0.0461 J0.0798
G2 X0.5922 Y2.2019 I0.0461 J-0.0798
G1 F10.0 Z-0.13
G2 F30.0 Y2.201 I-0.0922 J-0.0008
G2 X0.4539 Y2.1212 I-0.0922 J0.0
G2 Y2.2808 I0.0461 J0.0798
G2 X0.5922 Y2.2019 I0.0461 J-0.0798
G1 F10.0 Z-0.195
G2 F30.0 Y2.201 I-0.0922 J-0.0008
G2 X0.4539 Y2.1212 I-0.0922 J0.0
G2 Y2.2808 I0.0461 J0.0798
G2 X0.5922 Y2.2019 I0.0461 J-0.0798
G1 F10.0 Z-0.26
G2 F30.0 Y2.201 I-0.0922 J-0.0008
G2 X0.4539 Y2.1212 I-0.0922 J0.0
G2 Y2.2808 I0.0461 J0.0798
G2 X0.5922 Y2.2019 I0.0461 J-0.0798
G0 Z0.125
G0 X1.4753 Y0.6118
G0 Z0.0625
G1 F10.0 Z-0.065
G2 F30.0 X1.5424 Y0.5724 I0.0219 J-0.0394
G2 X1.4747 Y0.5333 I-0.0451 J0.0
G2 Y0.6115 I0.0226 J0.0391
G2 X1.4753 Y0.6118 I0.0226 J-0.0391
G1 F10.0 Z-0.13
G2 F30.0 X1.5424 Y0.5724 I0.0219 J-0.0394
G2 X1.4747 Y0.5333 I-0.0451 J0.0
G2 Y0.6115 I0.0226 J0.0391
G2 X1.4753 Y0.6118 I0.0226 J-0.0391
G1 F10.0 Z-0.195
G2 F30.0 X1.5424 Y0.5724 I0.0219 J-0.0394
G2 X1.4747 Y0.5333 I-0.0451 J0.0
G2 Y0.6115 I0.0226 J0.0391
G2 X1.4753 Y0.6118 I0.0226 J-0.0391
G1 F10.0 Z-0.26
G2 F30.0 X1.5424 Y0.5724 I0.0219 J-0.0394
G2 X1.4747 Y0.5333 I-0.0451 J0.0
G2 Y0.6115 I0.0226 J0.0391
G2 X1.4753 Y0.6118 I0.0226 J-0.0391
G0 Z0.125
G0 X2.0217 Y0.581
G0 Z0.0625
G1 F10.0 Z-0.065
G2 F30.0 X2.1091 Y0.7231 I0.1752 J-0.0099
G2 X2.3723 Y0.5712 I0.0877 J-0.1519
G2 X2.1091 Y0.4192 I-0.1754 J0.0
G2 X2.0217 Y0.581 I0.0877 J0.1519
G1 F10.0 Z-0.13
G2 F30.0 X2.1091 Y0.7231 I0.1752 J-0.0099
G2 X2.3723 Y0.5712 I0.0877 J-0.1519
G2 X2.1091 Y0.4192 I-0.1754 J0.0
G2 X2.0217 Y0.581 I0.0877 J0.1519
G1 F10.0 Z-0.195
G2 F30.0 X2.1091 Y0.7231 I0.1752 J-0.0099
G2 X2.3723 Y0.5712 I0.0877 J-0.1519
G2 X2.1091 Y0.4192 I-0.1754 J0.0
G2 X2.0217 Y0.581 I0.0877 J0.1519
G1 F10.0 Z-0.26
G2 F30.0 X2.1091 Y0.7231 I0.1752 J-0.0099
G2 X2.3723 Y0.5712 I0.0877 J-0.1519
G2 X2.1091 Y0.4192 I-0.1754 J0.0
G2 X2.0217 Y0.581 I0.0877 J0.1519
G0 Z0.125
G0 X2.8511 Y0.5717
G0 Z0.0625
G1 F10.0 Z-0.065
G2 F30.0 X2.8729 Y0.609 I0.0437 J-0.0005
G2 X2.9384 Y0.5712 I0.0218 J-0.0378
G2 X2.8729 Y0.5334 I-0.0437 J0.0
G2 X2.8511 Y0.5717 I0.0218 J0.0378
G1 F10.0 Z-0.13
G2 F30.0 X2.8729 Y0.609 I0.0437 J-0.0005
G2 X2.9384 Y0.5712 I0.0218 J-0.0378
G2 X2.8729 Y0.5334 I-0.0437 J0.0
G2 X2.8511 Y0.5717 I0.0218 J0.0378
G1 F10.0 Z-0.195
G2 F30.0 X2.8729 Y0.609 I0.0437 J-0.0005
G2 X2.9384 Y0.5712 I0.0218 J-0.0378
G2 X2.8729 Y0.5334 I-0.0437 J0.0
G2 X2.8511 Y0.5717 I0.0218 J0.0378
G1 F10.0 Z-0.26
G2 F30.0 X2.8729 Y0.609 I0.0437 J-0.0005
G2 X2.9384 Y0.5712 I0.0218 J-0.0378
G2 X2.8729 Y0.5334 I-0.0437 J0.0
G2 X2.8511 Y0.5717 I0.0218 J0.0378
( outline )
S1000
G0 Z0.125
G0 X0.5 Y3.0135
G0 Z0.0625
G1 F10.0 Z-0.065
G3 F30.0 X-0.0625 Y2.451 I0.0 J-0.5625
G1 Y1.8515
G3 X0.5 Y1.289 I0.5625 J0.0
G1 X0.9998 Y1.2891
G2 X1.1875 Y1.1014 I-0.0011 J-0.1888
G1 Y0.25
G3 X1.5 Y-0.0625 I0.3125 J0.0
G1 X3.0236
G3 X3.024 I0.0 J0.0625
G3 X3.3361 Y0.2496 I-0.0018 J0.3139
G3 Y0.25 I-0.0625 J0.0004
G1 X3.337 Y2.951
G3 X3.2745 Y3.0135 I-0.0625 J0.0
G1 X3.2736
G1 X0.5
G1 F10.0 Z-0.13
G3 F30.0 X-0.0625 Y2.451 I0.0 J-0.5625
G1 Y1.8515
G3 X0.5 Y1.289 I0.5625 J0.0
G1 X0.9998 Y1.2891
G2 X1.1875 Y1.1014 I-0.0011 J-0.1888
G1 Y0.25
G3 X1.5 Y-0.0625 I0.3125 J0.0
G1 X3.0236
G3 X3.024 I0.0 J0.0625
G3 X3.3361 Y0.2496 I-0.0018 J0.3139
G3 Y0.25 I-0.0625 J0.0004
G1 X3.337 Y2.951
G3 X3.2745 Y3.0135 I-0.0625 J0.0
G1 X3.2736
G1 X0.5
G1 F10.0 Z-0.195
G3 F30.0 X-0.0625 Y2.451 I0.0 J-0.5625
G1 Y1.8515
G3 X0.5 Y1.289 I0.5625 J0.0
G1 X0.9998 Y1.2891
G2 X1.1875 Y1.1014 I-0.0011 J-0.1888
G1 Y0.25
G3 X1.5 Y-0.0625 I0.3125 J0.0
G1 X3.0236
G3 X3.024 I0.0 J0.0625
G3 X3.3361 Y0.2496 I-0.0018 J0.3139
G3 Y0.25 I-0.0625 J0.0004
G1 X3.337 Y2.951
G3 X3.2745 Y3.0135 I-0.0625 J0.0
G1 X3.2736
G1 X0.5
G1 F10.0 Z-0.26
G3 F30.0 X-0.0625 Y2.451 I0.0 J-0.5625
G1 Y1.8515
G3 X0.5 Y1.289 I0.5625 J0.0
G1 X0.9998 Y1.2891
G2 X1.1875 Y1.1014 I-0.0011 J-0.1888
G1 Y0.25
G3 X1.5 Y-0.0625 I0.3125 J0.0
G1 X3.0236
G3 X3.024 I0.0 J0.0625
G3 X3.3361 Y0.2496 I-0.0018 J0.3139
G3 Y0.25 I-0.0625 J0.0004
G1 X3.337 Y2.951
G3 X3.2745 Y3.0135 I-0.0625 J0.0
G1 X3.2736
G1 X0.5
G0 Z0.125
M5
M30
