( Made using CamBam - http://www.cambam.co.uk )
( bottom_z_support_left 9/18/2014 5:33:29 PM )
( T0 : 0.125 )
G20 G90 G64 G40
G0 Z0.125
( T0 : 0.125 )
T0 M6
( Pocket1 )
G17
M3 S1000
G0 X2.3393 Y0.6535
G0 Z0.0625
G1 F10.0 Z-0.065
G2 F30.0 X2.3152 Y0.6396 I-0.0161 J0.0
G2 Y0.6674 I0.008 J0.0139
G2 X2.3393 Y0.6535 I0.008 J-0.0139
G1 F10.0 X2.3893
G2 F30.0 X2.2902 Y0.5963 I-0.0661 J0.0
G2 Y0.7107 I0.033 J0.0572
G2 X2.3893 Y0.6535 I0.033 J-0.0572
G1 F10.0 X2.4393
G2 F30.0 X2.2652 Y0.553 I-0.1161 J0.0
G2 Y0.754 I0.058 J0.1005
G2 X2.4393 Y0.6535 I0.058 J-0.1005
G1 F10.0 X2.4893
G2 F30.0 X2.2402 Y0.5097 I-0.1661 J0.0
G2 Y0.7973 I0.083 J0.1438
G2 X2.4893 Y0.6535 I0.083 J-0.1438
G1 F10.0 X2.5393
G2 F30.0 X2.2152 Y0.4664 I-0.2161 J0.0
G2 Y0.8406 I0.108 J0.1871
G2 X2.5393 Y0.6535 I0.108 J-0.1871
G1 F10.0 X2.5893
G2 F30.0 X2.1902 Y0.4231 I-0.2661 J0.0
G2 Y0.8839 I0.133 J0.2304
G2 X2.5893 Y0.6535 I0.133 J-0.2304
G1 F10.0 X2.6393
G2 F30.0 X2.1652 Y0.3798 I-0.3161 J0.0
G2 Y0.9273 I0.158 J0.2737
G2 X2.6393 Y0.6535 I0.158 J-0.2737
G1 F10.0 X2.6893
G2 F30.0 X2.1402 Y0.3365 I-0.3661 J0.0
G2 Y0.9706 I0.183 J0.317
G2 X2.6893 Y0.6535 I0.183 J-0.317
G0 Z0.125
G0 X2.3393
G0 Z-0.0025
G1 F10.0 Z-0.125
G2 F30.0 X2.3152 Y0.6396 I-0.0161 J0.0
G2 Y0.6674 I0.008 J0.0139
G2 X2.3393 Y0.6535 I0.008 J-0.0139
G1 F10.0 X2.3893
G2 F30.0 X2.2902 Y0.5963 I-0.0661 J0.0
G2 Y0.7107 I0.033 J0.0572
G2 X2.3893 Y0.6535 I0.033 J-0.0572
G1 F10.0 X2.4393
G2 F30.0 X2.2652 Y0.553 I-0.1161 J0.0
G2 Y0.754 I0.058 J0.1005
G2 X2.4393 Y0.6535 I0.058 J-0.1005
G1 F10.0 X2.4893
G2 F30.0 X2.2402 Y0.5097 I-0.1661 J0.0
G2 Y0.7973 I0.083 J0.1438
G2 X2.4893 Y0.6535 I0.083 J-0.1438
G1 F10.0 X2.5393
G2 F30.0 X2.2152 Y0.4664 I-0.2161 J0.0
G2 Y0.8406 I0.108 J0.1871
G2 X2.5393 Y0.6535 I0.108 J-0.1871
G1 F10.0 X2.5893
G2 F30.0 X2.1902 Y0.4231 I-0.2661 J0.0
G2 Y0.8839 I0.133 J0.2304
G2 X2.5893 Y0.6535 I0.133 J-0.2304
G1 F10.0 X2.6393
G2 F30.0 X2.1652 Y0.3798 I-0.3161 J0.0
G2 Y0.9273 I0.158 J0.2737
G2 X2.6393 Y0.6535 I0.158 J-0.2737
G1 F10.0 X2.6893
G2 F30.0 X2.1402 Y0.3365 I-0.3661 J0.0
G2 Y0.9706 I0.183 J0.317
G2 X2.6893 Y0.6535 I0.183 J-0.317
( Profile1 )
S1000
G0 Z0.125
G0 X2.5334
G0 Z0.0625
G1 F10.0 Z-0.065
G2 F30.0 X2.2182 Y0.4716 I-0.2101 J0.0
G2 Y0.8355 I0.1051 J0.182
G2 X2.5334 Y0.6535 I0.1051 J-0.182
G1 F10.0 Z-0.13
G2 F30.0 X2.2182 Y0.4716 I-0.2101 J0.0
G2 Y0.8355 I0.1051 J0.182
G2 X2.5334 Y0.6535 I0.1051 J-0.182
G1 F10.0 Z-0.195
G2 F30.0 X2.2182 Y0.4716 I-0.2101 J0.0
G2 Y0.8355 I0.1051 J0.182
G2 X2.5334 Y0.6535 I0.1051 J-0.182
G1 F10.0 Z-0.26
G2 F30.0 X2.2182 Y0.4716 I-0.2101 J0.0
G2 Y0.8355 I0.1051 J0.182
G2 X2.5334 Y0.6535 I0.1051 J-0.182
( cutout )
S1000
G0 Z0.125
G0 X1.6688 Y2.3786
G0 Z0.0625
G1 F10.0 Z-0.065
G2 F30.0 X1.6011 Y2.3395 I-0.0451 J0.0
G2 Y2.4177 I0.0226 J0.0391
G2 X1.6688 Y2.3786 I0.0226 J-0.0391
G1 F10.0 Z-0.13
G2 F30.0 X1.6011 Y2.3395 I-0.0451 J0.0
G2 Y2.4177 I0.0226 J0.0391
G2 X1.6688 Y2.3786 I0.0226 J-0.0391
G1 F10.0 Z-0.195
G2 F30.0 X1.6011 Y2.3395 I-0.0451 J0.0
G2 Y2.4177 I0.0226 J0.0391
G2 X1.6688 Y2.3786 I0.0226 J-0.0391
G1 F10.0 Z-0.26
G2 F30.0 X1.6011 Y2.3395 I-0.0451 J0.0
G2 Y2.4177 I0.0226 J0.0391
G2 X1.6688 Y2.3786 I0.0226 J-0.0391
G0 Z0.125
G0 X2.1478 Y2.3795
G0 Z0.0625
G1 F10.0 Z-0.065
G2 F30.0 X2.2355 Y2.5318 I0.1754 J0.0003
G2 X2.4987 Y2.3798 I0.0877 J-0.1519
G2 X2.2355 Y2.2279 I-0.1754 J0.0
G2 X2.1478 Y2.3795 I0.0877 J0.1519
G1 F10.0 Z-0.13
G2 F30.0 X2.2355 Y2.5318 I0.1754 J0.0003
G2 X2.4987 Y2.3798 I0.0877 J-0.1519
G2 X2.2355 Y2.2279 I-0.1754 J0.0
G2 X2.1478 Y2.3795 I0.0877 J0.1519
G1 F10.0 Z-0.195
G2 F30.0 X2.2355 Y2.5318 I0.1754 J0.0003
G2 X2.4987 Y2.3798 I0.0877 J-0.1519
G2 X2.2355 Y2.2279 I-0.1754 J0.0
G2 X2.1478 Y2.3795 I0.0877 J0.1519
G1 F10.0 Z-0.26
G2 F30.0 X2.2355 Y2.5318 I0.1754 J0.0003
G2 X2.4987 Y2.3798 I0.0877 J-0.1519
G2 X2.2355 Y2.2279 I-0.1754 J0.0
G2 X2.1478 Y2.3795 I0.0877 J0.1519
G0 Z0.125
G0 X2.9775 Y2.3798
G0 Z0.0625
G1 F10.0 Z-0.065
G2 F30.0 X2.9993 Y2.4176 I0.0437 J0.0
G2 X3.0648 Y2.3798 I0.0218 J-0.0378
G2 X2.9993 Y2.342 I-0.0437 J0.0
G2 X2.9775 Y2.3798 I0.0218 J0.0378
G1 F10.0 Z-0.13
G2 F30.0 X2.9993 Y2.4176 I0.0437 J0.0
G2 X3.0648 Y2.3798 I0.0218 J-0.0378
G2 X2.9993 Y2.342 I-0.0437 J0.0
G2 X2.9775 Y2.3798 I0.0218 J0.0378
G1 F10.0 Z-0.195
G2 F30.0 X2.9993 Y2.4176 I0.0437 J0.0
G2 X3.0648 Y2.3798 I0.0218 J-0.0378
G2 X2.9993 Y2.342 I-0.0437 J0.0
G2 X2.9775 Y2.3798 I0.0218 J0.0378
G1 F10.0 Z-0.26
G2 F30.0 X2.9993 Y2.4176 I0.0437 J0.0
G2 X3.0648 Y2.3798 I0.0218 J-0.0378
G2 X2.9993 Y2.342 I-0.0437 J0.0
G2 X2.9775 Y2.3798 I0.0218 J0.0378
G0 Z0.125
G0 X1.4419 Y0.8167
G0 Z0.0625
G1 F10.0 Z-0.065
G2 F30.0 X1.4699 Y0.75 I-0.0655 J-0.0667
G2 X1.3296 Y0.669 I-0.0935 J0.0
G2 Y0.831 I0.0468 J0.081
G2 X1.4419 Y0.8167 I0.0468 J-0.081
G1 F10.0 Z-0.13
G2 F30.0 X1.4699 Y0.75 I-0.0655 J-0.0667
G2 X1.3296 Y0.669 I-0.0935 J0.0
G2 Y0.831 I0.0468 J0.081
G2 X1.4419 Y0.8167 I0.0468 J-0.081
G1 F10.0 Z-0.195
G2 F30.0 X1.4699 Y0.75 I-0.0655 J-0.0667
G2 X1.3296 Y0.669 I-0.0935 J0.0
G2 Y0.831 I0.0468 J0.081
G2 X1.4419 Y0.8167 I0.0468 J-0.081
G1 F10.0 Z-0.26
G2 F30.0 X1.4699 Y0.75 I-0.0655 J-0.0667
G2 X1.3296 Y0.669 I-0.0935 J0.0
G2 Y0.831 I0.0468 J0.081
G2 X1.4419 Y0.8167 I0.0468 J-0.081
G0 Z0.125
G0 X0.7182 Y0.7575
G0 Z0.0625
G1 F10.0 Z-0.065
G2 F30.0 X0.7185 Y0.75 I-0.0919 J-0.0075
G2 X0.5803 Y0.6702 I-0.0922 J0.0
G2 Y0.8298 I0.0461 J0.0798
G2 X0.7182 Y0.7575 I0.0461 J-0.0798
G1 F10.0 Z-0.13
G2 F30.0 X0.7185 Y0.75 I-0.0919 J-0.0075
G2 X0.5803 Y0.6702 I-0.0922 J0.0
G2 Y0.8298 I0.0461 J0.0798
G2 X0.7182 Y0.7575 I0.0461 J-0.0798
G1 F10.0 Z-0.195
G2 F30.0 X0.7185 Y0.75 I-0.0919 J-0.0075
G2 X0.5803 Y0.6702 I-0.0922 J0.0
G2 Y0.8298 I0.0461 J0.0798
G2 X0.7182 Y0.7575 I0.0461 J-0.0798
G1 F10.0 Z-0.26
G2 F30.0 X0.7185 Y0.75 I-0.0919 J-0.0075
G2 X0.5803 Y0.6702 I-0.0922 J0.0
G2 Y0.8298 I0.0461 J0.0798
G2 X0.7182 Y0.7575 I0.0461 J-0.0798
( outline )
S1000
G0 Z0.125
G0 X0.0639 Y0.5
G0 Z0.0625
G1 F10.0 Z-0.065
G3 F30.0 X0.6264 Y-0.0625 I0.5625 J0.0
G1 X3.4
G1 X3.4008
G3 X3.4633 Y0.0 I0.0 J0.0625
G1 X3.4625 Y2.701
G3 Y2.7014 I-0.0625 J0.0
G3 X3.1504 Y3.0135 I-0.3139 J-0.0018
G3 X3.15 I-0.0004 J-0.0625
G1 X1.6264
G3 X1.3139 Y2.701 I0.0 J-0.3125
G1 Y1.8496
G2 X1.1262 Y1.6619 I-0.1888 J0.0011
G1 X0.6264 Y1.662
G3 X0.0639 Y1.0995 I0.0 J-0.5625
G1 Y0.5
G1 F10.0 Z-0.13
G3 F30.0 X0.6264 Y-0.0625 I0.5625 J0.0
G1 X3.4
G1 X3.4008
G3 X3.4633 Y0.0 I0.0 J0.0625
G1 X3.4625 Y2.701
G3 Y2.7014 I-0.0625 J0.0
G3 X3.1504 Y3.0135 I-0.3139 J-0.0018
G3 X3.15 I-0.0004 J-0.0625
G1 X1.6264
G3 X1.3139 Y2.701 I0.0 J-0.3125
G1 Y1.8496
G2 X1.1262 Y1.6619 I-0.1888 J0.0011
G1 X0.6264 Y1.662
G3 X0.0639 Y1.0995 I0.0 J-0.5625
G1 Y0.5
G1 F10.0 Z-0.195
G3 F30.0 X0.6264 Y-0.0625 I0.5625 J0.0
G1 X3.4
G1 X3.4008
G3 X3.4633 Y0.0 I0.0 J0.0625
G1 X3.4625 Y2.701
G3 Y2.7014 I-0.0625 J0.0
G3 X3.1504 Y3.0135 I-0.3139 J-0.0018
G3 X3.15 I-0.0004 J-0.0625
G1 X1.6264
G3 X1.3139 Y2.701 I0.0 J-0.3125
G1 Y1.8496
G2 X1.1262 Y1.6619 I-0.1888 J0.0011
G1 X0.6264 Y1.662
G3 X0.0639 Y1.0995 I0.0 J-0.5625
G1 Y0.5
G1 F10.0 Z-0.26
G3 F30.0 X0.6264 Y-0.0625 I0.5625 J0.0
G1 X3.4
G1 X3.4008
G3 X3.4633 Y0.0 I0.0 J0.0625
G1 X3.4625 Y2.701
G3 Y2.7014 I-0.0625 J0.0
G3 X3.1504 Y3.0135 I-0.3139 J-0.0018
G3 X3.15 I-0.0004 J-0.0625
G1 X1.6264
G3 X1.3139 Y2.701 I0.0 J-0.3125
G1 Y1.8496
G2 X1.1262 Y1.6619 I-0.1888 J0.0011
G1 X0.6264 Y1.662
G3 X0.0639 Y1.0995 I0.0 J-0.5625
G1 Y0.5
G0 Z0.125
M5
M30
