; generated by Slic3r 1.1.7 on 2014-11-23 at 01:58:25

; perimeters extrusion width = 0.40mm
; infill extrusion width = 0.42mm
; solid infill extrusion width = 0.42mm
; top infill extrusion width = 0.42mm
; support material extrusion width = 0.40mm

G21 ; set units to millimeters
M104 S190 ; set temperature
G28
G29
G1 Z5 F5000 ; lift nozzle

M109 S190 ; wait for temperature to be reached
G90 ; use absolute coordinates
G92 E0
M82 ; use absolute distances for extrusion
M204 S1500
G1 F1800.000 E-1.00000
G92 E0
G1 Z0.350 F7800.000
G1 X138.750 Y120.118 F7800.000
G1 E1.00000 F1800.000
G1 X140.524 Y118.496 E1.22231 F1080.000
G1 X142.730 Y117.541 E1.44461
G1 X144.475 Y117.329 E1.60729
G1 X152.825 Y117.344 E2.37955
G1 X154.183 Y117.496 E2.50589 F1080.000
G1 X154.584 Y117.575 E2.54371
G1 X155.509 Y117.823 E2.63227
G1 X155.898 Y117.955 E2.67026
G1 X156.781 Y118.320 E2.75868
G1 X157.977 Y118.980 E2.88500
G1 X158.320 Y119.209 E2.92319
G1 X159.077 Y119.790 E3.01142
G1 X160.062 Y120.736 E3.13774
G1 X160.920 Y121.811 E3.26494
G1 X161.621 Y122.972 E3.39042
G1 X162.168 Y124.219 E3.51635
G1 X162.551 Y125.545 E3.64397
G1 X162.755 Y126.900 E3.77074
G1 X162.796 Y127.776 E3.85185
G1 X162.780 Y172.702 E8.00707
G1 X162.629 Y174.059 E8.13336
G1 X162.302 Y175.385 E8.25972
G1 X161.804 Y176.657 E8.38603
G1 X161.147 Y177.850 E8.51199
G1 X160.329 Y178.960 E8.63952
G1 X159.389 Y179.938 E8.76499
G1 X158.314 Y180.796 E8.89217
G1 X157.153 Y181.497 E9.01767
G1 X155.902 Y182.045 E9.14397
G1 X154.592 Y182.424 E9.27007
G1 X153.221 Y182.631 E9.39838
G1 X152.350 Y182.671 E9.47904
G1 X144.475 Y182.671 E10.20731
G1 X142.105 Y182.274 E10.42962
G1 X139.994 Y181.126 E10.65192
G1 X138.372 Y179.352 E10.87423
G1 X137.417 Y177.146 E11.09653
G1 X137.204 Y175.400 E11.25921
G1 X137.204 Y124.600 E15.95775
G1 X137.602 Y122.230 E16.18006
G1 X138.721 Y120.171 E16.39681
G1 X139.324 Y120.448 F7800.000
G1 X139.380 Y120.349 E16.40734 F1080.000
G1 X141.133 Y118.867 E16.61963
G1 X143.286 Y118.072 E16.83193
G1 X144.475 Y117.964 E16.94236
G1 X152.783 Y117.979 E17.71077
G1 X154.059 Y118.119 E17.82942 F1080.000
G1 X154.459 Y118.199 E17.86723
G1 X155.304 Y118.425 E17.94811
G1 X155.693 Y118.557 E17.98607
G1 X156.500 Y118.890 E18.06683
G1 X157.624 Y119.508 E18.18546
G1 X157.967 Y119.737 E18.22360
G1 X158.658 Y120.267 E18.30420
G1 X159.584 Y121.155 E18.42282
G1 X160.392 Y122.164 E18.54234
G1 X161.051 Y123.253 E18.66013
G1 X161.566 Y124.424 E18.77840
G1 X161.927 Y125.669 E18.89830
G1 X162.121 Y126.940 E19.01727
G1 X162.160 Y127.776 E19.09465
G1 X162.146 Y172.660 E23.24602
G1 X162.005 Y173.935 E23.36463
G1 X161.700 Y175.181 E23.48330
G1 X161.230 Y176.384 E23.60276
G1 X160.619 Y177.497 E23.72022
G1 X159.860 Y178.531 E23.83878
G1 X158.970 Y179.460 E23.95781
G1 X157.970 Y180.261 E24.07633
G1 X156.872 Y180.927 E24.19512
G1 X155.698 Y181.443 E24.31374
G1 X154.457 Y181.803 E24.43323
G1 X153.181 Y181.996 E24.55261
G1 X152.350 Y182.036 E24.62957
G1 X144.475 Y182.036 E25.35785
G1 X142.215 Y181.639 E25.57014
G1 X140.225 Y180.495 E25.78244
G1 X138.743 Y178.742 E25.99474
G1 X137.947 Y176.589 E26.20703
G1 X137.840 Y175.400 E26.31746
G1 X137.840 Y124.600 E31.01600
G1 X138.237 Y122.339 E31.22830
G1 X139.294 Y120.500 E31.42452
G1 F1800.000 E30.42452
G92 E0
G1 X141.054 Y122.178 F7800.000
G1 E1.00000 F1800.000
G1 X142.764 Y120.468 E1.22366 F1080.000
G1 X152.552 Y120.473 E2.12897
G1 X153.437 Y120.549 E2.21111 F1080.000
G1 X154.111 Y120.683 E2.27468
G1 X154.886 Y120.927 E2.34982
G1 X155.272 Y121.077 E2.38807
G1 X155.886 Y121.380 E2.45145
G1 X156.120 Y121.515 E2.47646
G1 X156.693 Y121.898 E2.54017
G1 X156.906 Y122.062 E2.56503
G1 X157.420 Y122.512 E2.62826
G1 X157.613 Y122.705 E2.65352
G1 X158.064 Y123.219 E2.71675
G1 X158.228 Y123.433 E2.74161
G1 X158.611 Y124.005 E2.80532
G1 X158.746 Y124.240 E2.83035
G1 X159.049 Y124.854 E2.89371
G1 X159.152 Y125.103 E2.91861
G1 X159.373 Y125.754 E2.98219
G1 X159.443 Y126.014 E3.00713
G1 X159.577 Y126.690 E3.07090
G1 X159.613 Y126.962 E3.09628
G1 X159.656 Y127.711 E3.16565
G1 X159.656 Y172.294 E7.28913
G1 X159.611 Y173.046 E7.35880
G1 X159.576 Y173.315 E7.38389
G1 X159.442 Y173.987 E7.44733
G1 X159.371 Y174.250 E7.47253
G1 X159.152 Y174.897 E7.53571
G1 X159.048 Y175.147 E7.56072
G1 X158.745 Y175.762 E7.62410
G1 X158.530 Y176.115 E7.66235
G1 X158.065 Y176.780 E7.73738
G1 X157.612 Y177.297 E7.80100
G1 X157.420 Y177.488 E7.82601
G1 X156.905 Y177.940 E7.88944
G1 X156.691 Y178.105 E7.91441
G1 X156.120 Y178.486 E7.97791
G1 X155.886 Y178.621 E8.00293
G1 X155.270 Y178.925 E8.06638
G1 X155.020 Y179.028 E8.09144
G1 X154.372 Y179.248 E8.15477
G1 X154.111 Y179.318 E8.17973
G1 X153.435 Y179.453 E8.24351
G1 X153.161 Y179.489 E8.26903
G1 X152.414 Y179.532 E8.33822
G1 X142.764 Y179.532 E9.23076
G1 X140.344 Y177.111 E9.54733
G1 X140.344 Y122.889 E14.56243
G1 X141.012 Y122.221 E14.64979
G1 X141.504 Y122.628 F7800.000
G1 X143.027 Y121.104 E14.84910 F1080.000
G1 X152.407 Y121.104 E15.71660
G1 X153.106 Y121.146 E15.78140 F1080.000
G1 X153.967 Y121.302 E15.86229
G1 X154.680 Y121.529 E15.93156
G1 X155.009 Y121.656 E15.96414
G1 X155.785 Y122.055 E16.04482
G1 X156.322 Y122.415 E16.10464
G1 X156.986 Y122.977 E16.18505
G1 X157.149 Y123.140 E16.20642
G1 X157.711 Y123.803 E16.28684
G1 X158.070 Y124.341 E16.34666
G1 X158.185 Y124.539 E16.36784
G1 X158.557 Y125.327 E16.44840
G1 X158.823 Y126.159 E16.52918
G1 X158.950 Y126.794 E16.58905
G1 X158.980 Y127.024 E16.61053
G1 X159.020 Y127.721 E16.67514
G1 X159.020 Y172.283 E20.79673
G1 X158.978 Y172.983 E20.86159
G1 X158.823 Y173.843 E20.94238
G1 X158.763 Y174.065 E20.96370
G1 X158.469 Y174.885 E21.04420
G1 X158.184 Y175.462 E21.10374
G1 X158.001 Y175.763 E21.13633
G1 X157.573 Y176.376 E21.20550
G1 X157.148 Y176.862 E21.26524
G1 X156.986 Y177.024 E21.28641
G1 X156.320 Y177.588 E21.36708
G1 X155.586 Y178.060 E21.44786
G1 X155.008 Y178.345 E21.50746
G1 X154.187 Y178.640 E21.58812
G1 X153.331 Y178.825 E21.66909
G1 X153.100 Y178.856 E21.69068
G1 X152.404 Y178.896 E21.75513
G1 X143.027 Y178.896 E22.62240
G1 X140.980 Y176.848 E22.89027
G1 X140.980 Y123.152 E27.85667
G1 X141.461 Y122.670 E27.91968
G1 X141.953 Y123.077 F7800.000
G1 X143.291 Y121.740 E28.09463 F1080.000
G1 X152.490 Y121.743 E28.94547
G1 X153.230 Y121.804 E29.01416 F1080.000
G1 X153.822 Y121.921 E29.06999
G1 X154.746 Y122.235 E29.16028
G1 X155.449 Y122.595 E29.23327
G1 X155.951 Y122.931 E29.28920
G1 X156.685 Y123.575 E29.37942
G1 X157.194 Y124.174 E29.45220
G1 X157.530 Y124.677 E29.50814
G1 X157.962 Y125.551 E29.59832
G1 X158.204 Y126.303 E29.67139
G1 X158.322 Y126.897 E29.72736
G1 X158.385 Y127.731 E29.80475
G1 X158.385 Y172.273 E33.92446
G1 X158.345 Y172.921 E33.98451
G1 X158.154 Y173.880 E34.07499
G1 X157.961 Y174.449 E34.13055
G1 X157.844 Y174.714 E34.15735
G1 X157.530 Y175.324 E34.22077
G1 X157.195 Y175.826 E34.27658
G1 X156.551 Y176.560 E34.36691
G1 X155.950 Y177.071 E34.43990
G1 X155.448 Y177.406 E34.49568
G1 X154.745 Y177.766 E34.56872
G1 X153.822 Y178.080 E34.65893
G1 X153.039 Y178.223 E34.73255
G1 X152.394 Y178.260 E34.79227
G1 X143.291 Y178.260 E35.63426
G1 X141.615 Y176.585 E35.85342
G1 X141.615 Y123.415 E40.77113
G1 X141.911 Y123.120 E40.80978
G1 X142.403 Y123.527 F7800.000
G1 X143.554 Y122.375 E40.96039 F1080.000
G1 X152.386 Y122.375 E41.77726
G1 X152.982 Y122.412 E41.83247 F1080.000
G1 X153.678 Y122.541 E41.89791
G1 X154.484 Y122.814 E41.97667
G1 X155.113 Y123.135 E42.04199
G1 X155.581 Y123.448 E42.09402
G1 X156.220 Y124.009 E42.17273
G1 X156.678 Y124.545 E42.23788
G1 X156.990 Y125.013 E42.28992
G1 X157.367 Y125.776 E42.36860
G1 X157.585 Y126.448 E42.43398
G1 X157.695 Y127.000 E42.48605
G1 X157.749 Y127.741 E42.55478
G1 X157.749 Y172.262 E46.67260
G1 X157.712 Y172.859 E46.72784
G1 X157.546 Y173.695 E46.80675
G1 X157.366 Y174.225 E46.85850
G1 X157.274 Y174.433 E46.87953
G1 X156.990 Y174.988 E46.93721
G1 X156.678 Y175.455 E46.98915
G1 X156.116 Y176.096 E47.06794
G1 X155.579 Y176.554 E47.13325
G1 X155.112 Y176.866 E47.18517
G1 X154.483 Y177.187 E47.25051
G1 X153.677 Y177.460 E47.32921
G1 X152.978 Y177.590 E47.39500
G1 X152.384 Y177.625 E47.44999
G1 X143.554 Y177.625 E48.26671
G1 X142.251 Y176.321 E48.43717
G1 X142.251 Y123.679 E53.30617
G1 X142.360 Y123.569 E53.32048
G1 X142.886 Y123.942 F7800.000
G1 X143.817 Y123.011 E53.44223 F1080.000
G1 X152.427 Y123.013 E54.23860
G1 X153.023 Y123.058 E54.29384 F1080.000
G1 X153.533 Y123.160 E54.34193
G1 X154.221 Y123.394 E54.40917
G1 X154.777 Y123.675 E54.46680
G1 X155.210 Y123.965 E54.51495
G1 X155.756 Y124.444 E54.58215
G1 X156.161 Y124.916 E54.63966
G1 X156.450 Y125.349 E54.68781
G1 X156.772 Y126.000 E54.75499
G1 X156.966 Y126.593 E54.81266
G1 X157.067 Y127.103 E54.86083
G1 X157.114 Y127.751 E54.92090
G1 X157.114 Y172.252 E59.03684
G1 X157.080 Y172.796 E59.08727
G1 X156.937 Y173.510 E59.15461
G1 X156.704 Y174.152 E59.21777
G1 X156.450 Y174.653 E59.26970
G1 X156.161 Y175.085 E59.31777
G1 X155.681 Y175.632 E59.38503
G1 X155.209 Y176.037 E59.44265
G1 X154.777 Y176.326 E59.49071
G1 X154.221 Y176.608 E59.54836
G1 X153.533 Y176.841 E59.61555
G1 X152.917 Y176.956 E59.67352
G1 X152.374 Y176.989 E59.72376
G1 X143.817 Y176.989 E60.51522
G1 X142.886 Y176.058 E60.63697
G1 X142.886 Y124.002 E65.45172
G1 X143.522 Y124.205 F7800.000
G1 X144.081 Y123.647 E65.52477 F1080.000
G1 X152.365 Y123.647 E66.29102
G1 X152.857 Y123.678 E66.33664 F1080.000
G1 X153.388 Y123.779 E66.38664
G1 X153.959 Y123.973 E66.44235
G1 X154.441 Y124.215 E66.49230
G1 X154.839 Y124.481 E66.53656
G1 X155.292 Y124.878 E66.59225
G1 X155.644 Y125.286 E66.64213
G1 X155.910 Y125.684 E66.68639
G1 X156.176 Y126.224 E66.74207
G1 X156.346 Y126.737 E66.79204
G1 X156.440 Y127.207 E66.83631
G1 X156.478 Y127.761 E66.88772
G1 X156.478 Y172.242 E71.00177
G1 X156.447 Y172.734 E71.04740
G1 X156.329 Y173.325 E71.10317
G1 X156.134 Y173.871 E71.15676
G1 X155.909 Y174.317 E71.20294
G1 X155.644 Y174.714 E71.24715
G1 X155.247 Y175.167 E71.30287
G1 X154.838 Y175.520 E71.35281
G1 X154.441 Y175.786 E71.39701
G1 X153.958 Y176.028 E71.44696
G1 X153.388 Y176.222 E71.50264
G1 X152.856 Y176.323 E71.55279
G1 X152.364 Y176.353 E71.59830
G1 X144.081 Y176.353 E72.36448
G1 X143.522 Y175.795 E72.43753
G1 X143.522 Y124.265 E77.20358
G1 X144.158 Y124.468 F7800.000
G1 X144.344 Y124.282 E77.22793 F1080.000
G1 X152.355 Y124.282 E77.96886
G1 X152.816 Y124.313 E78.01161
G1 X153.264 Y124.404 E78.05388
G1 X153.677 Y124.544 E78.09424
G1 X154.087 Y124.745 E78.13650
G1 X154.468 Y124.998 E78.17879
G1 X154.813 Y125.298 E78.22103
G1 X155.128 Y125.657 E78.26521
G1 X155.381 Y126.038 E78.30751
G1 X155.581 Y126.448 E78.34976
G1 X155.722 Y126.862 E78.39012
G1 X155.812 Y127.310 E78.43241
G1 X155.842 Y127.771 E78.47516
G1 X155.842 Y172.231 E82.58732
G1 X155.814 Y172.672 E82.62814
G1 X155.726 Y173.120 E82.67041
G1 X155.580 Y173.553 E82.71266
G1 X155.380 Y173.963 E82.75491
G1 X155.127 Y174.344 E82.79717
G1 X154.827 Y174.689 E82.83943
G1 X154.484 Y174.991 E82.88169
G1 X154.105 Y175.246 E82.92395
G1 X153.696 Y175.449 E82.96620
G1 X153.244 Y175.603 E83.01037
G1 X152.794 Y175.690 E83.05270
G1 X152.354 Y175.718 E83.09347
G1 X144.344 Y175.718 E83.83438
G1 X144.158 Y175.532 E83.85873
G1 X144.158 Y124.528 E88.57607
G1 F1800.000 E87.57607
G92 E0
G1 X144.825 Y175.050 F7800.000
G1 E1.00000 F1800.000
G1 X144.825 Y124.950 E5.63380 F378.000
G1 X152.338 Y124.950 E6.32864
G1 X152.718 Y124.975 E6.36388
G1 X153.081 Y125.047 E6.39806
G1 X153.431 Y125.166 E6.43224
G1 X153.762 Y125.329 E6.46643
G1 X154.069 Y125.535 E6.50060
G1 X154.347 Y125.778 E6.53479
G1 X154.591 Y126.056 E6.56898
G1 X154.796 Y126.363 E6.60316
G1 X154.960 Y126.695 E6.63734
G1 X155.079 Y127.045 E6.67152
G1 X155.151 Y127.407 E6.70566
G1 X155.175 Y127.787 E6.74090
G1 X155.175 Y172.215 E10.85004
G1 X155.150 Y172.595 E10.88527
G1 X155.078 Y172.957 E10.91944
G1 X154.959 Y173.307 E10.95361
G1 X154.795 Y173.638 E10.98778
G1 X154.590 Y173.945 E11.02195
G1 X154.347 Y174.223 E11.05612
G1 X154.069 Y174.467 E11.09029
G1 X153.762 Y174.672 E11.12446
G1 X153.430 Y174.835 E11.15862
G1 X153.080 Y174.954 E11.19280
G1 X152.719 Y175.026 E11.22692
G1 X152.339 Y175.050 E11.26214
G1 X144.885 Y175.050 E11.95148
G1 X145.025 Y174.704 F7800.000
G1 X145.461 Y174.414 F7800.000
G1 X145.461 Y167.753 E12.56758 F540.000
G1 X145.806 Y167.636 E12.60129
G1 X146.514 Y168.558 E12.70881
G1 X147.293 Y169.156 E12.79966
G1 X148.201 Y169.532 E12.89051
G1 X149.174 Y169.660 E12.98136
G1 X150.148 Y169.532 E13.07221
G1 X151.056 Y169.156 E13.16306
G1 X151.835 Y168.558 E13.25391
G1 X151.961 Y168.395 E13.27300
G1 X152.433 Y167.779 E13.34477
G1 X152.809 Y166.872 E13.43561
G1 X152.937 Y165.898 E13.52647
G1 X152.809 Y164.924 E13.61732
G1 X152.730 Y164.733 E13.63640
G1 X152.433 Y164.016 E13.70817
G1 X151.835 Y163.237 E13.79902
G1 X151.056 Y162.639 E13.88987
G1 X150.148 Y162.263 E13.98072
G1 X149.174 Y162.135 E14.07157
G1 X148.201 Y162.263 E14.16243
G1 X147.293 Y162.639 E14.25327
G1 X146.514 Y163.237 E14.34413
G1 X145.806 Y164.159 E14.45165
G1 X145.461 Y164.042 E14.48535
G1 X145.461 Y135.955 E17.08316
G1 X145.806 Y135.838 E17.11686
G1 X146.514 Y136.760 E17.22438
G1 X147.293 Y137.358 E17.31524
G1 X148.201 Y137.734 E17.40609
G1 X149.174 Y137.862 E17.49694
G1 X150.148 Y137.734 E17.58779
G1 X151.056 Y137.358 E17.67864
G1 X151.835 Y136.760 E17.76949
G1 X151.961 Y136.596 E17.78857
G1 X152.433 Y135.981 E17.86034
G1 X152.809 Y135.073 E17.95119
G1 X152.937 Y134.099 E18.04204
G1 X152.809 Y133.126 E18.13289
G1 X152.433 Y132.218 E18.22375
G1 X151.835 Y131.439 E18.31460
G1 X151.056 Y130.841 E18.40545
G1 X150.148 Y130.465 E18.49630
G1 X149.174 Y130.337 E18.58715
G1 X148.201 Y130.465 E18.67800
G1 X147.293 Y130.841 E18.76885
G1 X146.514 Y131.439 E18.85970
G1 X145.806 Y132.361 E18.96722
G1 X145.461 Y132.244 E19.00093
G1 X145.461 Y125.586 E19.61676
G1 X152.317 Y125.586 E20.25089
G1 X152.635 Y125.606 E20.28036
G1 X152.916 Y125.662 E20.30683
G1 X153.187 Y125.754 E20.33331
G1 X153.444 Y125.881 E20.35979
G1 X153.682 Y126.040 E20.38625
G1 X153.897 Y126.229 E20.41274
G1 X154.086 Y126.444 E20.43922
G1 X154.245 Y126.682 E20.46569
G1 X154.371 Y126.939 E20.49217
G1 X154.463 Y127.210 E20.51864
G1 X154.519 Y127.489 E20.54500
G1 X154.539 Y127.807 E20.57446
G1 X154.539 Y172.194 E24.67983
G1 X154.518 Y172.512 E24.70928
G1 X154.462 Y172.792 E24.73574
G1 X154.370 Y173.063 E24.76221
G1 X154.244 Y173.320 E24.78867
G1 X154.085 Y173.558 E24.81513
G1 X153.896 Y173.773 E24.84159
G1 X153.681 Y173.961 E24.86806
G1 X153.443 Y174.120 E24.89452
G1 X153.187 Y174.247 E24.92098
G1 X152.916 Y174.339 E24.94745
G1 X152.636 Y174.394 E24.97379
G1 X152.319 Y174.414 E25.00323
G1 X145.521 Y174.414 E25.63193
G1 X147.832 Y168.691 F7800.000
G1 X147.614 Y168.601 E25.65375 F378.000
G1 X146.967 Y168.105 E25.72913
G1 X146.471 Y167.458 E25.80450
G1 X146.159 Y166.706 E25.87987
G1 X146.053 Y165.898 E25.95524
G1 X146.159 Y165.090 E26.03061
G1 X146.471 Y164.337 E26.10598
G1 X146.967 Y163.690 E26.18135
G1 X147.614 Y163.194 E26.25673
G1 X148.367 Y162.882 E26.33210
G1 X149.174 Y162.776 E26.40747
G1 X149.861 Y162.866 E26.47149
G1 X149.982 Y162.882 E26.48284 F378.000
G1 X150.735 Y163.194 E26.55821
G1 X151.382 Y163.690 E26.63358
G1 X151.878 Y164.337 E26.70895
G1 X152.190 Y165.090 E26.78433
G1 X152.296 Y165.898 E26.85970
G1 X152.190 Y166.706 E26.93507
G1 X151.878 Y167.458 E27.01044
G1 X151.457 Y168.008 E27.07446
G1 X151.382 Y168.105 E27.08581
G1 X150.735 Y168.601 E27.16118
G1 X149.982 Y168.913 E27.23655
G1 X149.175 Y169.019 E27.31193
G1 X148.367 Y168.913 E27.38730
G1 X147.887 Y168.714 E27.43530
G1 F1800.000 E26.43530
G92 E0
G1 X149.881 Y162.745 F7800.000
G1 X149.175 Y137.221 F7800.000
G1 E1.00000 F1800.000
G1 X148.367 Y137.115 E1.07537 F378.000
G1 X147.614 Y136.803 E1.15074
G1 X146.967 Y136.307 E1.22612
G1 X146.471 Y135.660 E1.30149
G1 X146.159 Y134.907 E1.37686
G1 X146.053 Y134.099 E1.45223
G1 X146.186 Y133.085 E1.54690
G1 X146.052 Y133.085 E1.55933
G1 X146.967 Y131.892 E1.69835
G1 X147.614 Y131.396 E1.77372
G1 X148.367 Y131.084 E1.84909
G1 X149.174 Y130.978 E1.92447
G1 X149.861 Y131.068 E1.98849
G1 X149.982 Y131.084 E1.99984 F378.000
G1 X150.735 Y131.396 E2.07521
G1 X151.382 Y131.892 E2.15058
