( Made using CamBam - http://www.cambam.co.uk )
( extruder_bracket_b 10/9/2014 9:04:57 PM )
( T0 : 0.125 )
G20 G90 G64 G40
G0 Z0.125
( T0 : 0.125 )
T0 M6
( cutout )
G17
M3 S1000
G0 X5.2498 Y2.1006
G0 Z0.0625
G1 F10.0 Z-0.01
G2 F15.0 X5.156 Y2.0465 I-0.0625 J0.0
G2 Y2.1547 I0.0313 J0.0541
G2 X5.2498 Y2.1006 I0.0313 J-0.0541
G1 F10.0 Z-0.02
G2 F15.0 X5.156 Y2.0465 I-0.0625 J0.0
G2 Y2.1547 I0.0313 J0.0541
G2 X5.2498 Y2.1006 I0.0313 J-0.0541
G1 F10.0 Z-0.03
G2 F15.0 X5.156 Y2.0465 I-0.0625 J0.0
G2 Y2.1547 I0.0313 J0.0541
G2 X5.2498 Y2.1006 I0.0313 J-0.0541
G1 F10.0 Z-0.04
G2 F15.0 X5.156 Y2.0465 I-0.0625 J0.0
G2 Y2.1547 I0.0313 J0.0541
G2 X5.2498 Y2.1006 I0.0313 J-0.0541
G1 F10.0 Z-0.05
G2 F15.0 X5.156 Y2.0465 I-0.0625 J0.0
G2 Y2.1547 I0.0313 J0.0541
G2 X5.2498 Y2.1006 I0.0313 J-0.0541
G1 F10.0 Z-0.06
G2 F15.0 X5.156 Y2.0465 I-0.0625 J0.0
G2 Y2.1547 I0.0313 J0.0541
G2 X5.2498 Y2.1006 I0.0313 J-0.0541
G1 F10.0 Z-0.07
G2 F15.0 X5.156 Y2.0465 I-0.0625 J0.0
G2 Y2.1547 I0.0313 J0.0541
G2 X5.2498 Y2.1006 I0.0313 J-0.0541
G0 Z0.125
G0 X5.2054 Y1.5255
G0 Z0.0625
G1 F10.0 Z-0.01
G2 F15.0 X5.2262 Y1.5031 I-0.0017 J-0.0224
G2 X5.1924 Y1.4836 I-0.0225 J0.0
G2 Y1.5226 I0.0113 J0.0195
G2 X5.2054 Y1.5255 I0.0113 J-0.0195
G1 F10.0 Z-0.02
G2 F15.0 X5.2262 Y1.5031 I-0.0017 J-0.0224
G2 X5.1924 Y1.4836 I-0.0225 J0.0
G2 Y1.5226 I0.0113 J0.0195
G2 X5.2054 Y1.5255 I0.0113 J-0.0195
G1 F10.0 Z-0.03
G2 F15.0 X5.2262 Y1.5031 I-0.0017 J-0.0224
G2 X5.1924 Y1.4836 I-0.0225 J0.0
G2 Y1.5226 I0.0113 J0.0195
G2 X5.2054 Y1.5255 I0.0113 J-0.0195
G1 F10.0 Z-0.04
G2 F15.0 X5.2262 Y1.5031 I-0.0017 J-0.0224
G2 X5.1924 Y1.4836 I-0.0225 J0.0
G2 Y1.5226 I0.0113 J0.0195
G2 X5.2054 Y1.5255 I0.0113 J-0.0195
G1 F10.0 Z-0.05
G2 F15.0 X5.2262 Y1.5031 I-0.0017 J-0.0224
G2 X5.1924 Y1.4836 I-0.0225 J0.0
G2 Y1.5226 I0.0113 J0.0195
G2 X5.2054 Y1.5255 I0.0113 J-0.0195
G1 F10.0 Z-0.06
G2 F15.0 X5.2262 Y1.5031 I-0.0017 J-0.0224
G2 X5.1924 Y1.4836 I-0.0225 J0.0
G2 Y1.5226 I0.0113 J0.0195
G2 X5.2054 Y1.5255 I0.0113 J-0.0195
G1 F10.0 Z-0.07
G2 F15.0 X5.2262 Y1.5031 I-0.0017 J-0.0224
G2 X5.1924 Y1.4836 I-0.0225 J0.0
G2 Y1.5226 I0.0113 J0.0195
G2 X5.2054 Y1.5255 I0.0113 J-0.0195
G0 Z0.125
G0 X5.7257 Y1.0432
G0 Z0.0625
G1 F10.0 Z-0.01
G2 F15.0 X5.7403 Y1.0549 I0.0458 J-0.0425
G2 X5.834 Y1.0007 I0.0313 J-0.0541
G2 X5.7403 Y0.9466 I-0.0625 J0.0
G2 X5.7257 Y1.0432 I0.0313 J0.0541
G1 F10.0 Z-0.02
G2 F15.0 X5.7403 Y1.0549 I0.0458 J-0.0425
G2 X5.834 Y1.0007 I0.0313 J-0.0541
G2 X5.7403 Y0.9466 I-0.0625 J0.0
G2 X5.7257 Y1.0432 I0.0313 J0.0541
G1 F10.0 Z-0.03
G2 F15.0 X5.7403 Y1.0549 I0.0458 J-0.0425
G2 X5.834 Y1.0007 I0.0313 J-0.0541
G2 X5.7403 Y0.9466 I-0.0625 J0.0
G2 X5.7257 Y1.0432 I0.0313 J0.0541
G1 F10.0 Z-0.04
G2 F15.0 X5.7403 Y1.0549 I0.0458 J-0.0425
G2 X5.834 Y1.0007 I0.0313 J-0.0541
G2 X5.7403 Y0.9466 I-0.0625 J0.0
G2 X5.7257 Y1.0432 I0.0313 J0.0541
G1 F10.0 Z-0.05
G2 F15.0 X5.7403 Y1.0549 I0.0458 J-0.0425
G2 X5.834 Y1.0007 I0.0313 J-0.0541
G2 X5.7403 Y0.9466 I-0.0625 J0.0
G2 X5.7257 Y1.0432 I0.0313 J0.0541
G1 F10.0 Z-0.06
G2 F15.0 X5.7403 Y1.0549 I0.0458 J-0.0425
G2 X5.834 Y1.0007 I0.0313 J-0.0541
G2 X5.7403 Y0.9466 I-0.0625 J0.0
G2 X5.7257 Y1.0432 I0.0313 J0.0541
G1 F10.0 Z-0.07
G2 F15.0 X5.7403 Y1.0549 I0.0458 J-0.0425
G2 X5.834 Y1.0007 I0.0313 J-0.0541
G2 X5.7403 Y0.9466 I-0.0625 J0.0
G2 X5.7257 Y1.0432 I0.0313 J0.0541
G0 Z0.125
G0 X5.2189 Y0.5138
G0 Z0.0625
G1 F10.0 Z-0.01
G2 F15.0 X5.2257 Y0.4981 I-0.0151 J-0.0157
G2 X5.193 Y0.4792 I-0.0218 J0.0
G2 Y0.5169 I0.0109 J0.0189
G2 X5.2189 Y0.5138 I0.0109 J-0.0189
G1 F10.0 Z-0.02
G2 F15.0 X5.2257 Y0.4981 I-0.0151 J-0.0157
G2 X5.193 Y0.4792 I-0.0218 J0.0
G2 Y0.5169 I0.0109 J0.0189
G2 X5.2189 Y0.5138 I0.0109 J-0.0189
G1 F10.0 Z-0.03
G2 F15.0 X5.2257 Y0.4981 I-0.0151 J-0.0157
G2 X5.193 Y0.4792 I-0.0218 J0.0
G2 Y0.5169 I0.0109 J0.0189
G2 X5.2189 Y0.5138 I0.0109 J-0.0189
G1 F10.0 Z-0.04
G2 F15.0 X5.2257 Y0.4981 I-0.0151 J-0.0157
G2 X5.193 Y0.4792 I-0.0218 J0.0
G2 Y0.5169 I0.0109 J0.0189
G2 X5.2189 Y0.5138 I0.0109 J-0.0189
G1 F10.0 Z-0.05
G2 F15.0 X5.2257 Y0.4981 I-0.0151 J-0.0157
G2 X5.193 Y0.4792 I-0.0218 J0.0
G2 Y0.5169 I0.0109 J0.0189
G2 X5.2189 Y0.5138 I0.0109 J-0.0189
G1 F10.0 Z-0.06
G2 F15.0 X5.2257 Y0.4981 I-0.0151 J-0.0157
G2 X5.193 Y0.4792 I-0.0218 J0.0
G2 Y0.5169 I0.0109 J0.0189
G2 X5.2189 Y0.5138 I0.0109 J-0.0189
G1 F10.0 Z-0.07
G2 F15.0 X5.2257 Y0.4981 I-0.0151 J-0.0157
G2 X5.193 Y0.4792 I-0.0218 J0.0
G2 Y0.5169 I0.0109 J0.0189
G2 X5.2189 Y0.5138 I0.0109 J-0.0189
G0 Z0.125
G0 X5.1909 Y-0.037
G0 Z0.0625
G1 F10.0 Z-0.01
G2 F15.0 X5.2503 Y-0.0994 I-0.0032 J-0.0624
G2 X5.1565 Y-0.1535 I-0.0625 J0.0
G2 Y-0.0453 I0.0313 J0.0541
G2 X5.1909 Y-0.037 I0.0313 J-0.0541
G1 F10.0 Z-0.02
G2 F15.0 X5.2503 Y-0.0994 I-0.0032 J-0.0624
G2 X5.1565 Y-0.1535 I-0.0625 J0.0
G2 Y-0.0453 I0.0313 J0.0541
G2 X5.1909 Y-0.037 I0.0313 J-0.0541
G1 F10.0 Z-0.03
G2 F15.0 X5.2503 Y-0.0994 I-0.0032 J-0.0624
G2 X5.1565 Y-0.1535 I-0.0625 J0.0
G2 Y-0.0453 I0.0313 J0.0541
G2 X5.1909 Y-0.037 I0.0313 J-0.0541
G1 F10.0 Z-0.04
G2 F15.0 X5.2503 Y-0.0994 I-0.0032 J-0.0624
G2 X5.1565 Y-0.1535 I-0.0625 J0.0
G2 Y-0.0453 I0.0313 J0.0541
G2 X5.1909 Y-0.037 I0.0313 J-0.0541
G1 F10.0 Z-0.05
G2 F15.0 X5.2503 Y-0.0994 I-0.0032 J-0.0624
G2 X5.1565 Y-0.1535 I-0.0625 J0.0
G2 Y-0.0453 I0.0313 J0.0541
G2 X5.1909 Y-0.037 I0.0313 J-0.0541
G1 F10.0 Z-0.06
G2 F15.0 X5.2503 Y-0.0994 I-0.0032 J-0.0624
G2 X5.1565 Y-0.1535 I-0.0625 J0.0
G2 Y-0.0453 I0.0313 J0.0541
G2 X5.1909 Y-0.037 I0.0313 J-0.0541
G1 F10.0 Z-0.07
G2 F15.0 X5.2503 Y-0.0994 I-0.0032 J-0.0624
G2 X5.1565 Y-0.1535 I-0.0625 J0.0
G2 Y-0.0453 I0.0313 J0.0541
G2 X5.1909 Y-0.037 I0.0313 J-0.0541
G0 Z0.125
G0 X6.321 Y0.4888
G0 Z0.0625
G1 F10.0 Z-0.01
G2 F15.0 X6.3301 Y0.5178 I0.0204 J0.0095
G2 X6.3639 Y0.4983 I0.0113 J-0.0195
G2 X6.3301 Y0.4789 I-0.0225 J0.0
G2 X6.321 Y0.4888 I0.0113 J0.0195
G1 F10.0 Z-0.02
G2 F15.0 X6.3301 Y0.5178 I0.0204 J0.0095
G2 X6.3639 Y0.4983 I0.0113 J-0.0195
G2 X6.3301 Y0.4789 I-0.0225 J0.0
G2 X6.321 Y0.4888 I0.0113 J0.0195
G1 F10.0 Z-0.03
G2 F15.0 X6.3301 Y0.5178 I0.0204 J0.0095
G2 X6.3639 Y0.4983 I0.0113 J-0.0195
G2 X6.3301 Y0.4789 I-0.0225 J0.0
G2 X6.321 Y0.4888 I0.0113 J0.0195
G1 F10.0 Z-0.04
G2 F15.0 X6.3301 Y0.5178 I0.0204 J0.0095
G2 X6.3639 Y0.4983 I0.0113 J-0.0195
G2 X6.3301 Y0.4789 I-0.0225 J0.0
G2 X6.321 Y0.4888 I0.0113 J0.0195
G1 F10.0 Z-0.05
G2 F15.0 X6.3301 Y0.5178 I0.0204 J0.0095
G2 X6.3639 Y0.4983 I0.0113 J-0.0195
G2 X6.3301 Y0.4789 I-0.0225 J0.0
G2 X6.321 Y0.4888 I0.0113 J0.0195
G1 F10.0 Z-0.06
G2 F15.0 X6.3301 Y0.5178 I0.0204 J0.0095
G2 X6.3639 Y0.4983 I0.0113 J-0.0195
G2 X6.3301 Y0.4789 I-0.0225 J0.0
G2 X6.321 Y0.4888 I0.0113 J0.0195
G1 F10.0 Z-0.07
G2 F15.0 X6.3301 Y0.5178 I0.0204 J0.0095
G2 X6.3639 Y0.4983 I0.0113 J-0.0195
G2 X6.3301 Y0.4789 I-0.0225 J0.0
G2 X6.321 Y0.4888 I0.0113 J0.0195
G0 Z0.125
G0 X7.0849 Y0.4982
G0 Z0.0625
G1 F10.0 Z-0.01
G2 F15.0 X7.0962 Y0.518 I0.0225 J0.0003
G2 X7.1299 Y0.4985 I0.0113 J-0.0195
G2 X7.0962 Y0.479 I-0.0225 J0.0
G2 X7.0849 Y0.4982 I0.0113 J0.0195
G1 F10.0 Z-0.02
G2 F15.0 X7.0962 Y0.518 I0.0225 J0.0003
G2 X7.1299 Y0.4985 I0.0113 J-0.0195
G2 X7.0962 Y0.479 I-0.0225 J0.0
G2 X7.0849 Y0.4982 I0.0113 J0.0195
G1 F10.0 Z-0.03
G2 F15.0 X7.0962 Y0.518 I0.0225 J0.0003
G2 X7.1299 Y0.4985 I0.0113 J-0.0195
G2 X7.0962 Y0.479 I-0.0225 J0.0
G2 X7.0849 Y0.4982 I0.0113 J0.0195
G1 F10.0 Z-0.04
G2 F15.0 X7.0962 Y0.518 I0.0225 J0.0003
G2 X7.1299 Y0.4985 I0.0113 J-0.0195
G2 X7.0962 Y0.479 I-0.0225 J0.0
G2 X7.0849 Y0.4982 I0.0113 J0.0195
G1 F10.0 Z-0.05
G2 F15.0 X7.0962 Y0.518 I0.0225 J0.0003
G2 X7.1299 Y0.4985 I0.0113 J-0.0195
G2 X7.0962 Y0.479 I-0.0225 J0.0
G2 X7.0849 Y0.4982 I0.0113 J0.0195
G1 F10.0 Z-0.06
G2 F15.0 X7.0962 Y0.518 I0.0225 J0.0003
G2 X7.1299 Y0.4985 I0.0113 J-0.0195
G2 X7.0962 Y0.479 I-0.0225 J0.0
G2 X7.0849 Y0.4982 I0.0113 J0.0195
G1 F10.0 Z-0.07
G2 F15.0 X7.0962 Y0.518 I0.0225 J0.0003
G2 X7.1299 Y0.4985 I0.0113 J-0.0195
G2 X7.0962 Y0.479 I-0.0225 J0.0
G2 X7.0849 Y0.4982 I0.0113 J0.0195
G0 Z0.125
G0 X7.6275 Y0.9606
G0 Z0.0625
G1 F10.0 Z-0.01
G2 F15.0 X7.6438 Y1.0553 I0.0476 J0.0405
G2 X7.7376 Y1.0012 I0.0313 J-0.0541
G2 X7.6438 Y0.947 I-0.0625 J0.0
G2 X7.6275 Y0.9606 I0.0313 J0.0541
G1 F10.0 Z-0.02
G2 F15.0 X7.6438 Y1.0553 I0.0476 J0.0405
G2 X7.7376 Y1.0012 I0.0313 J-0.0541
G2 X7.6438 Y0.947 I-0.0625 J0.0
G2 X7.6275 Y0.9606 I0.0313 J0.0541
G1 F10.0 Z-0.03
G2 F15.0 X7.6438 Y1.0553 I0.0476 J0.0405
G2 X7.7376 Y1.0012 I0.0313 J-0.0541
G2 X7.6438 Y0.947 I-0.0625 J0.0
G2 X7.6275 Y0.9606 I0.0313 J0.0541
G1 F10.0 Z-0.04
G2 F15.0 X7.6438 Y1.0553 I0.0476 J0.0405
G2 X7.7376 Y1.0012 I0.0313 J-0.0541
G2 X7.6438 Y0.947 I-0.0625 J0.0
G2 X7.6275 Y0.9606 I0.0313 J0.0541
G1 F10.0 Z-0.05
G2 F15.0 X7.6438 Y1.0553 I0.0476 J0.0405
G2 X7.7376 Y1.0012 I0.0313 J-0.0541
G2 X7.6438 Y0.947 I-0.0625 J0.0
G2 X7.6275 Y0.9606 I0.0313 J0.0541
G1 F10.0 Z-0.06
G2 F15.0 X7.6438 Y1.0553 I0.0476 J0.0405
G2 X7.7376 Y1.0012 I0.0313 J-0.0541
G2 X7.6438 Y0.947 I-0.0625 J0.0
G2 X7.6275 Y0.9606 I0.0313 J0.0541
G1 F10.0 Z-0.07
G2 F15.0 X7.6438 Y1.0553 I0.0476 J0.0405
G2 X7.7376 Y1.0012 I0.0313 J-0.0541
G2 X7.6438 Y0.947 I-0.0625 J0.0
G2 X7.6275 Y0.9606 I0.0313 J0.0541
G0 Z0.125
G0 X7.1228 Y1.4873
G0 Z0.0625
G1 F10.0 Z-0.01
G2 F15.0 X7.096 Y1.4841 I-0.0156 J0.0162
G2 Y1.523 I0.0113 J0.0195
G2 X7.1297 Y1.5035 I0.0113 J-0.0195
G2 X7.1228 Y1.4873 I-0.0225 J0.0
G1 F10.0 Z-0.02
G2 F15.0 X7.096 Y1.4841 I-0.0156 J0.0162
G2 Y1.523 I0.0113 J0.0195
G2 X7.1297 Y1.5035 I0.0113 J-0.0195
G2 X7.1228 Y1.4873 I-0.0225 J0.0
G1 F10.0 Z-0.03
G2 F15.0 X7.096 Y1.4841 I-0.0156 J0.0162
G2 Y1.523 I0.0113 J0.0195
G2 X7.1297 Y1.5035 I0.0113 J-0.0195
G2 X7.1228 Y1.4873 I-0.0225 J0.0
G1 F10.0 Z-0.04
G2 F15.0 X7.096 Y1.4841 I-0.0156 J0.0162
G2 Y1.523 I0.0113 J0.0195
G2 X7.1297 Y1.5035 I0.0113 J-0.0195
G2 X7.1228 Y1.4873 I-0.0225 J0.0
G1 F10.0 Z-0.05
G2 F15.0 X7.096 Y1.4841 I-0.0156 J0.0162
G2 Y1.523 I0.0113 J0.0195
G2 X7.1297 Y1.5035 I0.0113 J-0.0195
G2 X7.1228 Y1.4873 I-0.0225 J0.0
G1 F10.0 Z-0.06
G2 F15.0 X7.096 Y1.4841 I-0.0156 J0.0162
G2 Y1.523 I0.0113 J0.0195
G2 X7.1297 Y1.5035 I0.0113 J-0.0195
G2 X7.1228 Y1.4873 I-0.0225 J0.0
G1 F10.0 Z-0.07
G2 F15.0 X7.096 Y1.4841 I-0.0156 J0.0162
G2 Y1.523 I0.0113 J0.0195
G2 X7.1297 Y1.5035 I0.0113 J-0.0195
G2 X7.1228 Y1.4873 I-0.0225 J0.0
G0 Z0.125
G0 X6.3616 Y1.5029
G0 Z0.0625
G1 F10.0 Z-0.01
G2 F15.0 X6.3279 Y1.4839 I-0.0225 J0.0005
G2 Y1.5228 I0.0112 J0.0195
G2 X6.3616 Y1.5034 I0.0112 J-0.0195
G2 Y1.5029 I-0.0225 J0.0
G1 F10.0 Z-0.02
G2 F15.0 X6.3279 Y1.4839 I-0.0225 J0.0005
G2 Y1.5228 I0.0112 J0.0195
G2 X6.3616 Y1.5034 I0.0112 J-0.0195
G2 Y1.5029 I-0.0225 J0.0
G1 F10.0 Z-0.03
G2 F15.0 X6.3279 Y1.4839 I-0.0225 J0.0005
G2 Y1.5228 I0.0112 J0.0195
G2 X6.3616 Y1.5034 I0.0112 J-0.0195
G2 Y1.5029 I-0.0225 J0.0
G1 F10.0 Z-0.04
G2 F15.0 X6.3279 Y1.4839 I-0.0225 J0.0005
G2 Y1.5228 I0.0112 J0.0195
G2 X6.3616 Y1.5034 I0.0112 J-0.0195
G2 Y1.5029 I-0.0225 J0.0
G1 F10.0 Z-0.05
G2 F15.0 X6.3279 Y1.4839 I-0.0225 J0.0005
G2 Y1.5228 I0.0112 J0.0195
G2 X6.3616 Y1.5034 I0.0112 J-0.0195
G2 Y1.5029 I-0.0225 J0.0
G1 F10.0 Z-0.06
G2 F15.0 X6.3279 Y1.4839 I-0.0225 J0.0005
G2 Y1.5228 I0.0112 J0.0195
G2 X6.3616 Y1.5034 I0.0112 J-0.0195
G2 Y1.5029 I-0.0225 J0.0
G1 F10.0 Z-0.07
G2 F15.0 X6.3279 Y1.4839 I-0.0225 J0.0005
G2 Y1.5228 I0.0112 J0.0195
G2 X6.3616 Y1.5034 I0.0112 J-0.0195
G2 Y1.5029 I-0.0225 J0.0
G0 Z0.125
G0 X8.2202 Y1.5038
G0 Z0.0625
G1 F10.0 Z-0.01
G2 F15.0 X8.2314 Y1.5233 I0.0225 J0.0
G2 X8.2652 Y1.5038 I0.0113 J-0.0195
G2 X8.2314 Y1.4843 I-0.0225 J0.0
G2 X8.2202 Y1.5038 I0.0113 J0.0195
G1 F10.0 Z-0.02
G2 F15.0 X8.2314 Y1.5233 I0.0225 J0.0
G2 X8.2652 Y1.5038 I0.0113 J-0.0195
G2 X8.2314 Y1.4843 I-0.0225 J0.0
G2 X8.2202 Y1.5038 I0.0113 J0.0195
G1 F10.0 Z-0.03
G2 F15.0 X8.2314 Y1.5233 I0.0225 J0.0
G2 X8.2652 Y1.5038 I0.0113 J-0.0195
G2 X8.2314 Y1.4843 I-0.0225 J0.0
G2 X8.2202 Y1.5038 I0.0113 J0.0195
G1 F10.0 Z-0.04
G2 F15.0 X8.2314 Y1.5233 I0.0225 J0.0
G2 X8.2652 Y1.5038 I0.0113 J-0.0195
G2 X8.2314 Y1.4843 I-0.0225 J0.0
G2 X8.2202 Y1.5038 I0.0113 J0.0195
G1 F10.0 Z-0.05
G2 F15.0 X8.2314 Y1.5233 I0.0225 J0.0
G2 X8.2652 Y1.5038 I0.0113 J-0.0195
G2 X8.2314 Y1.4843 I-0.0225 J0.0
G2 X8.2202 Y1.5038 I0.0113 J0.0195
G1 F10.0 Z-0.06
G2 F15.0 X8.2314 Y1.5233 I0.0225 J0.0
G2 X8.2652 Y1.5038 I0.0113 J-0.0195
G2 X8.2314 Y1.4843 I-0.0225 J0.0
G2 X8.2202 Y1.5038 I0.0113 J0.0195
G1 F10.0 Z-0.07
G2 F15.0 X8.2314 Y1.5233 I0.0225 J0.0
G2 X8.2652 Y1.5038 I0.0113 J-0.0195
G2 X8.2314 Y1.4843 I-0.0225 J0.0
G2 X8.2202 Y1.5038 I0.0113 J0.0195
G0 Z0.125
G0 X8.2442 Y0.5213
G0 Z0.0625
G1 F10.0 Z-0.01
G2 F15.0 X8.2673 Y0.4988 I0.0006 J-0.0225
G2 X8.2335 Y0.4793 I-0.0225 J0.0
G2 Y0.5183 I0.0113 J0.0195
G2 X8.2442 Y0.5213 I0.0113 J-0.0195
G1 F10.0 Z-0.02
G2 F15.0 X8.2673 Y0.4988 I0.0006 J-0.0225
G2 X8.2335 Y0.4793 I-0.0225 J0.0
G2 Y0.5183 I0.0113 J0.0195
G2 X8.2442 Y0.5213 I0.0113 J-0.0195
G1 F10.0 Z-0.03
G2 F15.0 X8.2673 Y0.4988 I0.0006 J-0.0225
G2 X8.2335 Y0.4793 I-0.0225 J0.0
G2 Y0.5183 I0.0113 J0.0195
G2 X8.2442 Y0.5213 I0.0113 J-0.0195
G1 F10.0 Z-0.04
G2 F15.0 X8.2673 Y0.4988 I0.0006 J-0.0225
G2 X8.2335 Y0.4793 I-0.0225 J0.0
G2 Y0.5183 I0.0113 J0.0195
G2 X8.2442 Y0.5213 I0.0113 J-0.0195
G1 F10.0 Z-0.05
G2 F15.0 X8.2673 Y0.4988 I0.0006 J-0.0225
G2 X8.2335 Y0.4793 I-0.0225 J0.0
G2 Y0.5183 I0.0113 J0.0195
G2 X8.2442 Y0.5213 I0.0113 J-0.0195
G1 F10.0 Z-0.06
G2 F15.0 X8.2673 Y0.4988 I0.0006 J-0.0225
G2 X8.2335 Y0.4793 I-0.0225 J0.0
G2 Y0.5183 I0.0113 J0.0195
G2 X8.2442 Y0.5213 I0.0113 J-0.0195
G1 F10.0 Z-0.07
G2 F15.0 X8.2673 Y0.4988 I0.0006 J-0.0225
G2 X8.2335 Y0.4793 I-0.0225 J0.0
G2 Y0.5183 I0.0113 J0.0195
G2 X8.2442 Y0.5213 I0.0113 J-0.0195
G0 Z0.125
G0 X3.5823 Y0.9936
G0 Z0.0625
G1 F10.0 Z-0.01
G2 F15.0 X3.4844 Y0.9435 I-0.0651 J0.0066
G2 Y1.0568 I0.0327 J0.0567
G2 X3.5826 Y1.0002 I0.0327 J-0.0567
G2 X3.5823 Y0.9936 I-0.0655 J0.0
G1 F10.0 Z-0.02
G2 F15.0 X3.4844 Y0.9435 I-0.0651 J0.0066
G2 Y1.0568 I0.0327 J0.0567
G2 X3.5826 Y1.0002 I0.0327 J-0.0567
G2 X3.5823 Y0.9936 I-0.0655 J0.0
G1 F10.0 Z-0.03
G2 F15.0 X3.4844 Y0.9435 I-0.0651 J0.0066
G2 Y1.0568 I0.0327 J0.0567
G2 X3.5826 Y1.0002 I0.0327 J-0.0567
G2 X3.5823 Y0.9936 I-0.0655 J0.0
G1 F10.0 Z-0.04
G2 F15.0 X3.4844 Y0.9435 I-0.0651 J0.0066
G2 Y1.0568 I0.0327 J0.0567
G2 X3.5826 Y1.0002 I0.0327 J-0.0567
G2 X3.5823 Y0.9936 I-0.0655 J0.0
G1 F10.0 Z-0.05
G2 F15.0 X3.4844 Y0.9435 I-0.0651 J0.0066
G2 Y1.0568 I0.0327 J0.0567
G2 X3.5826 Y1.0002 I0.0327 J-0.0567
G2 X3.5823 Y0.9936 I-0.0655 J0.0
G1 F10.0 Z-0.06
G2 F15.0 X3.4844 Y0.9435 I-0.0651 J0.0066
G2 Y1.0568 I0.0327 J0.0567
G2 X3.5826 Y1.0002 I0.0327 J-0.0567
G2 X3.5823 Y0.9936 I-0.0655 J0.0
G1 F10.0 Z-0.07
G2 F15.0 X3.4844 Y0.9435 I-0.0651 J0.0066
G2 Y1.0568 I0.0327 J0.0567
G2 X3.5826 Y1.0002 I0.0327 J-0.0567
G2 X3.5823 Y0.9936 I-0.0655 J0.0
G0 Z0.125
G0 X1.4825 Y0.9984
G0 Z0.0625
G1 F10.0 Z-0.01
G2 F15.0 X0.4394 Y0.3978 I-0.6954 J0.0016
G2 Y1.6023 I0.3477 J0.6022
G2 X1.4825 Y1.0001 I0.3477 J-0.6022
G2 Y0.9984 I-0.6954 J0.0
G1 F10.0 Z-0.02
G2 F15.0 X0.4394 Y0.3978 I-0.6954 J0.0016
G2 Y1.6023 I0.3477 J0.6022
G2 X1.4825 Y1.0001 I0.3477 J-0.6022
G2 Y0.9984 I-0.6954 J0.0
G1 F10.0 Z-0.03
G2 F15.0 X0.4394 Y0.3978 I-0.6954 J0.0016
G2 Y1.6023 I0.3477 J0.6022
G2 X1.4825 Y1.0001 I0.3477 J-0.6022
G2 Y0.9984 I-0.6954 J0.0
G1 F10.0 Z-0.04
G2 F15.0 X0.4394 Y0.3978 I-0.6954 J0.0016
G2 Y1.6023 I0.3477 J0.6022
G2 X1.4825 Y1.0001 I0.3477 J-0.6022
G2 Y0.9984 I-0.6954 J0.0
G1 F10.0 Z-0.05
G2 F15.0 X0.4394 Y0.3978 I-0.6954 J0.0016
G2 Y1.6023 I0.3477 J0.6022
G2 X1.4825 Y1.0001 I0.3477 J-0.6022
G2 Y0.9984 I-0.6954 J0.0
G1 F10.0 Z-0.06
G2 F15.0 X0.4394 Y0.3978 I-0.6954 J0.0016
G2 Y1.6023 I0.3477 J0.6022
G2 X1.4825 Y1.0001 I0.3477 J-0.6022
G2 Y0.9984 I-0.6954 J0.0
G1 F10.0 Z-0.07
G2 F15.0 X0.4394 Y0.3978 I-0.6954 J0.0016
G2 Y1.6023 I0.3477 J0.6022
G2 X1.4825 Y1.0001 I0.3477 J-0.6022
G2 Y0.9984 I-0.6954 J0.0
( Drill1 )
S1000
G0 Z0.125
G0 X1.4261 Y1.6325
G98
G81 X1.4261 Y1.6325 Z-0.07 R0.125 F10.0
G81 X1.4273 Y0.3749 Z-0.07
G81 X0.1481 Y0.3681 Z-0.07
G81 X0.1479 Y1.6456 Z-0.07
G80
( outline )
S1000
G0 Z0.125
G0 X-0.0631 Y2.0
G0 Z0.0625
G1 F10.0 Z-0.01
G1 F15.0 X-0.0625 Y0.0
G3 X0.0 Y-0.0625 I0.0625 J0.0
G1 X1.5748 Y-0.0624
G1 X4.8124 Y-0.062
G1 X4.8128 Y-0.2249
G3 X5.0003 Y-0.412 I0.1875 J0.0004
G1 X5.1878 Y-0.4119
G1 X5.1879
G3 X5.5003 Y-0.0994 I-0.0001 J0.3125
G1 Y-0.0993
G2 X5.6877 Y0.0882 I0.1875 J0.0
G1 X8.3238 Y0.0888
G3 X8.5112 Y0.2763 I0.0 J0.1875
G1 X8.5109 Y1.7263
G3 X8.3234 Y1.9138 I-0.1875 J0.0
G1 X5.6873 Y1.9132
G2 X5.4998 Y2.1007 I0.0 J0.1875
G3 X5.1873 Y2.4131 I-0.3125 J-0.0001
G1 X5.1872
G1 X4.9997
G3 X4.8122 Y2.2255 I0.0 J-0.1875
G1 X4.8123 Y2.063
G1 X1.5742 Y2.0626
G1 X-0.0006 Y2.0625
G3 X-0.0631 Y2.0 I0.0 J-0.0625
G1 F10.0 Z-0.02
G1 F15.0 X-0.0625 Y0.0
G3 X0.0 Y-0.0625 I0.0625 J0.0
G1 X1.5748 Y-0.0624
G1 X4.8124 Y-0.062
G1 X4.8128 Y-0.2249
G3 X5.0003 Y-0.412 I0.1875 J0.0004
G1 X5.1878 Y-0.4119
G1 X5.1879
G3 X5.5003 Y-0.0994 I-0.0001 J0.3125
G1 Y-0.0993
G2 X5.6877 Y0.0882 I0.1875 J0.0
G1 X8.3238 Y0.0888
G3 X8.5112 Y0.2763 I0.0 J0.1875
G1 X8.5109 Y1.7263
G3 X8.3234 Y1.9138 I-0.1875 J0.0
G1 X5.6873 Y1.9132
G2 X5.4998 Y2.1007 I0.0 J0.1875
G3 X5.1873 Y2.4131 I-0.3125 J-0.0001
G1 X5.1872
G1 X4.9997
G3 X4.8122 Y2.2255 I0.0 J-0.1875
G1 X4.8123 Y2.063
G1 X1.5742 Y2.0626
G1 X-0.0006 Y2.0625
G3 X-0.0631 Y2.0 I0.0 J-0.0625
G1 F10.0 Z-0.03
G1 F15.0 X-0.0625 Y0.0
G3 X0.0 Y-0.0625 I0.0625 J0.0
G1 X1.5748 Y-0.0624
G1 X4.8124 Y-0.062
G1 X4.8128 Y-0.2249
G3 X5.0003 Y-0.412 I0.1875 J0.0004
G1 X5.1878 Y-0.4119
G1 X5.1879
G3 X5.5003 Y-0.0994 I-0.0001 J0.3125
G1 Y-0.0993
G2 X5.6877 Y0.0882 I0.1875 J0.0
G1 X8.3238 Y0.0888
G3 X8.5112 Y0.2763 I0.0 J0.1875
G1 X8.5109 Y1.7263
G3 X8.3234 Y1.9138 I-0.1875 J0.0
G1 X5.6873 Y1.9132
G2 X5.4998 Y2.1007 I0.0 J0.1875
G3 X5.1873 Y2.4131 I-0.3125 J-0.0001
G1 X5.1872
G1 X4.9997
G3 X4.8122 Y2.2255 I0.0 J-0.1875
G1 X4.8123 Y2.063
G1 X1.5742 Y2.0626
G1 X-0.0006 Y2.0625
G3 X-0.0631 Y2.0 I0.0 J-0.0625
G1 F10.0 Z-0.04
G1 F15.0 X-0.0625 Y0.0
G3 X0.0 Y-0.0625 I0.0625 J0.0
G1 X1.5748 Y-0.0624
G1 X4.8124 Y-0.062
G1 X4.8128 Y-0.2249
G3 X5.0003 Y-0.412 I0.1875 J0.0004
G1 X5.1878 Y-0.4119
G1 X5.1879
G3 X5.5003 Y-0.0994 I-0.0001 J0.3125
G1 Y-0.0993
G2 X5.6877 Y0.0882 I0.1875 J0.0
G1 X8.3238 Y0.0888
G3 X8.5112 Y0.2763 I0.0 J0.1875
G1 X8.5109 Y1.7263
G3 X8.3234 Y1.9138 I-0.1875 J0.0
G1 X5.6873 Y1.9132
G2 X5.4998 Y2.1007 I0.0 J0.1875
G3 X5.1873 Y2.4131 I-0.3125 J-0.0001
G1 X5.1872
G1 X4.9997
G3 X4.8122 Y2.2255 I0.0 J-0.1875
G1 X4.8123 Y2.063
G1 X1.5742 Y2.0626
G1 X-0.0006 Y2.0625
G3 X-0.0631 Y2.0 I0.0 J-0.0625
G1 F10.0 Z-0.05
G1 F15.0 X-0.0625 Y0.0
G3 X0.0 Y-0.0625 I0.0625 J0.0
G1 X1.5748 Y-0.0624
G1 X4.8124 Y-0.062
G1 X4.8128 Y-0.2249
G3 X5.0003 Y-0.412 I0.1875 J0.0004
G1 X5.1878 Y-0.4119
G1 X5.1879
G3 X5.5003 Y-0.0994 I-0.0001 J0.3125
G1 Y-0.0993
G2 X5.6877 Y0.0882 I0.1875 J0.0
G1 X8.3238 Y0.0888
G3 X8.5112 Y0.2763 I0.0 J0.1875
G1 X8.5109 Y1.7263
G3 X8.3234 Y1.9138 I-0.1875 J0.0
G1 X5.6873 Y1.9132
G2 X5.4998 Y2.1007 I0.0 J0.1875
G3 X5.1873 Y2.4131 I-0.3125 J-0.0001
G1 X5.1872
G1 X4.9997
G3 X4.8122 Y2.2255 I0.0 J-0.1875
G1 X4.8123 Y2.063
G1 X1.5742 Y2.0626
G1 X-0.0006 Y2.0625
G3 X-0.0631 Y2.0 I0.0 J-0.0625
G1 F10.0 Z-0.06
G1 F15.0 X-0.0625 Y0.0
G3 X0.0 Y-0.0625 I0.0625 J0.0
G1 X1.5748 Y-0.0624
G1 X4.8124 Y-0.062
G1 X4.8128 Y-0.2249
G3 X5.0003 Y-0.412 I0.1875 J0.0004
G1 X5.1878 Y-0.4119
G1 X5.1879
G3 X5.5003 Y-0.0994 I-0.0001 J0.3125
G1 Y-0.0993
G2 X5.6877 Y0.0882 I0.1875 J0.0
G1 X8.3238 Y0.0888
G3 X8.5112 Y0.2763 I0.0 J0.1875
G1 X8.5109 Y1.7263
G3 X8.3234 Y1.9138 I-0.1875 J0.0
G1 X5.6873 Y1.9132
G2 X5.4998 Y2.1007 I0.0 J0.1875
G3 X5.1873 Y2.4131 I-0.3125 J-0.0001
G1 X5.1872
G1 X4.9997
G3 X4.8122 Y2.2255 I0.0 J-0.1875
G1 X4.8123 Y2.063
G1 X1.5742 Y2.0626
G1 X-0.0006 Y2.0625
G3 X-0.0631 Y2.0 I0.0 J-0.0625
G1 F10.0 Z-0.07
G1 F15.0 X-0.0625 Y0.0
G3 X0.0 Y-0.0625 I0.0625 J0.0
G1 X1.5748 Y-0.0624
G1 X4.8124 Y-0.062
G1 X4.8128 Y-0.2249
G3 X5.0003 Y-0.412 I0.1875 J0.0004
G1 X5.1878 Y-0.4119
G1 X5.1879
G3 X5.5003 Y-0.0994 I-0.0001 J0.3125
G1 Y-0.0993
G2 X5.6877 Y0.0882 I0.1875 J0.0
G1 X8.3238 Y0.0888
G3 X8.5112 Y0.2763 I0.0 J0.1875
G1 X8.5109 Y1.7263
G3 X8.3234 Y1.9138 I-0.1875 J0.0
G1 X5.6873 Y1.9132
G2 X5.4998 Y2.1007 I0.0 J0.1875
G3 X5.1873 Y2.4131 I-0.3125 J-0.0001
G1 X5.1872
G1 X4.9997
G3 X4.8122 Y2.2255 I0.0 J-0.1875
G1 X4.8123 Y2.063
G1 X1.5742 Y2.0626
G1 X-0.0006 Y2.0625
G3 X-0.0631 Y2.0 I0.0 J-0.0625
G0 Z0.125
M5
M30
