( Made using CamBam - http://www.cambam.co.uk )
( extruder_bracket 10/8/2014 12:40:55 PM )
( T0 : 0.125 )
G20 G90 G64 G40
G0 Z0.125
( T0 : 0.125 )
T0 M6
( cutout )
G17
M3 S1000
G0 X1.4825 Y1.0001
G0 Z0.0625
G1 F10.0 Z-0.01
G2 F15.0 X0.4394 Y0.3978 I-0.6954 J0.0
G2 Y1.6023 I0.3477 J0.6022
G2 X1.4825 Y1.0001 I0.3477 J-0.6022
G1 F10.0 Z-0.02
G2 F15.0 X0.4394 Y0.3978 I-0.6954 J0.0
G2 Y1.6023 I0.3477 J0.6022
G2 X1.4825 Y1.0001 I0.3477 J-0.6022
G1 F10.0 Z-0.03
G2 F15.0 X0.4394 Y0.3978 I-0.6954 J0.0
G2 Y1.6023 I0.3477 J0.6022
G2 X1.4825 Y1.0001 I0.3477 J-0.6022
G1 F10.0 Z-0.04
G2 F15.0 X0.4394 Y0.3978 I-0.6954 J0.0
G2 Y1.6023 I0.3477 J0.6022
G2 X1.4825 Y1.0001 I0.3477 J-0.6022
G1 F10.0 Z-0.05
G2 F15.0 X0.4394 Y0.3978 I-0.6954 J0.0
G2 Y1.6023 I0.3477 J0.6022
G2 X1.4825 Y1.0001 I0.3477 J-0.6022
G1 F10.0 Z-0.06
G2 F15.0 X0.4394 Y0.3978 I-0.6954 J0.0
G2 Y1.6023 I0.3477 J0.6022
G2 X1.4825 Y1.0001 I0.3477 J-0.6022
G1 F10.0 Z-0.07
G2 F15.0 X0.4394 Y0.3978 I-0.6954 J0.0
G2 Y1.6023 I0.3477 J0.6022
G2 X1.4825 Y1.0001 I0.3477 J-0.6022
G0 Z0.125
G0 X3.4517
G0 Z0.0625
G1 F10.0 Z-0.01
G2 F15.0 X3.4844 Y1.0568 I0.0655 J0.0
G2 X3.5826 Y1.0001 I0.0327 J-0.0567
G2 X3.4844 Y0.9434 I-0.0655 J0.0
G2 X3.4517 Y1.0001 I0.0327 J0.0567
G1 F10.0 Z-0.02
G2 F15.0 X3.4844 Y1.0568 I0.0655 J0.0
G2 X3.5826 Y1.0001 I0.0327 J-0.0567
G2 X3.4844 Y0.9434 I-0.0655 J0.0
G2 X3.4517 Y1.0001 I0.0327 J0.0567
G1 F10.0 Z-0.03
G2 F15.0 X3.4844 Y1.0568 I0.0655 J0.0
G2 X3.5826 Y1.0001 I0.0327 J-0.0567
G2 X3.4844 Y0.9434 I-0.0655 J0.0
G2 X3.4517 Y1.0001 I0.0327 J0.0567
G1 F10.0 Z-0.04
G2 F15.0 X3.4844 Y1.0568 I0.0655 J0.0
G2 X3.5826 Y1.0001 I0.0327 J-0.0567
G2 X3.4844 Y0.9434 I-0.0655 J0.0
G2 X3.4517 Y1.0001 I0.0327 J0.0567
G1 F10.0 Z-0.05
G2 F15.0 X3.4844 Y1.0568 I0.0655 J0.0
G2 X3.5826 Y1.0001 I0.0327 J-0.0567
G2 X3.4844 Y0.9434 I-0.0655 J0.0
G2 X3.4517 Y1.0001 I0.0327 J0.0567
G1 F10.0 Z-0.06
G2 F15.0 X3.4844 Y1.0568 I0.0655 J0.0
G2 X3.5826 Y1.0001 I0.0327 J-0.0567
G2 X3.4844 Y0.9434 I-0.0655 J0.0
G2 X3.4517 Y1.0001 I0.0327 J0.0567
G1 F10.0 Z-0.07
G2 F15.0 X3.4844 Y1.0568 I0.0655 J0.0
G2 X3.5826 Y1.0001 I0.0327 J-0.0567
G2 X3.4844 Y0.9434 I-0.0655 J0.0
G2 X3.4517 Y1.0001 I0.0327 J0.0567
G0 Z0.125
G0 X4.9476 Y0.505
G0 Z0.0625
G1 F10.0 Z-0.01
G2 F15.0 X4.9577 Y0.5174 I0.0214 J-0.0071
G2 X4.9914 Y0.4979 I0.0113 J-0.0195
G2 X4.9577 Y0.4784 I-0.0225 J0.0
G2 X4.9476 Y0.505 I0.0113 J0.0195
G1 F10.0 Z-0.02
G2 F15.0 X4.9577 Y0.5174 I0.0214 J-0.0071
G2 X4.9914 Y0.4979 I0.0113 J-0.0195
G2 X4.9577 Y0.4784 I-0.0225 J0.0
G2 X4.9476 Y0.505 I0.0113 J0.0195
G1 F10.0 Z-0.03
G2 F15.0 X4.9577 Y0.5174 I0.0214 J-0.0071
G2 X4.9914 Y0.4979 I0.0113 J-0.0195
G2 X4.9577 Y0.4784 I-0.0225 J0.0
G2 X4.9476 Y0.505 I0.0113 J0.0195
G1 F10.0 Z-0.04
G2 F15.0 X4.9577 Y0.5174 I0.0214 J-0.0071
G2 X4.9914 Y0.4979 I0.0113 J-0.0195
G2 X4.9577 Y0.4784 I-0.0225 J0.0
G2 X4.9476 Y0.505 I0.0113 J0.0195
G1 F10.0 Z-0.05
G2 F15.0 X4.9577 Y0.5174 I0.0214 J-0.0071
G2 X4.9914 Y0.4979 I0.0113 J-0.0195
G2 X4.9577 Y0.4784 I-0.0225 J0.0
G2 X4.9476 Y0.505 I0.0113 J0.0195
G1 F10.0 Z-0.06
G2 F15.0 X4.9577 Y0.5174 I0.0214 J-0.0071
G2 X4.9914 Y0.4979 I0.0113 J-0.0195
G2 X4.9577 Y0.4784 I-0.0225 J0.0
G2 X4.9476 Y0.505 I0.0113 J0.0195
G1 F10.0 Z-0.07
G2 F15.0 X4.9577 Y0.5174 I0.0214 J-0.0071
G2 X4.9914 Y0.4979 I0.0113 J-0.0195
G2 X4.9577 Y0.4784 I-0.0225 J0.0
G2 X4.9476 Y0.505 I0.0113 J0.0195
G0 Z0.125
G0 X4.9521 Y-0.0382
G0 Z0.0625
G1 F10.0 Z-0.01
G2 F15.0 X5.014 Y-0.0996 I0.0005 J-0.0614
G2 X4.9218 Y-0.1528 I-0.0614 J0.0
G2 Y-0.0464 I0.0307 J0.0532
G2 X4.9521 Y-0.0382 I0.0307 J-0.0532
G1 F10.0 Z-0.02
G2 F15.0 X5.014 Y-0.0996 I0.0005 J-0.0614
G2 X4.9218 Y-0.1528 I-0.0614 J0.0
G2 Y-0.0464 I0.0307 J0.0532
G2 X4.9521 Y-0.0382 I0.0307 J-0.0532
G1 F10.0 Z-0.03
G2 F15.0 X5.014 Y-0.0996 I0.0005 J-0.0614
G2 X4.9218 Y-0.1528 I-0.0614 J0.0
G2 Y-0.0464 I0.0307 J0.0532
G2 X4.9521 Y-0.0382 I0.0307 J-0.0532
G1 F10.0 Z-0.04
G2 F15.0 X5.014 Y-0.0996 I0.0005 J-0.0614
G2 X4.9218 Y-0.1528 I-0.0614 J0.0
G2 Y-0.0464 I0.0307 J0.0532
G2 X4.9521 Y-0.0382 I0.0307 J-0.0532
G1 F10.0 Z-0.05
G2 F15.0 X5.014 Y-0.0996 I0.0005 J-0.0614
G2 X4.9218 Y-0.1528 I-0.0614 J0.0
G2 Y-0.0464 I0.0307 J0.0532
G2 X4.9521 Y-0.0382 I0.0307 J-0.0532
G1 F10.0 Z-0.06
G2 F15.0 X5.014 Y-0.0996 I0.0005 J-0.0614
G2 X4.9218 Y-0.1528 I-0.0614 J0.0
G2 Y-0.0464 I0.0307 J0.0532
G2 X4.9521 Y-0.0382 I0.0307 J-0.0532
G1 F10.0 Z-0.07
G2 F15.0 X5.014 Y-0.0996 I0.0005 J-0.0614
G2 X4.9218 Y-0.1528 I-0.0614 J0.0
G2 Y-0.0464 I0.0307 J0.0532
G2 X4.9521 Y-0.0382 I0.0307 J-0.0532
G0 Z0.125
G0 X5.5061 Y0.9459
G0 Z0.0625
G1 F10.0 Z-0.01
G2 F15.0 X5.5055 Y0.9462 I0.0307 J0.0545
G2 Y1.0545 I0.0312 J0.0541
G2 X5.5993 Y1.0003 I0.0312 J-0.0541
G2 X5.5061 Y0.9459 I-0.0625 J0.0
G1 F10.0 Z-0.02
G2 F15.0 X5.5055 Y0.9462 I0.0307 J0.0545
G2 Y1.0545 I0.0312 J0.0541
G2 X5.5993 Y1.0003 I0.0312 J-0.0541
G2 X5.5061 Y0.9459 I-0.0625 J0.0
G1 F10.0 Z-0.03
G2 F15.0 X5.5055 Y0.9462 I0.0307 J0.0545
G2 Y1.0545 I0.0312 J0.0541
G2 X5.5993 Y1.0003 I0.0312 J-0.0541
G2 X5.5061 Y0.9459 I-0.0625 J0.0
G1 F10.0 Z-0.04
G2 F15.0 X5.5055 Y0.9462 I0.0307 J0.0545
G2 Y1.0545 I0.0312 J0.0541
G2 X5.5993 Y1.0003 I0.0312 J-0.0541
G2 X5.5061 Y0.9459 I-0.0625 J0.0
G1 F10.0 Z-0.05
G2 F15.0 X5.5055 Y0.9462 I0.0307 J0.0545
G2 Y1.0545 I0.0312 J0.0541
G2 X5.5993 Y1.0003 I0.0312 J-0.0541
G2 X5.5061 Y0.9459 I-0.0625 J0.0
G1 F10.0 Z-0.06
G2 F15.0 X5.5055 Y0.9462 I0.0307 J0.0545
G2 Y1.0545 I0.0312 J0.0541
G2 X5.5993 Y1.0003 I0.0312 J-0.0541
G2 X5.5061 Y0.9459 I-0.0625 J0.0
G1 F10.0 Z-0.07
G2 F15.0 X5.5055 Y0.9462 I0.0307 J0.0545
G2 Y1.0545 I0.0312 J0.0541
G2 X5.5993 Y1.0003 I0.0312 J-0.0541
G2 X5.5061 Y0.9459 I-0.0625 J0.0
G0 Z0.125
G0 X6.0884 Y0.5111
G0 Z0.0625
G1 F10.0 Z-0.01
G2 F15.0 X6.0952 Y0.5172 I0.018 J-0.0135
G2 X6.1289 Y0.4977 I0.0112 J-0.0195
G2 X6.0952 Y0.4782 I-0.0225 J0.0
G2 X6.0884 Y0.5111 I0.0112 J0.0195
G1 F10.0 Z-0.02
G2 F15.0 X6.0952 Y0.5172 I0.018 J-0.0135
G2 X6.1289 Y0.4977 I0.0112 J-0.0195
G2 X6.0952 Y0.4782 I-0.0225 J0.0
G2 X6.0884 Y0.5111 I0.0112 J0.0195
G1 F10.0 Z-0.03
G2 F15.0 X6.0952 Y0.5172 I0.018 J-0.0135
G2 X6.1289 Y0.4977 I0.0112 J-0.0195
G2 X6.0952 Y0.4782 I-0.0225 J0.0
G2 X6.0884 Y0.5111 I0.0112 J0.0195
G1 F10.0 Z-0.04
G2 F15.0 X6.0952 Y0.5172 I0.018 J-0.0135
G2 X6.1289 Y0.4977 I0.0112 J-0.0195
G2 X6.0952 Y0.4782 I-0.0225 J0.0
G2 X6.0884 Y0.5111 I0.0112 J0.0195
G1 F10.0 Z-0.05
G2 F15.0 X6.0952 Y0.5172 I0.018 J-0.0135
G2 X6.1289 Y0.4977 I0.0112 J-0.0195
G2 X6.0952 Y0.4782 I-0.0225 J0.0
G2 X6.0884 Y0.5111 I0.0112 J0.0195
G1 F10.0 Z-0.06
G2 F15.0 X6.0952 Y0.5172 I0.018 J-0.0135
G2 X6.1289 Y0.4977 I0.0112 J-0.0195
G2 X6.0952 Y0.4782 I-0.0225 J0.0
G2 X6.0884 Y0.5111 I0.0112 J0.0195
G1 F10.0 Z-0.07
G2 F15.0 X6.0952 Y0.5172 I0.018 J-0.0135
G2 X6.1289 Y0.4977 I0.0112 J-0.0195
G2 X6.0952 Y0.4782 I-0.0225 J0.0
G2 X6.0884 Y0.5111 I0.0112 J0.0195
G0 Z0.125
G0 X6.85 Y0.4979
G0 Z0.0625
G1 F10.0 Z-0.01
G2 F15.0 X6.8612 Y0.517 I0.0225 J-0.0004
G2 X6.895 Y0.4975 I0.0113 J-0.0195
G2 X6.8612 Y0.478 I-0.0225 J0.0
G2 X6.85 Y0.4979 I0.0113 J0.0195
G1 F10.0 Z-0.02
G2 F15.0 X6.8612 Y0.517 I0.0225 J-0.0004
G2 X6.895 Y0.4975 I0.0113 J-0.0195
G2 X6.8612 Y0.478 I-0.0225 J0.0
G2 X6.85 Y0.4979 I0.0113 J0.0195
G1 F10.0 Z-0.03
G2 F15.0 X6.8612 Y0.517 I0.0225 J-0.0004
G2 X6.895 Y0.4975 I0.0113 J-0.0195
G2 X6.8612 Y0.478 I-0.0225 J0.0
G2 X6.85 Y0.4979 I0.0113 J0.0195
G1 F10.0 Z-0.04
G2 F15.0 X6.8612 Y0.517 I0.0225 J-0.0004
G2 X6.895 Y0.4975 I0.0113 J-0.0195
G2 X6.8612 Y0.478 I-0.0225 J0.0
G2 X6.85 Y0.4979 I0.0113 J0.0195
G1 F10.0 Z-0.05
G2 F15.0 X6.8612 Y0.517 I0.0225 J-0.0004
G2 X6.895 Y0.4975 I0.0113 J-0.0195
G2 X6.8612 Y0.478 I-0.0225 J0.0
G2 X6.85 Y0.4979 I0.0113 J0.0195
G1 F10.0 Z-0.06
G2 F15.0 X6.8612 Y0.517 I0.0225 J-0.0004
G2 X6.895 Y0.4975 I0.0113 J-0.0195
G2 X6.8612 Y0.478 I-0.0225 J0.0
G2 X6.85 Y0.4979 I0.0113 J0.0195
G1 F10.0 Z-0.07
G2 F15.0 X6.8612 Y0.517 I0.0225 J-0.0004
G2 X6.895 Y0.4975 I0.0113 J-0.0195
G2 X6.8612 Y0.478 I-0.0225 J0.0
G2 X6.85 Y0.4979 I0.0113 J0.0195
G0 Z0.125
G0 X7.3927 Y0.9594
G0 Z0.0625
G1 F10.0 Z-0.01
G2 F15.0 X7.4091 Y1.054 I0.0476 J0.0405
G2 X7.5028 Y0.9999 I0.0312 J-0.0541
G2 X7.4091 Y0.9458 I-0.0625 J0.0
G2 X7.3927 Y0.9594 I0.0312 J0.0541
G1 F10.0 Z-0.02
G2 F15.0 X7.4091 Y1.054 I0.0476 J0.0405
G2 X7.5028 Y0.9999 I0.0312 J-0.0541
G2 X7.4091 Y0.9458 I-0.0625 J0.0
G2 X7.3927 Y0.9594 I0.0312 J0.0541
G1 F10.0 Z-0.03
G2 F15.0 X7.4091 Y1.054 I0.0476 J0.0405
G2 X7.5028 Y0.9999 I0.0312 J-0.0541
G2 X7.4091 Y0.9458 I-0.0625 J0.0
G2 X7.3927 Y0.9594 I0.0312 J0.0541
G1 F10.0 Z-0.04
G2 F15.0 X7.4091 Y1.054 I0.0476 J0.0405
G2 X7.5028 Y0.9999 I0.0312 J-0.0541
G2 X7.4091 Y0.9458 I-0.0625 J0.0
G2 X7.3927 Y0.9594 I0.0312 J0.0541
G1 F10.0 Z-0.05
G2 F15.0 X7.4091 Y1.054 I0.0476 J0.0405
G2 X7.5028 Y0.9999 I0.0312 J-0.0541
G2 X7.4091 Y0.9458 I-0.0625 J0.0
G2 X7.3927 Y0.9594 I0.0312 J0.0541
G1 F10.0 Z-0.06
G2 F15.0 X7.4091 Y1.054 I0.0476 J0.0405
G2 X7.5028 Y0.9999 I0.0312 J-0.0541
G2 X7.4091 Y0.9458 I-0.0625 J0.0
G2 X7.3927 Y0.9594 I0.0312 J0.0541
G1 F10.0 Z-0.07
G2 F15.0 X7.4091 Y1.054 I0.0476 J0.0405
G2 X7.5028 Y0.9999 I0.0312 J-0.0541
G2 X7.4091 Y0.9458 I-0.0625 J0.0
G2 X7.3927 Y0.9594 I0.0312 J0.0541
G0 Z0.125
G0 X6.8882 Y1.4863
G0 Z0.0625
G1 F10.0 Z-0.01
G2 F15.0 X6.8614 Y1.483 I-0.0156 J0.0163
G2 Y1.522 I0.0112 J0.0195
G2 X6.8952 Y1.5025 I0.0112 J-0.0195
G2 X6.8882 Y1.4863 I-0.0225 J0.0
G1 F10.0 Z-0.02
G2 F15.0 X6.8614 Y1.483 I-0.0156 J0.0163
G2 Y1.522 I0.0112 J0.0195
G2 X6.8952 Y1.5025 I0.0112 J-0.0195
G2 X6.8882 Y1.4863 I-0.0225 J0.0
G1 F10.0 Z-0.03
G2 F15.0 X6.8614 Y1.483 I-0.0156 J0.0163
G2 Y1.522 I0.0112 J0.0195
G2 X6.8952 Y1.5025 I0.0112 J-0.0195
G2 X6.8882 Y1.4863 I-0.0225 J0.0
G1 F10.0 Z-0.04
G2 F15.0 X6.8614 Y1.483 I-0.0156 J0.0163
G2 Y1.522 I0.0112 J0.0195
G2 X6.8952 Y1.5025 I0.0112 J-0.0195
G2 X6.8882 Y1.4863 I-0.0225 J0.0
G1 F10.0 Z-0.05
G2 F15.0 X6.8614 Y1.483 I-0.0156 J0.0163
G2 Y1.522 I0.0112 J0.0195
G2 X6.8952 Y1.5025 I0.0112 J-0.0195
G2 X6.8882 Y1.4863 I-0.0225 J0.0
G1 F10.0 Z-0.06
G2 F15.0 X6.8614 Y1.483 I-0.0156 J0.0163
G2 Y1.522 I0.0112 J0.0195
G2 X6.8952 Y1.5025 I0.0112 J-0.0195
G2 X6.8882 Y1.4863 I-0.0225 J0.0
G1 F10.0 Z-0.07
G2 F15.0 X6.8614 Y1.483 I-0.0156 J0.0163
G2 Y1.522 I0.0112 J0.0195
G2 X6.8952 Y1.5025 I0.0112 J-0.0195
G2 X6.8882 Y1.4863 I-0.0225 J0.0
G0 Z0.125
G0 X6.1271 Y1.5022
G0 Z0.0625
G1 F10.0 Z-0.01
G2 F15.0 X6.0934 Y1.4832 I-0.0225 J0.0005
G2 Y1.5222 I0.0112 J0.0195
G2 X6.1271 Y1.5027 I0.0112 J-0.0195
G2 Y1.5022 I-0.0225 J0.0
G1 F10.0 Z-0.02
G2 F15.0 X6.0934 Y1.4832 I-0.0225 J0.0005
G2 Y1.5222 I0.0112 J0.0195
G2 X6.1271 Y1.5027 I0.0112 J-0.0195
G2 Y1.5022 I-0.0225 J0.0
G1 F10.0 Z-0.03
G2 F15.0 X6.0934 Y1.4832 I-0.0225 J0.0005
G2 Y1.5222 I0.0112 J0.0195
G2 X6.1271 Y1.5027 I0.0112 J-0.0195
G2 Y1.5022 I-0.0225 J0.0
G1 F10.0 Z-0.04
G2 F15.0 X6.0934 Y1.4832 I-0.0225 J0.0005
G2 Y1.5222 I0.0112 J0.0195
G2 X6.1271 Y1.5027 I0.0112 J-0.0195
G2 Y1.5022 I-0.0225 J0.0
G1 F10.0 Z-0.05
G2 F15.0 X6.0934 Y1.4832 I-0.0225 J0.0005
G2 Y1.5222 I0.0112 J0.0195
G2 X6.1271 Y1.5027 I0.0112 J-0.0195
G2 Y1.5022 I-0.0225 J0.0
G1 F10.0 Z-0.06
G2 F15.0 X6.0934 Y1.4832 I-0.0225 J0.0005
G2 Y1.5222 I0.0112 J0.0195
G2 X6.1271 Y1.5027 I0.0112 J-0.0195
G2 Y1.5022 I-0.0225 J0.0
G1 F10.0 Z-0.07
G2 F15.0 X6.0934 Y1.4832 I-0.0225 J0.0005
G2 Y1.5222 I0.0112 J0.0195
G2 X6.1271 Y1.5027 I0.0112 J-0.0195
G2 Y1.5022 I-0.0225 J0.0
G0 Z0.125
G0 X4.9916 Y1.5029
G0 Z0.0625
G1 F10.0 Z-0.01
G2 F15.0 X4.9579 Y1.4834 I-0.0225 J0.0
G2 Y1.5224 I0.0112 J0.0195
G2 X4.9916 Y1.5029 I0.0112 J-0.0195
G1 F10.0 Z-0.02
G2 F15.0 X4.9579 Y1.4834 I-0.0225 J0.0
G2 Y1.5224 I0.0112 J0.0195
G2 X4.9916 Y1.5029 I0.0112 J-0.0195
G1 F10.0 Z-0.03
G2 F15.0 X4.9579 Y1.4834 I-0.0225 J0.0
G2 Y1.5224 I0.0112 J0.0195
G2 X4.9916 Y1.5029 I0.0112 J-0.0195
G1 F10.0 Z-0.04
G2 F15.0 X4.9579 Y1.4834 I-0.0225 J0.0
G2 Y1.5224 I0.0112 J0.0195
G2 X4.9916 Y1.5029 I0.0112 J-0.0195
G1 F10.0 Z-0.05
G2 F15.0 X4.9579 Y1.4834 I-0.0225 J0.0
G2 Y1.5224 I0.0112 J0.0195
G2 X4.9916 Y1.5029 I0.0112 J-0.0195
G1 F10.0 Z-0.06
G2 F15.0 X4.9579 Y1.4834 I-0.0225 J0.0
G2 Y1.5224 I0.0112 J0.0195
G2 X4.9916 Y1.5029 I0.0112 J-0.0195
G1 F10.0 Z-0.07
G2 F15.0 X4.9579 Y1.4834 I-0.0225 J0.0
G2 Y1.5224 I0.0112 J0.0195
G2 X4.9916 Y1.5029 I0.0112 J-0.0195
G0 Z0.125
G0 X4.957 Y2.038
G0 Z0.0625
G1 F10.0 Z-0.01
G2 F15.0 X4.9218 Y2.0463 I-0.004 J0.0624
G2 Y2.1545 I0.0312 J0.0541
G2 X5.0155 Y2.1004 I0.0312 J-0.0541
G2 X4.957 Y2.038 I-0.0625 J0.0
G1 F10.0 Z-0.02
G2 F15.0 X4.9218 Y2.0463 I-0.004 J0.0624
G2 Y2.1545 I0.0312 J0.0541
G2 X5.0155 Y2.1004 I0.0312 J-0.0541
G2 X4.957 Y2.038 I-0.0625 J0.0
G1 F10.0 Z-0.03
G2 F15.0 X4.9218 Y2.0463 I-0.004 J0.0624
G2 Y2.1545 I0.0312 J0.0541
G2 X5.0155 Y2.1004 I0.0312 J-0.0541
G2 X4.957 Y2.038 I-0.0625 J0.0
G1 F10.0 Z-0.04
G2 F15.0 X4.9218 Y2.0463 I-0.004 J0.0624
G2 Y2.1545 I0.0312 J0.0541
G2 X5.0155 Y2.1004 I0.0312 J-0.0541
G2 X4.957 Y2.038 I-0.0625 J0.0
G1 F10.0 Z-0.05
G2 F15.0 X4.9218 Y2.0463 I-0.004 J0.0624
G2 Y2.1545 I0.0312 J0.0541
G2 X5.0155 Y2.1004 I0.0312 J-0.0541
G2 X4.957 Y2.038 I-0.0625 J0.0
G1 F10.0 Z-0.06
G2 F15.0 X4.9218 Y2.0463 I-0.004 J0.0624
G2 Y2.1545 I0.0312 J0.0541
G2 X5.0155 Y2.1004 I0.0312 J-0.0541
G2 X4.957 Y2.038 I-0.0625 J0.0
G1 F10.0 Z-0.07
G2 F15.0 X4.9218 Y2.0463 I-0.004 J0.0624
G2 Y2.1545 I0.0312 J0.0541
G2 X5.0155 Y2.1004 I0.0312 J-0.0541
G2 X4.957 Y2.038 I-0.0625 J0.0
G0 Z0.125
G0 X7.986 Y1.5062
G0 Z0.0625
G1 F10.0 Z-0.01
G2 F15.0 X7.9969 Y1.5218 I0.0222 J-0.0039
G2 X8.0307 Y1.5023 I0.0112 J-0.0195
G2 X7.9969 Y1.4828 I-0.0225 J0.0
G2 X7.986 Y1.5062 I0.0112 J0.0195
G1 F10.0 Z-0.02
G2 F15.0 X7.9969 Y1.5218 I0.0222 J-0.0039
G2 X8.0307 Y1.5023 I0.0112 J-0.0195
G2 X7.9969 Y1.4828 I-0.0225 J0.0
G2 X7.986 Y1.5062 I0.0112 J0.0195
G1 F10.0 Z-0.03
G2 F15.0 X7.9969 Y1.5218 I0.0222 J-0.0039
G2 X8.0307 Y1.5023 I0.0112 J-0.0195
G2 X7.9969 Y1.4828 I-0.0225 J0.0
G2 X7.986 Y1.5062 I0.0112 J0.0195
G1 F10.0 Z-0.04
G2 F15.0 X7.9969 Y1.5218 I0.0222 J-0.0039
G2 X8.0307 Y1.5023 I0.0112 J-0.0195
G2 X7.9969 Y1.4828 I-0.0225 J0.0
G2 X7.986 Y1.5062 I0.0112 J0.0195
G1 F10.0 Z-0.05
G2 F15.0 X7.9969 Y1.5218 I0.0222 J-0.0039
G2 X8.0307 Y1.5023 I0.0112 J-0.0195
G2 X7.9969 Y1.4828 I-0.0225 J0.0
G2 X7.986 Y1.5062 I0.0112 J0.0195
G1 F10.0 Z-0.06
G2 F15.0 X7.9969 Y1.5218 I0.0222 J-0.0039
G2 X8.0307 Y1.5023 I0.0112 J-0.0195
G2 X7.9969 Y1.4828 I-0.0225 J0.0
G2 X7.986 Y1.5062 I0.0112 J0.0195
G1 F10.0 Z-0.07
G2 F15.0 X7.9969 Y1.5218 I0.0222 J-0.0039
G2 X8.0307 Y1.5023 I0.0112 J-0.0195
G2 X7.9969 Y1.4828 I-0.0225 J0.0
G2 X7.986 Y1.5062 I0.0112 J0.0195
G0 Z0.125
G0 X8.0093 Y0.5198
G0 Z0.0625
G1 F10.0 Z-0.01
G2 F15.0 X8.0323 Y0.4973 I0.0005 J-0.0225
G2 X7.9986 Y0.4778 I-0.0225 J0.0
G2 Y0.5168 I0.0112 J0.0195
G2 X8.0093 Y0.5198 I0.0112 J-0.0195
G1 F10.0 Z-0.02
G2 F15.0 X8.0323 Y0.4973 I0.0005 J-0.0225
G2 X7.9986 Y0.4778 I-0.0225 J0.0
G2 Y0.5168 I0.0112 J0.0195
G2 X8.0093 Y0.5198 I0.0112 J-0.0195
G1 F10.0 Z-0.03
G2 F15.0 X8.0323 Y0.4973 I0.0005 J-0.0225
G2 X7.9986 Y0.4778 I-0.0225 J0.0
G2 Y0.5168 I0.0112 J0.0195
G2 X8.0093 Y0.5198 I0.0112 J-0.0195
G1 F10.0 Z-0.04
G2 F15.0 X8.0323 Y0.4973 I0.0005 J-0.0225
G2 X7.9986 Y0.4778 I-0.0225 J0.0
G2 Y0.5168 I0.0112 J0.0195
G2 X8.0093 Y0.5198 I0.0112 J-0.0195
G1 F10.0 Z-0.05
G2 F15.0 X8.0323 Y0.4973 I0.0005 J-0.0225
G2 X7.9986 Y0.4778 I-0.0225 J0.0
G2 Y0.5168 I0.0112 J0.0195
G2 X8.0093 Y0.5198 I0.0112 J-0.0195
G1 F10.0 Z-0.06
G2 F15.0 X8.0323 Y0.4973 I0.0005 J-0.0225
G2 X7.9986 Y0.4778 I-0.0225 J0.0
G2 Y0.5168 I0.0112 J0.0195
G2 X8.0093 Y0.5198 I0.0112 J-0.0195
G1 F10.0 Z-0.07
G2 F15.0 X8.0323 Y0.4973 I0.0005 J-0.0225
G2 X7.9986 Y0.4778 I-0.0225 J0.0
G2 Y0.5168 I0.0112 J0.0195
G2 X8.0093 Y0.5198 I0.0112 J-0.0195
( Drill1 )
S1000
G0 Z0.125
G0 X0.0832 Y1.7037
G98
G81 X0.0832 Y1.7037 Z-0.07 R0.125 F10.0
G81 X1.4907 Y1.7039 Z-0.07
G81 X1.5743 Y2.0001 Z-0.07
G81 X1.4909 Y0.2964 Z-0.07
G81 X1.5748 Y0.0001 Z-0.07
G81 X0.0834 Y0.2962 Z-0.07
G81 X4.64 Y0.0005 Z-0.07
G81 X4.6405 Y2.0005 Z-0.07
G80
( outline )
S1000
G0 Z0.125
G0 X4.5781 Y2.063
G0 Z0.0625
G1 F10.0 Z-0.01
G1 F15.0 X-0.0006 Y2.0625
G3 X-0.0631 Y2.0 I0.0 J-0.0625
G1 X-0.0625 Y0.0
G3 X0.0 Y-0.0625 I0.0625 J0.0
G1 X4.5775 Y-0.062
G1 Y-0.2246
G3 X4.765 Y-0.4121 I0.1875 J0.0
G1 X4.9525 Y-0.4122
G3 X5.2651 Y-0.0997 I0.0 J0.3126
G2 X5.4495 Y0.0879 I0.1876 J0.0
G3 X5.4526 Y0.0878 I0.0032 J0.0624
G1 X8.0886 Y0.0873
G3 X8.2762 Y0.2747 I0.0 J0.1875
G1 X8.2765 Y1.7247
G3 X8.0892 Y1.9123 I-0.1875 J0.0
G1 X5.4549 Y1.9152
G3 X5.4543 I-0.0001 J-0.0625
G1 X5.4505
G2 X5.2655 Y2.1004 I0.0002 J0.1852
G3 X4.9531 Y2.4128 I-0.3124 J0.0
G1 X4.7676 Y2.413
G3 X4.5785 Y2.2259 I-0.0016 J-0.1875
G1 X4.5781 Y2.063
G1 F10.0 Z-0.02
G1 F15.0 X-0.0006 Y2.0625
G3 X-0.0631 Y2.0 I0.0 J-0.0625
G1 X-0.0625 Y0.0
G3 X0.0 Y-0.0625 I0.0625 J0.0
G1 X4.5775 Y-0.062
G1 Y-0.2246
G3 X4.765 Y-0.4121 I0.1875 J0.0
G1 X4.9525 Y-0.4122
G3 X5.2651 Y-0.0997 I0.0 J0.3126
G2 X5.4495 Y0.0879 I0.1876 J0.0
G3 X5.4526 Y0.0878 I0.0032 J0.0624
G1 X8.0886 Y0.0873
G3 X8.2762 Y0.2747 I0.0 J0.1875
G1 X8.2765 Y1.7247
G3 X8.0892 Y1.9123 I-0.1875 J0.0
G1 X5.4549 Y1.9152
G3 X5.4543 I-0.0001 J-0.0625
G1 X5.4505
G2 X5.2655 Y2.1004 I0.0002 J0.1852
G3 X4.9531 Y2.4128 I-0.3124 J0.0
G1 X4.7676 Y2.413
G3 X4.5785 Y2.2259 I-0.0016 J-0.1875
G1 X4.5781 Y2.063
G1 F10.0 Z-0.03
G1 F15.0 X-0.0006 Y2.0625
G3 X-0.0631 Y2.0 I0.0 J-0.0625
G1 X-0.0625 Y0.0
G3 X0.0 Y-0.0625 I0.0625 J0.0
G1 X4.5775 Y-0.062
G1 Y-0.2246
G3 X4.765 Y-0.4121 I0.1875 J0.0
G1 X4.9525 Y-0.4122
G3 X5.2651 Y-0.0997 I0.0 J0.3126
G2 X5.4495 Y0.0879 I0.1876 J0.0
G3 X5.4526 Y0.0878 I0.0032 J0.0624
G1 X8.0886 Y0.0873
G3 X8.2762 Y0.2747 I0.0 J0.1875
G1 X8.2765 Y1.7247
G3 X8.0892 Y1.9123 I-0.1875 J0.0
G1 X5.4549 Y1.9152
G3 X5.4543 I-0.0001 J-0.0625
G1 X5.4505
G2 X5.2655 Y2.1004 I0.0002 J0.1852
G3 X4.9531 Y2.4128 I-0.3124 J0.0
G1 X4.7676 Y2.413
G3 X4.5785 Y2.2259 I-0.0016 J-0.1875
G1 X4.5781 Y2.063
G1 F10.0 Z-0.04
G1 F15.0 X-0.0006 Y2.0625
G3 X-0.0631 Y2.0 I0.0 J-0.0625
G1 X-0.0625 Y0.0
G3 X0.0 Y-0.0625 I0.0625 J0.0
G1 X4.5775 Y-0.062
G1 Y-0.2246
G3 X4.765 Y-0.4121 I0.1875 J0.0
G1 X4.9525 Y-0.4122
G3 X5.2651 Y-0.0997 I0.0 J0.3126
G2 X5.4495 Y0.0879 I0.1876 J0.0
G3 X5.4526 Y0.0878 I0.0032 J0.0624
G1 X8.0886 Y0.0873
G3 X8.2762 Y0.2747 I0.0 J0.1875
G1 X8.2765 Y1.7247
G3 X8.0892 Y1.9123 I-0.1875 J0.0
G1 X5.4549 Y1.9152
G3 X5.4543 I-0.0001 J-0.0625
G1 X5.4505
G2 X5.2655 Y2.1004 I0.0002 J0.1852
G3 X4.9531 Y2.4128 I-0.3124 J0.0
G1 X4.7676 Y2.413
G3 X4.5785 Y2.2259 I-0.0016 J-0.1875
G1 X4.5781 Y2.063
G1 F10.0 Z-0.05
G1 F15.0 X-0.0006 Y2.0625
G3 X-0.0631 Y2.0 I0.0 J-0.0625
G1 X-0.0625 Y0.0
G3 X0.0 Y-0.0625 I0.0625 J0.0
G1 X4.5775 Y-0.062
G1 Y-0.2246
G3 X4.765 Y-0.4121 I0.1875 J0.0
G1 X4.9525 Y-0.4122
G3 X5.2651 Y-0.0997 I0.0 J0.3126
G2 X5.4495 Y0.0879 I0.1876 J0.0
G3 X5.4526 Y0.0878 I0.0032 J0.0624
G1 X8.0886 Y0.0873
G3 X8.2762 Y0.2747 I0.0 J0.1875
G1 X8.2765 Y1.7247
G3 X8.0892 Y1.9123 I-0.1875 J0.0
G1 X5.4549 Y1.9152
G3 X5.4543 I-0.0001 J-0.0625
G1 X5.4505
G2 X5.2655 Y2.1004 I0.0002 J0.1852
G3 X4.9531 Y2.4128 I-0.3124 J0.0
G1 X4.7676 Y2.413
G3 X4.5785 Y2.2259 I-0.0016 J-0.1875
G1 X4.5781 Y2.063
G1 F10.0 Z-0.06
G1 F15.0 X-0.0006 Y2.0625
G3 X-0.0631 Y2.0 I0.0 J-0.0625
G1 X-0.0625 Y0.0
G3 X0.0 Y-0.0625 I0.0625 J0.0
G1 X4.5775 Y-0.062
G1 Y-0.2246
G3 X4.765 Y-0.4121 I0.1875 J0.0
G1 X4.9525 Y-0.4122
G3 X5.2651 Y-0.0997 I0.0 J0.3126
G2 X5.4495 Y0.0879 I0.1876 J0.0
G3 X5.4526 Y0.0878 I0.0032 J0.0624
G1 X8.0886 Y0.0873
G3 X8.2762 Y0.2747 I0.0 J0.1875
G1 X8.2765 Y1.7247
G3 X8.0892 Y1.9123 I-0.1875 J0.0
G1 X5.4549 Y1.9152
G3 X5.4543 I-0.0001 J-0.0625
G1 X5.4505
G2 X5.2655 Y2.1004 I0.0002 J0.1852
G3 X4.9531 Y2.4128 I-0.3124 J0.0
G1 X4.7676 Y2.413
G3 X4.5785 Y2.2259 I-0.0016 J-0.1875
G1 X4.5781 Y2.063
G1 F10.0 Z-0.07
G1 F15.0 X-0.0006 Y2.0625
G3 X-0.0631 Y2.0 I0.0 J-0.0625
G1 X-0.0625 Y0.0
G3 X0.0 Y-0.0625 I0.0625 J0.0
G1 X4.5775 Y-0.062
G1 Y-0.2246
G3 X4.765 Y-0.4121 I0.1875 J0.0
G1 X4.9525 Y-0.4122
G3 X5.2651 Y-0.0997 I0.0 J0.3126
G2 X5.4495 Y0.0879 I0.1876 J0.0
G3 X5.4526 Y0.0878 I0.0032 J0.0624
G1 X8.0886 Y0.0873
G3 X8.2762 Y0.2747 I0.0 J0.1875
G1 X8.2765 Y1.7247
G3 X8.0892 Y1.9123 I-0.1875 J0.0
G1 X5.4549 Y1.9152
G3 X5.4543 I-0.0001 J-0.0625
G1 X5.4505
G2 X5.2655 Y2.1004 I0.0002 J0.1852
G3 X4.9531 Y2.4128 I-0.3124 J0.0
G1 X4.7676 Y2.413
G3 X4.5785 Y2.2259 I-0.0016 J-0.1875
G1 X4.5781 Y2.063
G0 Z0.125
M5
M30
