; generated by Slic3r 1.1.7 on 2014-10-07 at 00:38:51

; perimeters extrusion width = 0.40mm
; infill extrusion width = 0.42mm
; solid infill extrusion width = 0.42mm
; top infill extrusion width = 0.42mm
; support material extrusion width = 0.40mm

G21 ; set units to millimeters
M107
M104 S185 ; set temperature
G92 X0 Y0 Z0
G1 Z5 F5000 ; lift nozzle

M109 S185 ; wait for temperature to be reached
G90 ; use absolute coordinates
G92 E0
M82 ; use absolute distances for extrusion
M204 S635
G1 F1800.000 E-1.00000
G92 E0
G1 Z0.350 F2400.000
G1 X92.239 Y109.977 F2400.000
G1 E1.00000 F1800.000
G1 X94.393 Y109.181 E1.21230 F630.000
G1 X95.582 Y109.074 E1.32273
G1 X96.282 Y109.074 E1.38748
G1 X108.912 Y109.106 E2.55567 F630.000
G1 X202.955 Y118.125 E11.29371
G1 X204.243 Y118.445 E11.41641
G1 X205.396 Y118.896 E11.53092
G1 X206.520 Y119.514 E11.64963
G1 X207.554 Y120.274 E11.76827
G1 X208.480 Y121.161 E11.88690
G1 X208.725 Y121.441 E11.92126
G1 X209.283 Y122.162 E12.00559
G1 X209.489 Y122.471 E12.03994
G1 X209.947 Y123.259 E12.12426
G1 X210.463 Y124.433 E12.24291
G1 X210.582 Y124.785 E12.27725
G1 X210.821 Y125.665 E12.36159
G1 X210.894 Y126.030 E12.39595
G1 X211.016 Y126.933 E12.48027
G1 X211.057 Y127.781 E12.55884
G1 X211.043 Y169.668 E16.43298
G1 X211.018 Y170.039 E16.46735
G1 X210.902 Y170.943 E16.55167
G1 X210.830 Y171.308 E16.58604
G1 X210.597 Y172.189 E16.67036
G1 X210.477 Y172.541 E16.70473
G1 X210.131 Y173.384 E16.78904
G1 X209.967 Y173.717 E16.82341
G1 X209.513 Y174.508 E16.90773
G1 X209.307 Y174.817 E16.94208
G1 X208.754 Y175.542 E17.02642
G1 X208.509 Y175.822 E17.06080
G1 X207.867 Y176.468 E17.14509
G1 X206.829 Y177.295 E17.26780
G1 X205.769 Y177.935 E17.38234
G1 X204.594 Y178.451 E17.50100
G1 X203.363 Y178.809 E17.61963
G1 X202.500 Y178.964 E17.70069
G1 X108.278 Y190.926 E26.48532
G1 X95.578 Y190.925 E27.65995
G1 X93.317 Y190.527 E27.87225
G1 X91.327 Y189.384 E28.08455
G1 X89.846 Y187.630 E28.29684
G1 X89.050 Y185.477 E28.50914
G1 X88.943 Y184.289 E28.61950
G1 X88.945 Y115.709 E34.96253
G1 X89.343 Y113.448 E35.17483
G1 X90.486 Y111.458 E35.38712
G1 X92.194 Y110.015 E35.59387
G1 F1800.000 E34.59387
G92 E0
G1 X113.644 Y133.774 F2400.000
G1 E1.00000 F1800.000
G1 X113.644 Y122.575 E2.03579 F540.000
G1 X129.613 Y127.158 E3.57241
G1 X129.613 Y147.810 E5.48251
G1 X107.294 Y147.810 E7.54683
G1 X107.294 Y133.774 E8.84502
G1 X113.584 Y133.774 E9.42678
G1 X114.280 Y134.410 F2400.000
G1 X114.280 Y123.419 E10.44333 F378.000
G1 X128.978 Y127.637 E11.85762
G1 X128.978 Y147.174 E13.66465
G1 X107.930 Y147.174 E15.61138
G1 X107.930 Y134.410 E16.79200
G1 X114.220 Y134.410 E17.37376
G1 X114.080 Y134.063 F2400.000
G1 F1800.000 E16.37376
G92 E0
G1 X133.984 Y134.105 F2400.000
G1 E1.00000 F1800.000
G1 X134.112 Y133.131 E1.09085 F540.000
G1 X134.177 Y132.974 E1.10653
G1 X134.488 Y132.223 E1.18170
G1 X135.086 Y131.444 E1.27256
G1 X135.865 Y130.846 E1.36340
G1 X136.772 Y130.470 E1.45424
G1 X137.746 Y130.342 E1.54512
G1 X137.914 Y130.364 E1.56080
G1 X138.720 Y130.470 E1.63596 F540.000
G1 X139.628 Y130.846 E1.72681
G1 X140.407 Y131.444 E1.81766
G1 X141.005 Y132.223 E1.90851
G1 X141.381 Y133.131 E1.99936
G1 X141.509 Y134.105 E2.09021
G1 X141.381 Y135.079 E2.18106
G1 X141.005 Y135.986 E2.27191
G1 X140.407 Y136.765 E2.36277
G1 X139.628 Y137.363 E2.45362
G1 X138.720 Y137.739 E2.54447
G1 X137.746 Y137.868 E2.63532
G1 X136.772 Y137.739 E2.72617
G1 X135.865 Y137.363 E2.81702
G1 X135.086 Y136.765 E2.90787
G1 X134.488 Y135.986 E2.99872
G1 X134.112 Y135.079 E3.08957
G1 X133.991 Y134.164 E3.17487
G1 X134.625 Y134.105 F2400.000
G1 X134.731 Y133.297 E3.25024 F378.000
G1 X134.764 Y133.218 E3.25819
G1 X135.043 Y132.544 E3.32562
G1 X135.539 Y131.897 E3.40099
G1 X136.185 Y131.401 E3.47636
G1 X136.938 Y131.090 E3.55172
G1 X137.023 Y131.078 E3.55967
G1 X137.746 Y130.983 E3.62710 F378.000
G1 X138.554 Y131.090 E3.70247
G1 X139.307 Y131.401 E3.77784
G1 X139.954 Y131.897 E3.85321
G1 X140.450 Y132.544 E3.92859
G1 X140.762 Y133.297 E4.00396
G1 X140.868 Y134.105 E4.07933
G1 X140.762 Y134.913 E4.15470
G1 X140.450 Y135.666 E4.23007
G1 X139.954 Y136.312 E4.30544
G1 X139.307 Y136.808 E4.38082
G1 X138.554 Y137.120 E4.45619
G1 X137.746 Y137.226 E4.53156
G1 X136.938 Y137.120 E4.60693
G1 X136.185 Y136.808 E4.68230
G1 X135.539 Y136.312 E4.75767
G1 X135.043 Y135.666 E4.83304
G1 X134.731 Y134.913 E4.90842
G1 X134.632 Y134.164 E4.97824
G1 F1800.000 E3.97824
G92 E0
G1 X137.060 Y130.680 F2400.000
G1 X137.746 Y162.140 F2400.000
G1 E1.00000 F1800.000
G1 X137.914 Y162.162 E1.01568 F540.000
G1 X138.720 Y162.269 E1.09085 F540.000
G1 X139.628 Y162.644 E1.18170
G1 X140.407 Y163.242 E1.27255
G1 X141.005 Y164.022 E1.36340
G1 X141.316 Y164.773 E1.43857
G1 X141.381 Y164.929 E1.45426
G1 X141.509 Y165.903 E1.54511
G1 X141.381 Y166.877 E1.63596
G1 X141.005 Y167.784 E1.72681
G1 X140.407 Y168.564 E1.81766
G1 X139.628 Y169.162 E1.90851
G1 X138.720 Y169.538 E1.99936
G1 X137.746 Y169.666 E2.09021
G1 X136.772 Y169.538 E2.18106
G1 X135.865 Y169.162 E2.27191
G1 X135.086 Y168.564 E2.36276
G1 X134.488 Y167.784 E2.45362
G1 X134.112 Y166.877 E2.54447
G1 X133.983 Y165.898 E2.63579
G1 X134.112 Y164.929 E2.72618
G1 X134.488 Y164.022 E2.81704
G1 X135.086 Y163.242 E2.90788
G1 X135.865 Y162.644 E2.99874
G1 X136.772 Y162.269 E3.08959
G1 X137.687 Y162.148 E3.17489
G1 X137.746 Y162.781 F2400.000
G1 X138.554 Y162.888 E3.25026 F378.000
G1 X139.307 Y163.200 E3.32563
G1 X139.954 Y163.696 E3.40100
G1 X140.450 Y164.342 E3.47637
G1 X140.729 Y165.016 E3.54380
G1 X140.762 Y165.095 E3.55174
G1 X140.868 Y165.903 E3.62712
G1 X140.762 Y166.711 E3.70249
G1 X140.450 Y167.464 E3.77786
G1 X139.954 Y168.110 E3.85323
G1 X139.307 Y168.606 E3.92860
G1 X138.554 Y168.918 E4.00397
G1 X137.746 Y169.025 E4.07934
G1 X136.938 Y168.918 E4.15472
G1 X136.185 Y168.606 E4.23009
G1 X135.539 Y168.110 E4.30546
G1 X135.043 Y167.464 E4.38083
G1 X134.731 Y166.711 E4.45620
G1 X134.624 Y165.901 E4.53174
G1 X134.731 Y165.095 E4.60695
G1 X135.043 Y164.342 E4.68232
G1 X135.539 Y163.696 E4.75769
G1 X136.185 Y163.200 E4.83306
G1 X136.938 Y162.888 E4.90844
G1 X137.661 Y162.793 E4.97587
G1 X137.687 Y162.789 E4.97826 F378.000
G1 X137.659 Y162.767 F2400.000
G1 F1800.000 E3.97826
G92 E0
G1 X113.644 Y166.225 F2400.000
G1 E1.00000 F1800.000
G1 X107.294 Y166.225 E1.58732 F540.000
G1 X107.294 Y152.189 E2.88551
G1 X129.613 Y152.189 E4.94982
G1 X129.613 Y172.849 E6.86071
G1 X113.644 Y177.427 E8.39721
G1 X113.644 Y166.285 E9.42781
G1 X114.280 Y165.589 F2400.000
G1 X107.930 Y165.589 E10.01512 F378.000
G1 X107.930 Y152.824 E11.19574
G1 X128.978 Y152.824 E13.14248
G1 X128.978 Y172.370 E14.95027
G1 X114.280 Y176.584 E16.36446
G1 X114.280 Y165.649 E17.37583
G1 X113.933 Y165.789 F2400.000
G1 X96.564 Y183.303 F2400.000
G1 X96.567 Y116.695 E23.53648 F540.000
G1 X108.142 Y116.697 E24.60713
G1 X139.132 Y125.590 E27.58906
G1 X142.298 Y125.590 E27.88190
G1 X142.298 Y174.419 E32.39812
G1 X139.132 Y174.419 E32.69095
G1 X108.140 Y183.305 E35.67288
G1 X96.624 Y183.303 E36.73800
G1 X95.929 Y183.939 F2400.000
G1 X95.931 Y116.060 E43.01622 F378.000
G1 X108.232 Y116.061 E44.15393
G1 X139.221 Y124.955 E47.13586
G1 X142.933 Y124.955 E47.47922
G1 X142.933 Y175.055 E52.11302
G1 X139.221 Y175.054 E52.45638
G1 X108.230 Y183.940 E55.43832
G1 X95.989 Y183.939 E56.57048
G1 X96.129 Y183.593 F2400.000
G1 F1800.000 E55.57048
G92 E0
G1 X154.136 Y136.765 F2400.000
G1 E1.00000 F1800.000
G1 X153.538 Y135.986 E1.09085 F540.000
G1 X153.162 Y135.079 E1.18170
G1 X153.034 Y134.105 E1.27255
G1 X153.162 Y133.131 E1.36340
G1 X153.538 Y132.223 E1.45426
G1 X154.136 Y131.444 E1.54511
G1 X154.915 Y130.846 E1.63596
G1 X155.822 Y130.470 E1.72679
G1 X156.796 Y130.342 E1.81767
G1 X156.964 Y130.364 E1.83335
G1 X157.770 Y130.470 E1.90852 F540.000
G1 X158.678 Y130.846 E1.99936
G1 X159.457 Y131.444 E2.09021
G1 X160.055 Y132.223 E2.18106
G1 X160.431 Y133.131 E2.27192
G1 X160.559 Y134.105 E2.36277
G1 X160.431 Y135.079 E2.45361
G1 X160.055 Y135.986 E2.54446
G1 X159.457 Y136.765 E2.63532
G1 X159.322 Y136.869 E2.65100
G1 X158.678 Y137.363 E2.72617
G1 X157.770 Y137.739 E2.81702
G1 X156.796 Y137.868 E2.90787
G1 X155.822 Y137.739 E2.99872
G1 X154.915 Y137.363 E3.08957
G1 X154.183 Y136.802 E3.17487
G1 X154.589 Y136.312 F2400.000
G1 X154.093 Y135.666 E3.25024 F378.000
G1 X153.781 Y134.913 E3.32562
G1 X153.675 Y134.105 E3.40099
G1 X153.781 Y133.297 E3.47636
G1 X154.093 Y132.544 E3.55173
G1 X154.589 Y131.897 E3.62710
G1 X155.235 Y131.401 E3.70247
G1 X155.988 Y131.090 E3.77784
G1 X156.073 Y131.078 E3.78578
G1 X156.796 Y130.983 E3.85322 F378.000
G1 X157.604 Y131.090 E3.92859
G1 X158.357 Y131.401 E4.00396
G1 X159.004 Y131.897 E4.07933
G1 X159.500 Y132.544 E4.15470
G1 X159.812 Y133.297 E4.23007
G1 X159.918 Y134.105 E4.30544
G1 X159.812 Y134.913 E4.38081
G1 X159.500 Y135.666 E4.45619
G1 X159.004 Y136.312 E4.53156
G1 X158.357 Y136.808 E4.60693
G1 X157.604 Y137.120 E4.68230
G1 X156.796 Y137.226 E4.75767
G1 X155.988 Y137.120 E4.83304
G1 X155.235 Y136.808 E4.90841
G1 X154.637 Y136.349 E4.97824
G1 F1800.000 E3.97824
G92 E0
G1 X156.058 Y130.679 F2400.000
G1 X156.796 Y162.140 F2400.000
G1 E1.00000 F1800.000
G1 X156.964 Y162.162 E1.01568 F540.000
G1 X157.770 Y162.269 E1.09085 F540.000
G1 X158.678 Y162.644 E1.18170
G1 X159.457 Y163.242 E1.27255
G1 X160.055 Y164.022 E1.36340
G1 X160.366 Y164.773 E1.43858
G1 X160.431 Y164.929 E1.45426
G1 X160.559 Y165.903 E1.54511
G1 X160.431 Y166.877 E1.63596
G1 X160.055 Y167.784 E1.72681
G1 X159.457 Y168.564 E1.81766
G1 X158.678 Y169.162 E1.90851
G1 X157.770 Y169.538 E1.99936
G1 X156.796 Y169.666 E2.09022
G1 X155.822 Y169.538 E2.18106
G1 X154.915 Y169.162 E2.27191
G1 X154.136 Y168.564 E2.36277
G1 X153.538 Y167.784 E2.45362
G1 X153.162 Y166.877 E2.54447
G1 X153.034 Y165.903 E2.63532
G1 X153.162 Y164.929 E2.72617
G1 X153.227 Y164.773 E2.74185
G1 X153.538 Y164.022 E2.81702
G1 X154.136 Y163.242 E2.90787
G1 X154.915 Y162.644 E2.99872
G1 X155.822 Y162.269 E3.08958
G1 X156.737 Y162.148 E3.17487
G1 X156.796 Y162.781 F2400.000
G1 X157.604 Y162.888 E3.25024 F378.000
G1 X158.357 Y163.200 E3.32562
G1 X159.004 Y163.696 E3.40099
G1 X159.500 Y164.342 E3.47636
G1 X159.812 Y165.095 E3.55173
G1 X159.907 Y165.818 E3.61916
G1 X159.918 Y165.903 E3.62710
G1 X159.812 Y166.711 E3.70247
G1 X159.500 Y167.464 E3.77784
G1 X159.004 Y168.110 E3.85322
G1 X158.935 Y168.163 E3.86116
G1 X158.357 Y168.606 E3.92859
G1 X157.604 Y168.918 E4.00396
G1 X156.796 Y169.025 E4.07933
G1 X155.988 Y168.918 E4.15470
G1 X155.235 Y168.606 E4.23007
G1 X154.589 Y168.110 E4.30544
G1 X154.537 Y168.042 E4.31338
G1 X154.093 Y167.464 E4.38082
G1 X153.781 Y166.711 E4.45619
G1 X153.675 Y165.903 E4.53156
G1 X153.781 Y165.095 E4.60693
G1 X154.093 Y164.342 E4.68230
G1 X154.589 Y163.696 E4.75767
G1 X155.235 Y163.200 E4.83304
G1 X155.988 Y162.888 E4.90842
G1 X156.073 Y162.877 E4.91636
G1 X156.737 Y162.789 E4.97824 F378.000
G1 X156.039 Y162.478 F2400.000
G1 F1800.000 E3.97824
G92 E0
G1 X152.245 Y174.420 F2400.000
G1 E1.00000 F1800.000
G1 X152.245 Y125.590 E5.51628 F540.000
G1 X159.939 Y125.592 E6.22793
G1 X160.257 Y125.613 E6.25738
G1 X160.537 Y125.669 E6.28385
G1 X160.808 Y125.761 E6.31031
G1 X161.065 Y125.887 E6.33677
G1 X161.303 Y126.046 E6.36324
G1 X161.518 Y126.235 E6.38970
G1 X161.707 Y126.450 E6.41616
G1 X161.865 Y126.688 E6.44262
G1 X161.992 Y126.944 E6.46908
G1 X162.084 Y127.215 E6.49555
G1 X162.140 Y127.496 E6.52201
G1 X162.161 Y127.814 E6.55146
G1 X162.161 Y172.199 E10.65671
G1 X162.140 Y172.517 E10.68617
G1 X162.084 Y172.798 E10.71263
G1 X161.992 Y173.068 E10.73909
G1 X161.865 Y173.325 E10.76555
G1 X161.707 Y173.563 E10.79202
G1 X161.518 Y173.778 E10.81848
G1 X161.303 Y173.967 E10.84494
G1 X161.065 Y174.126 E10.87140
G1 X160.808 Y174.252 E10.89787
G1 X160.537 Y174.344 E10.92433
G1 X160.257 Y174.400 E10.95079
G1 X159.939 Y174.421 E10.98024
G1 X152.305 Y174.420 E11.68635
G1 X151.609 Y175.055 F2400.000
G1 X151.609 Y124.955 E16.32021 F378.000
G1 X159.960 Y124.956 E17.09258
G1 X160.340 Y124.981 E17.12780
G1 X160.702 Y125.053 E17.16198
G1 X161.052 Y125.172 E17.19614
G1 X161.383 Y125.336 E17.23031
G1 X161.691 Y125.541 E17.26449
G1 X161.968 Y125.784 E17.29865
G1 X162.212 Y126.062 E17.33282
G1 X162.417 Y126.369 E17.36699
G1 X162.581 Y126.701 E17.40115
G1 X162.699 Y127.050 E17.43533
G1 X162.771 Y127.413 E17.46950
G1 X162.796 Y127.793 E17.50473
G1 X162.796 Y172.220 E21.61383
G1 X162.771 Y172.600 E21.64906
G1 X162.699 Y172.962 E21.68323
G1 X162.581 Y173.312 E21.71740
G1 X162.417 Y173.644 E21.75157
G1 X162.212 Y173.951 E21.78574
G1 X161.968 Y174.228 E21.81990
G1 X161.691 Y174.472 E21.85408
G1 X161.383 Y174.677 E21.88824
G1 X161.052 Y174.841 E21.92241
G1 X160.702 Y174.959 E21.95658
G1 X160.340 Y175.032 E21.99075
G1 X159.960 Y175.056 E22.02598
G1 X151.669 Y175.055 E22.79280
G1 X151.809 Y174.709 F2400.000
G1 F1800.000 E21.79280
G92 E0
G1 X141.173 Y168.546 F2400.000
G1 E1.00000 F1800.000
G1 X141.857 Y169.230 E1.08946 F720.000
G1 X141.857 Y170.129 E1.17262
G1 X140.656 Y168.928 E1.32972
G1 X140.147 Y169.319 E1.38903
G1 X141.857 Y171.028 E1.61268
G1 X141.857 Y171.927 E1.69584
G1 X139.586 Y169.656 E1.99294
G1 X138.950 Y169.919 E2.05659
G1 X141.857 Y172.827 E2.43685
G1 X141.857 Y173.726 E2.52001
G1 X138.184 Y170.053 E3.00045
G1 X137.281 Y170.049 E3.08395
G1 X141.210 Y173.978 E3.59786
G1 X140.311 Y173.978 E3.68103
G1 X136.047 Y169.714 E4.23872
G1 F1800.000 E3.23872
G92 E0
G1 X141.264 Y163.242 F2400.000
G1 E1.00000 F1800.000
G1 X126.273 Y148.251 E2.96088 F720.000
G1 X127.172 Y148.251 E3.04404
G1 X141.857 Y162.936 E4.96492
G1 X141.857 Y162.037 E5.04808
G1 X128.071 Y148.251 E6.85134
G1 X128.970 Y148.251 E6.93450
G1 X141.857 Y161.138 E8.62015
G1 X141.857 Y160.239 E8.70332
G1 X129.869 Y148.251 E10.27136
G1 X130.054 Y147.536 E10.33959
G1 X141.857 Y159.339 E11.88344
G1 X141.857 Y158.440 E11.96661
G1 X130.054 Y146.637 E13.51046
G1 X130.054 Y145.738 E13.59362
G1 X141.857 Y157.541 E15.13747
G1 X141.857 Y156.642 E15.22063
G1 X130.054 Y144.839 E16.76448
G1 X130.054 Y143.940 E16.84764
G1 X141.857 Y155.743 E18.39149
G1 X141.857 Y154.844 E18.47466
G1 X130.054 Y143.041 E20.01851
G1 X130.054 Y142.142 E20.10167
G1 X141.857 Y153.945 E21.64552
G1 X141.857 Y153.045 E21.72868
G1 X130.054 Y141.242 E23.27253
G1 X130.054 Y140.343 E23.35569
G1 X141.857 Y152.146 E24.89954
G1 X141.857 Y151.247 E24.98271
G1 X130.054 Y139.444 E26.52656
G1 X130.054 Y138.545 E26.60972
G1 X141.857 Y150.348 E28.15357
G1 X141.857 Y149.449 E28.23673
G1 X130.054 Y137.646 E29.78058
G1 X130.054 Y136.747 E29.86374
G1 X141.857 Y148.550 E31.40759
G1 X141.857 Y147.651 E31.49075
G1 X130.054 Y135.848 E33.03460
G1 X130.054 Y134.948 E33.11777
G1 X141.857 Y146.751 E34.66162
G1 X141.857 Y145.852 E34.74478
G1 X130.054 Y134.049 E36.28863
G1 X130.054 Y133.150 E36.37179
G1 X141.857 Y144.953 E37.91564
G1 X140.919 Y136.822 F2400.000
G1 X141.857 Y137.760 E38.03832 F720.000
G1 X141.857 Y138.659 E38.12149
G1 X140.470 Y137.272 E38.30287
G1 X139.962 Y137.663 E38.36218
G1 X141.857 Y139.558 E38.61011
G1 X141.857 Y140.457 E38.69327
G1 X139.354 Y137.954 E39.02072
G1 X138.689 Y138.188 E39.08593
G1 X141.857 Y141.357 E39.50037
G1 X141.857 Y142.256 E39.58353
G1 X137.894 Y138.293 E40.10190
G1 X136.903 Y138.201 E40.19392
G1 X141.857 Y143.155 E40.84186
G1 X141.857 Y144.054 E40.92503
G1 X130.054 Y132.251 E42.46888
G1 X130.054 Y131.352 E42.55204
G1 X133.650 Y134.948 E43.02238
G1 X133.558 Y133.957 E43.11439
G1 X130.054 Y130.453 E43.57276
G1 X130.054 Y129.554 E43.65593
G1 X133.663 Y133.162 E44.12798
G1 X133.897 Y132.497 E44.19319
G1 X130.054 Y128.654 E44.69586
G1 X130.054 Y127.755 E44.77902
G1 X134.188 Y131.889 E45.31978
G1 X134.579 Y131.381 E45.37910
G1 X125.268 Y122.070 E46.59692
G1 X126.529 Y122.432 E46.71827
G1 X135.029 Y130.932 E47.83006
G1 X135.538 Y130.542 E47.88937
G1 X127.790 Y122.794 E48.90276
G1 X129.051 Y123.156 E49.02410
G1 X136.147 Y130.252 E49.95229
G1 X136.815 Y130.020 E50.01762
G1 X130.312 Y123.518 E50.86813
G1 X131.573 Y123.880 E50.98948
G1 X137.609 Y129.916 E51.77897
G1 X138.603 Y130.010 E51.87131
G1 X132.834 Y124.242 E52.62587
G1 X134.095 Y124.604 E52.74721
G1 X140.293 Y130.801 E53.55791
G1 X141.740 Y131.349 F2400.000
