; generated by Slic3r 1.1.7 on 2014-10-04 at 23:46:19

; perimeters extrusion width = 0.40mm
; infill extrusion width = 0.42mm
; solid infill extrusion width = 0.42mm
; top infill extrusion width = 0.42mm
; support material extrusion width = 0.40mm

G21 ; set units to millimeters
M107
M104 S185 ; set temperature
G92 X0 Y0 Z0
G1 Z5 F5000 ; lift nozzle

M109 S185 ; wait for temperature to be reached
G90 ; use absolute coordinates
G92 E0
M82 ; use absolute distances for extrusion
M204 S635
G1 F1800.000 E-1.00000
G92 E0
G1 Z0.350 F2400.000
G1 X72.591 Y118.859 F2400.000
G1 E1.00000 F1800.000
G1 X74.745 Y118.063 E1.21230 F630.000
G1 X75.933 Y117.956 E1.32263
G1 X212.195 Y117.971 E13.92562
G1 X221.340 Y117.987 E14.77145 F630.000
G1 X222.637 Y118.132 E14.89219
G1 X223.860 Y118.433 E15.00872
G1 X225.055 Y118.898 E15.12734
G1 X226.179 Y119.516 E15.24596
G1 X227.213 Y120.275 E15.36454
G1 X228.140 Y121.163 E15.48326
G1 X228.399 Y121.459 E15.51969
G1 X228.942 Y122.163 E15.60192
G1 X229.160 Y122.491 E15.63835
G1 X229.606 Y123.261 E15.72064
G1 X230.122 Y124.435 E15.83927
G1 X230.249 Y124.807 E15.87559
G1 X230.480 Y125.667 E15.95795
G1 X230.675 Y126.935 E16.07660
G1 X230.716 Y127.783 E16.15516
G1 X230.702 Y172.667 E20.30652
G1 X230.561 Y173.942 E20.42516
G1 X230.256 Y175.188 E20.54380
G1 X229.790 Y176.383 E20.66243
G1 X229.172 Y177.507 E20.78109
G1 X228.413 Y178.541 E20.89970
G1 X227.509 Y179.482 E21.02045
G1 X226.525 Y180.269 E21.13694
G1 X225.429 Y180.934 E21.25553
G1 X224.254 Y181.450 E21.37419
G1 X223.022 Y181.808 E21.49290
G1 X221.754 Y182.002 E21.61152
G1 X220.905 Y182.044 E21.69015
G1 X75.919 Y182.028 E35.10006
G1 X73.658 Y181.630 E35.31235
G1 X71.668 Y180.487 E35.52465
G1 X70.187 Y178.733 E35.73695
G1 X69.391 Y176.580 E35.94924
G1 X69.284 Y175.390 E36.05975
G1 X69.296 Y124.590 E40.75830
G1 X69.694 Y122.330 E40.97059
G1 X70.838 Y120.340 E41.18289
G1 X72.546 Y118.897 E41.38963
G1 F1800.000 E40.38963
G92 E0
G1 X218.704 Y137.741 F2400.000
G1 E1.00000 F1800.000
G1 X217.731 Y137.869 E1.09085 F540.000
G1 X216.757 Y137.741 E1.18170
G1 X215.849 Y137.365 E1.27256
G1 X215.204 Y136.870 E1.34772
G1 X215.070 Y136.767 E1.36340
G1 X214.472 Y135.988 E1.45425
G1 X214.096 Y135.080 E1.54510
G1 X213.968 Y134.106 E1.63596
G1 X214.096 Y133.133 E1.72681
G1 X214.472 Y132.225 E1.81766
G1 X215.070 Y131.446 E1.90851
G1 X215.849 Y130.848 E1.99935
G1 X216.757 Y130.472 E2.09021
G1 X217.731 Y130.344 E2.18106
G1 X217.899 Y130.366 E2.19675
G1 X218.704 Y130.472 E2.27191 F540.000
G1 X219.612 Y130.848 E2.36277
G1 X220.391 Y131.446 E2.45362
G1 X220.989 Y132.225 E2.54446
G1 X221.365 Y133.133 E2.63532
G1 X221.493 Y134.106 E2.72617
G1 X221.365 Y135.080 E2.81702
G1 X220.989 Y135.988 E2.90787
G1 X220.391 Y136.767 E2.99872
G1 X219.612 Y137.365 E3.08957
G1 X218.760 Y137.718 E3.17487
G1 X218.538 Y137.122 F2400.000
G1 X217.731 Y137.228 E3.25024 F378.000
G1 X216.923 Y137.122 E3.32562
G1 X216.170 Y136.810 E3.40099
G1 X215.523 Y136.314 E3.47636
G1 X215.471 Y136.246 E3.48430
G1 X215.027 Y135.667 E3.55173
G1 X214.715 Y134.914 E3.62710
G1 X214.609 Y134.106 E3.70247
G1 X214.715 Y133.298 E3.77784
G1 X215.027 Y132.546 E3.85322
G1 X215.523 Y131.899 E3.92859
G1 X216.170 Y131.403 E4.00396
G1 X216.923 Y131.091 E4.07933
G1 X217.008 Y131.080 E4.08728
G1 X217.731 Y130.985 E4.15470 F378.000
G1 X218.538 Y131.091 E4.23007
G1 X219.291 Y131.403 E4.30545
G1 X219.938 Y131.899 E4.38082
G1 X220.434 Y132.546 E4.45619
G1 X220.746 Y133.298 E4.53156
G1 X220.852 Y134.106 E4.60693
G1 X220.757 Y134.829 E4.67436
G1 X220.746 Y134.914 E4.68230
G1 X220.434 Y135.667 E4.75767
G1 X219.938 Y136.314 E4.83304
G1 X219.291 Y136.810 E4.90841
G1 X218.594 Y137.099 E4.97824
G1 F1800.000 E3.97824
G92 E0
G1 X216.923 Y130.689 F2400.000
G1 X217.731 Y162.142 F2400.000
G1 E1.00000 F1800.000
G1 X217.899 Y162.164 E1.01569 F540.000
G1 X218.704 Y162.270 E1.09085 F540.000
G1 X219.612 Y162.646 E1.18170
G1 X220.391 Y163.244 E1.27255
G1 X220.989 Y164.023 E1.36340
G1 X221.365 Y164.931 E1.45425
G1 X221.493 Y165.905 E1.54511
G1 X221.365 Y166.879 E1.63596
G1 X220.989 Y167.786 E1.72681
G1 X220.391 Y168.565 E1.81766
G1 X219.612 Y169.163 E1.90850
G1 X219.455 Y169.228 E1.92419
G1 X218.704 Y169.539 E1.99936
G1 X217.731 Y169.667 E2.09021
G1 X216.757 Y169.539 E2.18106
G1 X215.849 Y169.163 E2.27192
G1 X215.070 Y168.565 E2.36276
G1 X214.472 Y167.786 E2.45361
G1 X214.096 Y166.878 E2.54446
G1 X213.968 Y165.905 E2.63531
G1 X214.096 Y164.931 E2.72617
G1 X214.472 Y164.023 E2.81702
G1 X215.070 Y163.244 E2.90787
G1 X215.849 Y162.646 E2.99872
G1 X216.757 Y162.270 E3.08957
G1 X217.671 Y162.150 E3.17487
G1 X217.731 Y162.783 F2400.000
G1 X218.538 Y162.889 E3.25024 F378.000
G1 X219.291 Y163.201 E3.32561
G1 X219.938 Y163.697 E3.40099
G1 X220.434 Y164.344 E3.47636
G1 X220.746 Y165.097 E3.55173
G1 X220.852 Y165.905 E3.62710
G1 X220.746 Y166.713 E3.70247
G1 X220.434 Y167.465 E3.77784
G1 X219.938 Y168.112 E3.85322
G1 X219.291 Y168.608 E3.92858
G1 X218.538 Y168.920 E4.00396
G1 X217.816 Y169.015 E4.07138
G1 X217.731 Y169.026 E4.07933
G1 X216.923 Y168.920 E4.15470
G1 X216.170 Y168.608 E4.23007
G1 X215.523 Y168.112 E4.30544
G1 X215.027 Y167.465 E4.38081
G1 X214.994 Y167.386 E4.38876
G1 X214.715 Y166.713 E4.45619
G1 X214.609 Y165.905 E4.53156
G1 X214.715 Y165.097 E4.60693
G1 X215.027 Y164.344 E4.68230
G1 X215.523 Y163.697 E4.75767
G1 X216.170 Y163.201 E4.83304
G1 X216.923 Y162.889 E4.90841
G1 X217.008 Y162.878 E4.91636
G1 X217.671 Y162.791 E4.97824 F378.000
G1 X216.973 Y162.480 F2400.000
G1 F1800.000 E3.97824
G92 E0
G1 X213.179 Y174.421 F2400.000
G1 E1.00000 F1800.000
G1 X213.179 Y125.592 E5.51628 F540.000
G1 X220.873 Y125.594 E6.22791
G1 X221.191 Y125.614 E6.25738
G1 X221.472 Y125.670 E6.28384
G1 X221.743 Y125.762 E6.31031
G1 X221.999 Y125.889 E6.33677
G1 X222.237 Y126.048 E6.36324
G1 X222.452 Y126.236 E6.38969
G1 X222.641 Y126.451 E6.41616
G1 X222.800 Y126.689 E6.44262
G1 X222.926 Y126.946 E6.46908
G1 X223.018 Y127.217 E6.49555
G1 X223.074 Y127.498 E6.52201
G1 X223.095 Y127.815 E6.55146
G1 X223.095 Y172.201 E10.65671
G1 X223.074 Y172.519 E10.68617
G1 X223.018 Y172.799 E10.71263
G1 X222.926 Y173.070 E10.73909
G1 X222.800 Y173.327 E10.76555
G1 X222.641 Y173.565 E10.79202
G1 X222.452 Y173.780 E10.81848
G1 X222.237 Y173.968 E10.84494
G1 X221.999 Y174.127 E10.87141
G1 X221.743 Y174.254 E10.89787
G1 X221.472 Y174.346 E10.92433
G1 X221.191 Y174.402 E10.95079
G1 X220.873 Y174.422 E10.98024
G1 X213.239 Y174.421 E11.68635
G1 X212.543 Y175.057 F2400.000
G1 X212.543 Y124.956 E16.32021 F378.000
G1 X220.894 Y124.958 E17.09257
G1 X221.274 Y124.983 E17.12781
G1 X221.636 Y125.055 E17.16198
G1 X221.986 Y125.174 E17.19614
G1 X222.318 Y125.337 E17.23031
G1 X222.625 Y125.542 E17.26449
G1 X222.903 Y125.786 E17.29865
G1 X223.146 Y126.064 E17.33282
G1 X223.351 Y126.371 E17.36699
G1 X223.515 Y126.702 E17.40116
G1 X223.634 Y127.052 E17.43533
G1 X223.706 Y127.414 E17.46950
G1 X223.731 Y127.794 E17.50473
G1 X223.731 Y172.222 E21.61383
G1 X223.706 Y172.602 E21.64906
G1 X223.634 Y172.964 E21.68323
G1 X223.515 Y173.314 E21.71740
G1 X223.351 Y173.645 E21.75157
G1 X223.146 Y173.952 E21.78574
G1 X222.903 Y174.230 E21.81991
G1 X222.625 Y174.474 E21.85408
G1 X222.318 Y174.679 E21.88825
G1 X221.986 Y174.842 E21.92242
G1 X221.637 Y174.961 E21.95658
G1 X221.274 Y175.033 E21.99075
G1 X220.894 Y175.058 E22.02598
G1 X212.603 Y175.057 E22.79280
G1 X212.743 Y174.711 F2400.000
G1 X213.620 Y173.941 F2400.000
G1 X213.660 Y173.981 E22.79803 F720.000
G1 X214.561 Y173.981 E22.88141
G1 X213.620 Y173.039 E23.00455
G1 X213.620 Y172.138 E23.08792
G1 X215.463 Y173.981 E23.32898
G1 X216.364 Y173.981 E23.41236
G1 X213.620 Y171.237 E23.77133
G1 X213.620 Y170.335 E23.85469
G1 X217.266 Y173.981 E24.33158
G1 X218.167 Y173.981 E24.41495
G1 X213.620 Y169.434 E25.00975
G1 X213.746 Y168.659 E25.08240
G1 X219.069 Y173.981 E25.77862
G1 X219.970 Y173.981 E25.86199
G1 X215.240 Y169.251 E26.48074
G1 X216.891 Y170.001 F2400.000
G1 X220.871 Y173.981 E27.00125 F720.000
G1 X221.616 Y173.825 E27.07168
G1 X217.883 Y170.092 E27.55994
G1 X218.680 Y169.987 E27.63425
G1 X222.136 Y173.443 E28.08631
G1 X222.510 Y172.917 E28.14609
G1 X219.345 Y169.751 E28.56016
G1 X219.953 Y169.457 E28.62259
G1 X222.654 Y172.159 E28.97595
G1 X222.654 Y171.258 E29.05932
G1 X220.463 Y169.066 E29.34597
G1 X220.910 Y168.613 E29.40492
G1 X222.654 Y170.356 E29.63298
G1 X222.654 Y169.455 E29.71635
G1 X221.302 Y168.103 E29.89323
G1 X221.589 Y167.489 E29.95592
G1 X222.654 Y168.553 E30.09519
G1 X222.654 Y167.652 E30.17856
G1 X221.818 Y166.816 E30.28794
G1 X222.654 Y166.751 E30.36552
G1 X221.923 Y166.019 E30.46118
G1 X222.654 Y165.849 E30.53063
G1 X221.821 Y165.016 E30.63961
G1 X222.654 Y164.948 E30.71693
G1 X213.620 Y155.914 E31.89864
G1 X213.620 Y155.012 E31.98201
G1 X222.654 Y164.047 E33.16372
G1 X222.654 Y163.145 E33.24709
G1 X213.620 Y154.111 E34.42880
G1 X213.620 Y153.210 E34.51217
G1 X222.654 Y162.244 E35.69388
G1 X222.654 Y161.343 E35.77725
G1 X213.620 Y152.308 E36.95896
G1 X213.620 Y151.407 E37.04233
G1 X222.654 Y160.441 E38.22404
G1 X222.654 Y159.540 E38.30741
G1 X213.620 Y150.506 E39.48912
G1 X213.620 Y149.604 E39.57248
G1 X222.654 Y158.639 E40.75420
G1 X222.654 Y157.737 E40.83756
G1 X213.620 Y148.703 E42.01928
G1 X213.620 Y147.802 E42.10264
G1 X222.654 Y156.836 E43.28435
G1 X222.654 Y155.935 E43.36772
G1 X213.620 Y146.900 E44.54943
G1 X213.620 Y145.999 E44.63280
G1 X222.654 Y155.033 E45.81451
G1 X222.654 Y154.132 E45.89788
G1 X213.620 Y145.098 E47.07959
G1 X213.620 Y144.196 E47.16296
G1 X222.654 Y153.231 E48.34467
G1 X222.654 Y152.329 E48.42804
G1 X213.620 Y143.295 E49.60975
G1 X213.620 Y142.393 E49.69312
G1 X222.654 Y151.428 E50.87483
G1 X222.654 Y150.527 E50.95820
G1 X213.620 Y141.492 E52.13991
G1 X213.620 Y140.591 E52.22327
G1 X222.654 Y149.625 E53.40499
G1 X222.654 Y148.724 E53.48835
G1 X213.620 Y139.689 E54.67007
G1 X213.620 Y138.788 E54.75343
G1 X222.654 Y147.822 E55.93514
G1 X222.654 Y146.921 E56.01851
G1 X213.620 Y137.887 E57.20022
G1 X213.620 Y136.985 E57.28359
G1 X222.654 Y146.020 E58.46530
G1 X222.654 Y145.118 E58.54867
G1 X214.288 Y136.753 E59.64294
G1 X216.583 Y138.146 F2400.000
G1 X222.654 Y144.217 E60.43701 F720.000
G1 X222.654 Y143.316 E60.52038
G1 X217.640 Y138.302 E61.17620
G1 X218.458 Y138.218 E61.25220
G1 X222.654 Y142.414 E61.80110
G1 X222.654 Y141.513 E61.88446
G1 X219.167 Y138.026 E62.34053
G1 X219.805 Y137.762 E62.40434
G1 X222.654 Y140.612 E62.77704
G1 X222.654 Y139.710 E62.86041
G1 X220.321 Y137.377 E63.16564
G1 X220.802 Y136.956 E63.22472
G1 X222.654 Y138.809 E63.46704
G1 X222.654 Y137.908 E63.55041
G1 X221.193 Y136.446 E63.74154
G1 X221.516 Y135.868 E63.80281
G1 X222.654 Y137.006 E63.95169
G1 X222.654 Y136.105 E64.03506
G1 X221.780 Y135.231 E64.14941
G1 X222.654 Y135.204 E64.23031
G1 X221.894 Y134.443 E64.32979
G1 X222.654 Y134.302 E64.40133
G1 X221.859 Y133.507 E64.50534
G1 X221.458 Y132.205 E64.63140
G1 X222.654 Y133.401 E64.78789
G1 X222.654 Y132.500 E64.87125
G1 X216.188 Y126.034 E65.71702
G1 X217.090 Y126.034 E65.80040
G1 X222.654 Y131.598 E66.52825
G1 X222.654 Y130.697 E66.61161
G1 X217.991 Y126.034 E67.22154
G1 X218.893 Y126.034 E67.30492
G1 X222.654 Y129.795 E67.79692
G1 X222.654 Y128.894 E67.88029
G1 X219.794 Y126.034 E68.25437
G1 X220.696 Y126.034 E68.33775
G1 X222.654 Y127.993 E68.59391
G1 X222.305 Y126.742 E68.71400
G1 X221.946 Y126.384 E68.76090
G1 X219.632 Y130.379 F2400.000
G1 X215.287 Y126.033 E69.32935 F720.000
G1 X214.385 Y126.033 E69.41273
G1 X218.330 Y129.978 E69.92873
G1 X217.394 Y129.943 E70.01535
G1 X213.620 Y126.169 E70.50902
G1 X213.620 Y127.071 E70.59239
G1 X216.606 Y130.057 E70.98303
G1 X215.969 Y130.321 E71.04684
G1 X213.620 Y127.972 E71.35411
G1 X213.620 Y128.873 E71.43748
G1 X215.391 Y130.644 E71.66911
G1 X214.881 Y131.035 E71.72856
G1 X213.620 Y129.775 E71.89348
G1 X213.620 Y130.676 E71.97685
G1 X214.433 Y131.489 E72.08320
G1 X213.620 Y156.815 F2400.000
G1 X218.619 Y161.814 E72.73710 F720.000
G1 X217.616 Y161.712 E72.83036
G1 X213.620 Y157.716 E73.35305
G1 X213.620 Y158.618 E73.43641
G1 X216.819 Y161.817 E73.85491
G1 X216.146 Y162.046 E73.92063
G1 X213.620 Y159.519 E74.25112
G1 X213.620 Y160.420 E74.33449
G1 X215.533 Y162.333 E74.58469
G1 X215.023 Y162.725 E74.64415
G1 X213.620 Y161.322 E74.82764
G1 X213.620 Y162.223 E74.91101
G1 X214.569 Y163.173 E75.03519
G1 X213.621 Y163.126 F2400.000
G1 X213.620 Y163.125 E75.03534 F720.000
G1 X213.638 Y133.041 F2400.000
G1 X213.879 Y131.828 E75.10023 F360.000
G1 X213.638 Y135.172 F2400.000
G1 X213.879 Y136.385 E75.16512 F360.000
G1 X213.638 Y166.970 F2400.000
G1 X213.879 Y168.183 E75.23001 F360.000
G1 X213.638 Y164.839 F2400.000
G1 X213.879 Y163.626 E75.29490 F360.000
G1 F1800.000 E74.29490
G92 E0
G1 X199.654 Y137.741 F2400.000
G1 E1.00000 F1800.000
G1 X198.681 Y137.869 E1.09085 F540.000
G1 X197.707 Y137.741 E1.18170
G1 X196.799 Y137.365 E1.27256
G1 X196.154 Y136.870 E1.34772
G1 X196.020 Y136.767 E1.36341
G1 X195.422 Y135.988 E1.45425
G1 X195.046 Y135.080 E1.54510
G1 X194.918 Y134.106 E1.63596
G1 X195.046 Y133.133 E1.72681
G1 X195.422 Y132.225 E1.81766
G1 X196.020 Y131.446 E1.90851
G1 X196.799 Y130.848 E1.99935
G1 X197.707 Y130.472 E2.09021
G1 X198.681 Y130.344 E2.18106
G1 X198.849 Y130.366 E2.19675
G1 X199.654 Y130.472 E2.27191 F540.000
G1 X200.562 Y130.848 E2.36277
G1 X201.341 Y131.446 E2.45361
G1 X201.939 Y132.225 E2.54446
G1 X202.315 Y133.133 E2.63532
G1 X202.443 Y134.106 E2.72617
G1 X202.315 Y135.080 E2.81702
G1 X201.939 Y135.988 E2.90787
G1 X201.341 Y136.767 E2.99872
G1 X200.562 Y137.365 E3.08957
G1 X199.710 Y137.718 E3.17487
G1 X199.488 Y137.122 F2400.000
G1 X198.681 Y137.228 E3.25024 F378.000
G1 X197.873 Y137.122 E3.32562
G1 X197.120 Y136.810 E3.40099
G1 X196.473 Y136.314 E3.47636
G1 X196.421 Y136.246 E3.48430
G1 X195.977 Y135.667 E3.55173
G1 X195.665 Y134.914 E3.62710
G1 X195.559 Y134.106 E3.70247
G1 X195.665 Y133.298 E3.77784
G1 X195.977 Y132.546 E3.85322
G1 X196.473 Y131.899 E3.92859
G1 X197.120 Y131.403 E4.00396
G1 X197.873 Y131.091 E4.07933
G1 X197.958 Y131.080 E4.08728
G1 X198.681 Y130.985 E4.15470 F378.000
G1 X199.488 Y131.091 E4.23007
G1 X200.241 Y131.403 E4.30545
G1 X200.888 Y131.899 E4.38082
G1 X201.384 Y132.546 E4.45619
G1 X201.696 Y133.298 E4.53156
G1 X201.802 Y134.106 E4.60693
G1 X201.696 Y134.914 E4.68231
G1 X201.384 Y135.667 E4.75767
G1 X200.888 Y136.314 E4.83304
G1 X200.241 Y136.810 E4.90841
G1 X199.544 Y137.099 E4.97824
G1 F1800.000 E3.97824
G92 E0
G1 X197.873 Y130.689 F2400.000
G1 X198.681 Y162.142 F2400.000
G1 E1.00000 F1800.000
G1 X198.849 Y162.164 E1.01569 F540.000
G1 X199.654 Y162.270 E1.09085 F540.000
G1 X200.562 Y162.646 E1.18170
G1 X201.341 Y163.244 E1.27255
G1 X201.939 Y164.023 E1.36340
G1 X202.315 Y164.931 E1.45425
G1 X202.443 Y165.905 E1.54511
G1 X202.315 Y166.879 E1.63596
G1 X201.939 Y167.786 E1.72681
G1 X201.341 Y168.565 E1.81766
G1 X200.562 Y169.163 E1.90850
G1 X200.405 Y169.228 E1.92419
G1 X199.654 Y169.539 E1.99936
G1 X198.681 Y169.667 E2.09021
G1 X197.707 Y169.539 E2.18106
G1 X196.956 Y169.228 E2.25623
G1 X196.799 Y169.163 E2.27192
G1 X196.020 Y168.565 E2.36276
G1 X195.422 Y167.786 E2.45361
G1 X195.357 Y167.629 E2.46930
G1 X195.046 Y166.879 E2.54446
G1 X194.918 Y165.905 E2.63532
G1 X195.046 Y164.931 E2.72617
G1 X195.422 Y164.023 E2.81702
G1 X196.020 Y163.244 E2.90787
G1 X196.799 Y162.646 E2.99872
G1 X197.707 Y162.270 E3.08957
G1 X198.621 Y162.150 E3.17487
G1 X198.681 Y162.783 F2400.000
G1 X199.488 Y162.889 E3.25024 F378.000
G1 X200.241 Y163.201 E3.32561
G1 X200.309 Y163.254 E3.33356
G1 X200.888 Y163.697 E3.40099
G1 X201.384 Y164.344 E3.47636
G1 X201.696 Y165.097 E3.55173
G1 X201.802 Y165.905 E3.62710
G1 X201.707 Y166.627 E3.69453
G1 X201.696 Y166.713 E3.70247
G1 X201.384 Y167.465 E3.77784
G1 X200.888 Y168.112 E3.85322
G1 X200.241 Y168.608 E3.92858
G1 X199.488 Y168.920 E4.00396
G1 X198.681 Y169.026 E4.07933
G1 X197.873 Y168.920 E4.15470
G1 X197.120 Y168.608 E4.23007
G1 X196.473 Y168.112 E4.30544
G1 X195.977 Y167.465 E4.38081
G1 X195.665 Y166.713 E4.45619
G1 X195.559 Y165.905 E4.53156
G1 X195.665 Y165.097 E4.60693
G1 X195.977 Y164.344 E4.68230
G1 X196.473 Y163.697 E4.75767
