; generated by Slic3r 1.1.7 on 2014-10-02 at 22:24:50

; perimeters extrusion width = 0.40mm
; infill extrusion width = 0.42mm
; solid infill extrusion width = 0.42mm
; top infill extrusion width = 0.42mm
; support material extrusion width = 0.40mm

G21 ; set units to millimeters
M107
M104 S185 ; set temperature
G92 X0 Y0 Z0
G1 Z5 F5000 ; lift nozzle

M109 S185 ; wait for temperature to be reached
G90 ; use absolute coordinates
G92 E0
M82 ; use absolute distances for extrusion
M204 S635
G1 F1800.000 E-1.00000
G92 E0
G1 Z0.350 F2400.000
G1 X93.866 Y122.329 F2400.000
G1 E1.00000 F1800.000
G1 X94.418 Y121.906 E1.06434 F630.000
G1 X95.918 Y121.040 E1.22454
G1 X97.847 Y120.241 E1.41772
G1 X99.520 Y119.792 E1.57792
G1 X101.965 Y119.481 E1.80587
G1 X122.916 Y117.943 E3.74879
G1 X177.088 Y117.960 E8.75921
G1 X198.409 Y119.520 E10.73652 F630.000
G1 X200.480 Y119.792 E10.92968
G1 X202.153 Y120.241 E11.08990
G1 X204.082 Y121.040 E11.28305
G1 X205.582 Y121.906 E11.44326
G1 X207.239 Y123.177 E11.63642
G1 X208.464 Y124.402 E11.79663
G1 X209.735 Y126.059 E11.98979
G1 X210.601 Y127.559 E12.15001
G1 X211.401 Y129.489 E12.34316
G1 X211.849 Y131.162 E12.50338
G1 X212.107 Y133.118 E12.68589
G1 X212.178 Y134.098 E12.77679
G1 X212.122 Y166.768 E15.79842
G1 X211.849 Y168.838 E15.99158
G1 X211.401 Y170.511 E16.15179
G1 X210.601 Y172.441 E16.34495
G1 X209.736 Y173.941 E16.50513
G1 X208.464 Y175.598 E16.69832
G1 X207.239 Y176.823 E16.85852
G1 X205.582 Y178.094 E17.05169
G1 X204.082 Y178.960 E17.21191
G1 X202.153 Y179.759 E17.40506
G1 X200.480 Y180.208 E17.56528
G1 X198.034 Y180.519 E17.79326
G1 X177.075 Y182.057 E19.73699
G1 X122.905 Y182.040 E24.74722
G1 X100.118 Y180.341 E26.86067
G1 X98.254 Y179.912 E27.03763
G1 X96.461 Y179.244 E27.21460
G1 X94.771 Y178.347 E27.39158
G1 X93.212 Y177.237 E27.56854
G1 X91.773 Y175.890 E27.75084
G1 X90.593 Y174.458 E27.92244
G1 X89.578 Y172.836 E28.09944
G1 X88.783 Y171.096 E28.27640
G1 X88.222 Y169.267 E28.45338
G1 X87.904 Y167.380 E28.63031
G1 X87.822 Y165.902 E28.76728
G1 X87.878 Y133.232 E31.78891
G1 X88.151 Y131.162 E31.98206
G1 X88.599 Y129.489 E32.14226
G1 X89.399 Y127.559 E32.33544
G1 X90.265 Y126.059 E32.49565
G1 X91.536 Y124.402 E32.68880
G1 X92.761 Y123.177 E32.84903
G1 X93.818 Y122.366 E32.97230
G1 F1800.000 E31.97230
G92 E0
G1 X105.118 Y168.562 F2400.000
G1 E1.00000 F1800.000
G1 X104.338 Y169.160 E1.09084 F540.000
G1 X103.431 Y169.536 E1.18170
G1 X102.457 Y169.664 E1.27255
G1 X101.483 Y169.536 E1.36341
G1 X100.576 Y169.160 E1.45425
G1 X99.796 Y168.562 E1.54510
G1 X99.198 Y167.783 E1.63596
G1 X98.823 Y166.876 E1.72680
G1 X98.694 Y165.902 E1.81766
G1 X98.823 Y164.928 E1.90851
G1 X99.198 Y164.020 E1.99936
G1 X99.796 Y163.241 E2.09021
G1 X100.576 Y162.643 E2.18106
G1 X101.483 Y162.267 E2.27190
G1 X102.457 Y162.139 E2.36276
G1 X103.263 Y162.245 E2.43793
G1 X103.431 Y162.267 E2.45361 F540.000
G1 X104.338 Y162.643 E2.54447
G1 X105.118 Y163.241 E2.63531
G1 X105.716 Y164.020 E2.72616
G1 X106.092 Y164.928 E2.81702
G1 X106.220 Y165.902 E2.90786
G1 X106.092 Y166.876 E2.99872
G1 X105.716 Y167.783 E3.08957
G1 X105.154 Y168.515 E3.17487
G1 X104.664 Y168.109 F2400.000
G1 X104.018 Y168.605 E3.25024 F378.000
G1 X103.265 Y168.917 E3.32561
G1 X102.457 Y169.023 E3.40099
G1 X101.649 Y168.917 E3.47636
G1 X100.896 Y168.605 E3.55173
G1 X100.250 Y168.109 E3.62710
G1 X99.754 Y167.462 E3.70247
G1 X99.442 Y166.710 E3.77784
G1 X99.335 Y165.902 E3.85321
G1 X99.442 Y165.094 E3.92859
G1 X99.754 Y164.341 E4.00396
G1 X100.250 Y163.694 E4.07933
G1 X100.896 Y163.198 E4.15470
G1 X101.649 Y162.886 E4.23007
G1 X102.372 Y162.791 E4.29750
G1 X102.457 Y162.780 E4.30544 F378.000
G1 X103.265 Y162.886 E4.38081
G1 X104.018 Y163.198 E4.45619
G1 X104.664 Y163.694 E4.53156
G1 X105.160 Y164.341 E4.60693
G1 X105.472 Y165.094 E4.68230
G1 X105.579 Y165.902 E4.75767
G1 X105.472 Y166.710 E4.83304
G1 X105.160 Y167.462 E4.90842
G1 X104.701 Y168.061 E4.97824
G1 F1800.000 E3.97824
G92 E0
G1 X102.349 Y162.708 F2400.000
G1 X102.457 Y137.861 F2400.000
G1 E1.00000 F1800.000
G1 X101.483 Y137.733 E1.09085 F540.000
G1 X100.576 Y137.357 E1.18171
G1 X99.796 Y136.759 E1.27254
G1 X99.198 Y135.980 E1.36340
G1 X98.823 Y135.072 E1.45425
G1 X98.694 Y134.098 E1.54510
G1 X98.823 Y133.124 E1.63596
G1 X99.198 Y132.217 E1.72680
G1 X99.796 Y131.438 E1.81766
G1 X100.576 Y130.840 E1.90850
G1 X101.483 Y130.464 E1.99935
G1 X102.457 Y130.336 E2.09021
G1 X103.263 Y130.442 E2.16538
G1 X103.431 Y130.464 E2.18106 F540.000
G1 X104.339 Y130.840 E2.27192
G1 X105.118 Y131.438 E2.36276
G1 X105.716 Y132.217 E2.45360
G1 X106.092 Y133.124 E2.54446
G1 X106.220 Y134.098 E2.63531
G1 X106.092 Y135.072 E2.72617
G1 X105.716 Y135.980 E2.81702
G1 X105.118 Y136.759 E2.90788
G1 X104.339 Y137.357 E2.99870
G1 X103.431 Y137.733 E3.08957
G1 X102.517 Y137.853 E3.17487
G1 X102.457 Y137.220 F2400.000
G1 X101.649 Y137.114 E3.25024 F378.000
G1 X100.896 Y136.802 E3.32562
G1 X100.250 Y136.306 E3.40098
G1 X99.754 Y135.659 E3.47636
G1 X99.442 Y134.906 E3.55173
G1 X99.335 Y134.098 E3.62710
G1 X99.442 Y133.290 E3.70247
G1 X99.754 Y132.538 E3.77784
G1 X100.250 Y131.891 E3.85322
G1 X100.896 Y131.395 E3.92858
G1 X101.649 Y131.083 E4.00396
G1 X102.372 Y130.988 E4.07138
G1 X102.457 Y130.977 E4.07933 F378.000
G1 X103.265 Y131.083 E4.15470
G1 X104.018 Y131.395 E4.23008
G1 X104.664 Y131.891 E4.30544
G1 X105.160 Y132.537 E4.38081
G1 X105.472 Y133.290 E4.45618
G1 X105.579 Y134.098 E4.53156
G1 X105.472 Y134.906 E4.60693
G1 X105.160 Y135.659 E4.68230
G1 X104.664 Y136.306 E4.75767
G1 X104.018 Y136.802 E4.83304
G1 X103.265 Y137.114 E4.90841
G1 X102.517 Y137.212 E4.97824
G1 F1800.000 E3.97824
G92 E0
G1 X102.360 Y130.903 F2400.000
G1 X146.237 Y134.098 F2400.000
G1 E1.00000 F1800.000
G1 X146.365 Y133.124 E1.09085 F540.000
G1 X146.741 Y132.217 E1.18171
G1 X147.339 Y131.438 E1.27255
G1 X148.119 Y130.840 E1.36341
G1 X149.026 Y130.464 E1.45426
G1 X150.000 Y130.336 E1.54511
G1 X150.456 Y130.396 E1.58761
G1 X150.974 Y130.464 E1.63597 F540.000
G1 X151.881 Y130.840 E1.72681
G1 X152.661 Y131.438 E1.81766
G1 X153.259 Y132.217 E1.90851
G1 X153.635 Y133.124 E1.99936
G1 X153.763 Y134.098 E2.09021
G1 X153.635 Y135.072 E2.18106
G1 X153.259 Y135.980 E2.27192
G1 X152.661 Y136.759 E2.36277
G1 X151.881 Y137.357 E2.45361
G1 X150.974 Y137.733 E2.54446
G1 X150.000 Y137.861 E2.63532
G1 X149.026 Y137.733 E2.72617
G1 X148.119 Y137.357 E2.81702
G1 X147.339 Y136.759 E2.90787
G1 X146.741 Y135.980 E2.99872
G1 X146.365 Y135.072 E3.08957
G1 X146.245 Y134.158 E3.17487
G1 X146.878 Y134.098 F2400.000
G1 X146.985 Y133.290 E3.25025 F378.000
G1 X147.297 Y132.538 E3.32562
G1 X147.793 Y131.891 E3.40099
G1 X148.439 Y131.395 E3.47636
G1 X149.192 Y131.083 E3.55173
G1 X149.277 Y131.072 E3.55968
G1 X150.000 Y130.977 E3.62710 F378.000
G1 X150.808 Y131.083 E3.70248
G1 X151.561 Y131.395 E3.77784
G1 X152.207 Y131.891 E3.85322
G1 X152.703 Y132.538 E3.92859
G1 X153.015 Y133.290 E4.00396
G1 X153.122 Y134.098 E4.07933
G1 X153.026 Y134.821 E4.14676
G1 X153.015 Y134.906 E4.15470
G1 X152.703 Y135.659 E4.23008
G1 X152.207 Y136.306 E4.30545
G1 X151.561 Y136.802 E4.38081
G1 X150.808 Y137.114 E4.45619
G1 X150.000 Y137.220 E4.53156
G1 X149.192 Y137.114 E4.60693
G1 X148.439 Y136.802 E4.68230
G1 X147.793 Y136.306 E4.75767
G1 X147.297 Y135.659 E4.83304
G1 X146.985 Y134.906 E4.90842
G1 X146.886 Y134.158 E4.97824
G1 F1800.000 E3.97824
G92 E0
G1 X149.314 Y130.674 F2400.000
G1 X145.765 Y149.249 F2400.000
G1 E1.00000 F1800.000
G1 X145.765 Y150.751 E1.13891 F540.000
G1 X124.839 Y157.591 E3.17514
G1 X124.839 Y142.409 E4.57931
G1 X145.708 Y149.230 E6.60999
G1 X145.130 Y149.710 F2400.000
G1 X145.130 Y150.290 E6.66363 F378.000
G1 X125.475 Y156.714 E8.57615
G1 X125.475 Y143.286 E9.81820
G1 X145.073 Y149.691 E11.72517
G1 X145.527 Y149.752 F2400.000
G1 X123.636 Y141.112 F2400.000
G1 X123.636 Y158.888 E13.36921 F540.000
G1 X107.821 Y158.888 E14.83188
G1 X107.821 Y141.112 E16.47592
G1 X123.576 Y141.112 E17.93305
G1 X123.000 Y141.748 F2400.000
G1 X123.000 Y158.252 E19.45951 F378.000
G1 X108.457 Y158.252 E20.80460
G1 X108.457 Y141.748 E22.33106
G1 X122.940 Y141.748 E23.67061
G1 X123.400 Y141.748 F2400.000
G1 F1800.000 E22.67061
G92 E0
G1 X147.339 Y163.241 F2400.000
G1 E1.00000 F1800.000
G1 X148.119 Y162.643 E1.09085 F540.000
G1 X149.026 Y162.267 E1.18170
G1 X150.000 Y162.139 E1.27255
G1 X150.168 Y162.161 E1.28824
G1 X150.974 Y162.267 E1.36341 F540.000
G1 X151.881 Y162.643 E1.45425
G1 X152.661 Y163.241 E1.54511
G1 X153.259 Y164.020 E1.63596
G1 X153.635 Y164.928 E1.72681
G1 X153.763 Y165.902 E1.81766
G1 X153.635 Y166.876 E1.90851
G1 X153.259 Y167.783 E1.99936
G1 X153.155 Y167.918 E2.01504
G1 X152.661 Y168.562 E2.09021
G1 X151.881 Y169.160 E2.18107
G1 X150.974 Y169.536 E2.27191
G1 X150.000 Y169.664 E2.36276
G1 X149.026 Y169.536 E2.45362
G1 X148.275 Y169.225 E2.52878
G1 X148.119 Y169.160 E2.54447
G1 X147.339 Y168.562 E2.63531
G1 X146.741 Y167.783 E2.72617
G1 X146.365 Y166.876 E2.81701
G1 X146.237 Y165.902 E2.90787
G1 X146.365 Y164.928 E2.99872
G1 X146.741 Y164.020 E3.08957
G1 X147.303 Y163.289 E3.17487
G1 X147.793 Y163.694 F2400.000
G1 X148.439 Y163.198 E3.25024 F378.000
G1 X149.192 Y162.886 E3.32562
G1 X149.277 Y162.875 E3.33356
G1 X150.000 Y162.780 E3.40099 F378.000
G1 X150.808 Y162.886 E3.47636
G1 X151.561 Y163.198 E3.55173
G1 X152.207 Y163.694 E3.62710
G1 X152.651 Y164.273 E3.69453
G1 X152.703 Y164.341 E3.70247
G1 X153.015 Y165.094 E3.77784
G1 X153.122 Y165.902 E3.85322
G1 X153.015 Y166.710 E3.92859
G1 X152.736 Y167.383 E3.99601
G1 X152.703 Y167.462 E4.00396
G1 X152.207 Y168.109 E4.07933
G1 X151.561 Y168.605 E4.15470
G1 X150.808 Y168.917 E4.23007
G1 X150.000 Y169.023 E4.30544
G1 X149.277 Y168.928 E4.37287
G1 X149.192 Y168.917 E4.38082
G1 X148.439 Y168.605 E4.45619
G1 X147.793 Y168.109 E4.53156
G1 X147.297 Y167.462 E4.60693
G1 X146.985 Y166.710 E4.68230
G1 X146.878 Y165.902 E4.75767
G1 X146.985 Y165.094 E4.83305
G1 X147.297 Y164.341 E4.90842
G1 X147.756 Y163.742 E4.97824
G1 X149.366 Y162.485 F2400.000
G1 X130.364 Y158.888 F2400.000
G1 X130.086 Y157.142 E5.14169 F540.000
G1 X150.000 Y150.633 E7.07943
G1 X169.914 Y157.142 E9.01716
G1 X169.636 Y158.888 E9.18061
G1 X130.424 Y158.888 E12.80731
G1 X130.907 Y158.252 F2400.000
G1 X130.799 Y157.578 E12.87044 F378.000
G1 X150.000 Y151.302 E14.73879
G1 X169.201 Y157.578 E16.60713
G1 X169.093 Y158.252 E16.67026
G1 X130.967 Y158.252 E20.19663
G1 X130.509 Y158.294 F2400.000
G1 F1800.000 E19.19663
G92 E0
G1 X154.235 Y150.751 F2400.000
G1 E1.00000 F1800.000
G1 X154.235 Y149.249 E1.13891 F540.000
G1 X175.161 Y142.409 E3.17514
G1 X175.161 Y157.591 E4.57931
G1 X154.292 Y150.770 E6.60998
G1 X154.870 Y150.290 F2400.000
G1 X154.870 Y149.710 E6.66363 F378.000
G1 X174.525 Y143.286 E8.57615
G1 X174.525 Y156.714 E9.81820
G1 X154.927 Y150.309 E11.72517
G1 X154.473 Y150.248 F2400.000
G1 X169.914 Y142.858 F2400.000
G1 X150.000 Y149.367 E13.66290 F540.000
G1 X130.086 Y142.858 E15.60063
G1 X130.364 Y141.112 E15.76409
G1 X169.636 Y141.112 E19.39634
G1 X169.904 Y142.798 E19.55424
G1 X169.201 Y142.422 F2400.000
G1 X150.000 Y148.698 E21.42259 F378.000
G1 X130.799 Y142.422 E23.29094
G1 X130.907 Y141.748 E23.35407
G1 X169.093 Y141.748 E26.88598
G1 X169.191 Y142.363 E26.94356
G1 X169.305 Y142.808 F2400.000
G1 F1800.000 E25.94356
G92 E0
G1 X185.829 Y145.068 F2400.000
G1 E1.00000 F1800.000
G1 X186.238 Y145.150 E1.03860 F540.000
G1 X186.407 Y144.740 E1.07955
G1 X187.070 Y143.877 E1.18022
G1 X187.933 Y143.214 E1.28088
G1 X188.939 Y142.798 E1.38155
G1 X190.018 Y142.656 E1.48221
G1 X191.097 Y142.798 E1.58287
G1 X192.102 Y143.214 E1.68354
G1 X192.966 Y143.877 E1.78419
G1 X193.628 Y144.740 E1.88486
G1 X194.045 Y145.746 E1.98553
G1 X194.179 Y146.760 E2.08016
G1 X194.179 Y153.240 E2.67943
G1 X194.045 Y154.254 E2.77407
G1 X193.628 Y155.260 E2.87473
G1 X192.966 Y156.123 E2.97540
G1 X192.102 Y156.786 E3.07606
G1 X191.097 Y157.202 E3.17672
G1 X190.018 Y157.344 E3.27738
G1 X188.939 Y157.202 E3.37805
G1 X187.933 Y156.786 E3.47871
G1 X187.070 Y156.123 E3.57937
G1 X186.407 Y155.260 E3.68004
G1 X186.238 Y154.850 E3.72100
G1 X185.829 Y154.932 E3.75959
G1 X185.829 Y158.888 E4.12546
G1 X176.364 Y158.888 E5.00082
G1 X176.364 Y141.112 E6.64485
G1 X185.829 Y141.112 E7.52021
G1 X185.829 Y145.008 E7.88053
G1 X186.794 Y145.468 F2400.000
G1 X186.963 Y145.061 E7.92128 F378.000
G1 X187.523 Y144.330 E8.00646
G1 X188.254 Y143.770 E8.09164
G1 X189.105 Y143.417 E8.17683
G1 X189.927 Y143.309 E8.25353
G1 X190.018 Y143.297 E8.26201 F378.000
G1 X190.931 Y143.417 E8.34720
G1 X191.782 Y143.770 E8.43238
G1 X192.513 Y144.330 E8.51756
G1 X192.568 Y144.403 E8.52605
G1 X193.073 Y145.061 E8.60275
G1 X193.426 Y145.912 E8.68793
G1 X193.543 Y146.802 E8.77098
G1 X193.543 Y153.198 E9.36254
G1 X193.426 Y154.088 E9.44558
G1 X193.073 Y154.939 E9.53077
G1 X192.568 Y155.597 E9.60746
G1 X192.513 Y155.670 E9.61595
G1 X191.782 Y156.230 E9.70113
G1 X190.931 Y156.583 E9.78632
G1 X190.018 Y156.703 E9.87150
G1 X189.105 Y156.583 E9.95668
G1 X188.254 Y156.230 E10.04187
G1 X187.523 Y155.670 E10.12705
G1 X186.963 Y154.939 E10.21224
G1 X186.610 Y154.088 E10.29742
G1 X186.493 Y153.198 E10.38046
G1 X186.493 Y146.802 E10.97203
G1 X186.610 Y145.912 E11.05507
G1 X186.771 Y145.523 E11.09396
G1 F1800.000 E10.09396
G92 E0
G1 X189.995 Y143.371 F2400.000
G1 X185.193 Y141.748 F2400.000
G1 E1.00000 F1800.000
G1 X185.193 Y158.252 E2.52646 F378.000
G1 X177.000 Y158.252 E3.28424
G1 X177.000 Y141.748 E4.81070
G1 X185.133 Y141.748 E5.56293
G1 X185.593 Y141.748 F2400.000
G1 X194.284 Y135.980 F2400.000
G1 X193.908 Y135.072 E5.65378 F540.000
G1 X193.780 Y134.098 E5.74463
G1 X193.908 Y133.124 E5.83548
G1 X194.284 Y132.217 E5.92633
G1 X194.882 Y131.438 E6.01719
G1 X195.662 Y130.840 E6.10803
G1 X196.569 Y130.464 E6.19888
G1 X197.543 Y130.336 E6.28974
G1 X198.349 Y130.442 E6.36490
G1 X198.517 Y130.464 E6.38059 F540.000
G1 X199.424 Y130.840 E6.47144
G1 X200.204 Y131.438 E6.56230
G1 X200.802 Y132.217 E6.65314
G1 X201.177 Y133.124 E6.74399
G1 X201.306 Y134.098 E6.83484
G1 X201.177 Y135.072 E6.92569
G1 X200.802 Y135.980 E7.01655
G1 X200.204 Y136.759 E7.10739
G1 X199.424 Y137.357 E7.19824
G1 X198.517 Y137.733 E7.28909
G1 X197.543 Y137.861 E7.37995
G1 X196.569 Y137.733 E7.47080
G1 X195.662 Y137.357 E7.56166
G1 X194.882 Y136.759 E7.65250
G1 X194.321 Y136.027 E7.73780
G1 X194.840 Y135.659 F2400.000
G1 X194.528 Y134.906 E7.81317 F378.000
G1 X194.421 Y134.098 E7.88854
G1 X194.528 Y133.290 E7.96391
G1 X194.840 Y132.538 E8.03928
G1 X195.336 Y131.891 E8.11466
G1 X195.982 Y131.395 E8.19003
G1 X196.735 Y131.083 E8.26540
G1 X197.458 Y130.988 E8.33282
G1 X197.543 Y130.977 E8.34077 F378.000
G1 X198.351 Y131.083 E8.41614
G1 X199.104 Y131.395 E8.49152
G1 X199.750 Y131.891 E8.56689
G1 X200.246 Y132.538 E8.64226
G1 X200.558 Y133.290 E8.71763
G1 X200.665 Y134.098 E8.79300
G1 X200.558 Y134.906 E8.86837
G1 X200.246 Y135.659 E8.94374
G1 X199.750 Y136.306 E9.01911
G1 X199.104 Y136.802 E9.09448
G1 X198.351 Y137.114 E9.16986
G1 X197.543 Y137.220 E9.24523
G1 X196.735 Y137.114 E9.32060
G1 X195.982 Y136.802 E9.39597
G1 X195.336 Y136.306 E9.47134
G1 X194.876 Y135.707 E9.54116
G1 F1800.000 E8.54116
G92 E0
G1 X197.461 Y130.902 F2400.000
G1 X198.604 Y143.770 F2400.000
G1 E1.00000 F1800.000
G1 X199.455 Y143.417 E1.08518 F378.000
G1 X200.368 Y143.297 E1.17037
G1 X201.190 Y143.405 E1.24706
G1 X201.281 Y143.417 E1.25555 F378.000
G1 X202.132 Y143.770 E1.34073
G1 X202.862 Y144.330 E1.42592
G1 X203.423 Y145.061 E1.51110
G1 X203.776 Y145.912 E1.59629
G1 X203.893 Y146.802 E1.67933
G1 X203.893 Y153.198 E2.27089
G1 X203.776 Y154.088 E2.35394
G1 X203.423 Y154.939 E2.43912
G1 X202.862 Y155.670 E2.52431
G1 X202.132 Y156.230 E2.60949
G1 X201.281 Y156.583 E2.69467
G1 X200.368 Y156.703 E2.77985
G1 X200.277 Y156.691 E2.78834
G1 X199.455 Y156.583 E2.86504
G1 X198.604 Y156.230 E2.95022
G1 X197.873 Y155.670 E3.03541
G1 X197.312 Y154.939 E3.12059
G1 X196.960 Y154.088 E3.20578
G1 X196.843 Y153.198 E3.28882
G1 X196.843 Y146.802 E3.88038
G1 X196.960 Y145.912 E3.96342
G1 X197.312 Y145.061 E4.04861
G1 X197.873 Y144.330 E4.13379
G1 X198.556 Y143.806 E4.21343
G1 X201.235 Y143.326 F2400.000
G1 F1800.000 E3.21343
G92 E0
