( Made using CamBam - http://www.cambam.co.uk )
( front_back_b 10/13/2014 12:23:17 AM )
( T0 : 0.0 )
G20 G90 G64 G40
G0 Z0.125
( T0 : 0.0 )
T0 M6
( Drill1 )
G17
M3 S1000
G0 X9.9515 Y16.7638
G98
G81 X9.9515 Y16.7638 Z-0.26 R0.125 F10.0
G81 X7.0381 Y15.8189 Z-0.26
G81 X7.4318 Y11.3307 Z-0.26
G81 X9.9515 Z-0.26
G81 X1.91 Y15.214 Z-0.26
G81 X1.75 Y15.0 Z-0.26
G81 X1.25 Z-0.26
G81 X1.093 Y15.214 Z-0.26
G81 Y15.786 Z-0.26
G81 X1.25 Y16.0 Z-0.26
G81 X1.75 Z-0.26
G81 X1.91 Y15.786 Z-0.26
G80
( cutout )
S1000
G0 Z0.125
G0 X6.8435 Y18.25
G0 Z0.0625
G1 F10.0 Z-0.065
G2 F30.0 X6.7032 Y18.169 I-0.0935 J0.0
G2 Y18.331 I0.0468 J0.081
G2 X6.8435 Y18.25 I0.0468 J-0.081
G1 F10.0 Z-0.13
G2 F30.0 X6.7032 Y18.169 I-0.0935 J0.0
G2 Y18.331 I0.0468 J0.081
G2 X6.8435 Y18.25 I0.0468 J-0.081
G1 F10.0 Z-0.195
G2 F30.0 X6.7032 Y18.169 I-0.0935 J0.0
G2 Y18.331 I0.0468 J0.081
G2 X6.8435 Y18.25 I0.0468 J-0.081
G1 F10.0 Z-0.26
G2 F30.0 X6.7032 Y18.169 I-0.0935 J0.0
G2 Y18.331 I0.0468 J0.081
G2 X6.8435 Y18.25 I0.0468 J-0.081
G0 Z0.125
G0 X7.3695 Y16.6871
G0 Z0.0625
G1 F10.0 Z-0.065
G2 F30.0 X7.3719 Y16.6875 I0.0024 J-0.0071
G1 X9.6177
G2 X9.6252 Y16.68 I0.0 J-0.0075
G1 Y16.32
G3 X9.7577 Y16.1875 I0.1325 J0.0
G1 X9.8677
G2 X9.8752 Y16.18 I0.0 J-0.0075
G1 Y11.6645
G2 X9.8677 Y11.657 I-0.0075 J0.0
G1 X7.3719
G2 X7.3644 Y11.6645 I0.0 J0.0075
G1 Y16.68
G2 X7.3695 Y16.6871 I0.0075 J0.0
G1 F10.0 Z-0.13
G2 F30.0 X7.3719 Y16.6875 I0.0024 J-0.0071
G1 X9.6177
G2 X9.6252 Y16.68 I0.0 J-0.0075
G1 Y16.32
G3 X9.7577 Y16.1875 I0.1325 J0.0
G1 X9.8677
G2 X9.8752 Y16.18 I0.0 J-0.0075
G1 Y11.6645
G2 X9.8677 Y11.657 I-0.0075 J0.0
G1 X7.3719
G2 X7.3644 Y11.6645 I0.0 J0.0075
G1 Y16.68
G2 X7.3695 Y16.6871 I0.0075 J0.0
G1 F10.0 Z-0.195
G2 F30.0 X7.3719 Y16.6875 I0.0024 J-0.0071
G1 X9.6177
G2 X9.6252 Y16.68 I0.0 J-0.0075
G1 Y16.32
G3 X9.7577 Y16.1875 I0.1325 J0.0
G1 X9.8677
G2 X9.8752 Y16.18 I0.0 J-0.0075
G1 Y11.6645
G2 X9.8677 Y11.657 I-0.0075 J0.0
G1 X7.3719
G2 X7.3644 Y11.6645 I0.0 J0.0075
G1 Y16.68
G2 X7.3695 Y16.6871 I0.0075 J0.0
G1 F10.0 Z-0.26
G2 F30.0 X7.3719 Y16.6875 I0.0024 J-0.0071
G1 X9.6177
G2 X9.6252 Y16.68 I0.0 J-0.0075
G1 Y16.32
G3 X9.7577 Y16.1875 I0.1325 J0.0
G1 X9.8677
G2 X9.8752 Y16.18 I0.0 J-0.0075
G1 Y11.6645
G2 X9.8677 Y11.657 I-0.0075 J0.0
G1 X7.3719
G2 X7.3644 Y11.6645 I0.0 J0.0075
G1 Y16.68
G2 X7.3695 Y16.6871 I0.0075 J0.0
G0 Z0.125
G0 X8.6881 Y18.1799
G0 Z0.0625
G1 F10.0 Z-0.065
G2 F30.0 X8.7032 Y18.331 I0.0619 J0.0701
G2 X8.8435 Y18.25 I0.0468 J-0.081
G2 X8.7032 Y18.169 I-0.0935 J0.0
G2 X8.6881 Y18.1799 I0.0468 J0.081
G1 F10.0 Z-0.13
G2 F30.0 X8.7032 Y18.331 I0.0619 J0.0701
G2 X8.8435 Y18.25 I0.0468 J-0.081
G2 X8.7032 Y18.169 I-0.0935 J0.0
G2 X8.6881 Y18.1799 I0.0468 J0.081
G1 F10.0 Z-0.195
G2 F30.0 X8.7032 Y18.331 I0.0619 J0.0701
G2 X8.8435 Y18.25 I0.0468 J-0.081
G2 X8.7032 Y18.169 I-0.0935 J0.0
G2 X8.6881 Y18.1799 I0.0468 J0.081
G1 F10.0 Z-0.26
G2 F30.0 X8.7032 Y18.331 I0.0619 J0.0701
G2 X8.8435 Y18.25 I0.0468 J-0.081
G2 X8.7032 Y18.169 I-0.0935 J0.0
G2 X8.6881 Y18.1799 I0.0468 J0.081
G0 Z0.125
G0 X10.6566 Y18.2468
G0 Z0.0625
G1 F10.0 Z-0.065
G2 F30.0 X10.7032 Y18.331 I0.0934 J0.0032
G2 X10.8435 Y18.25 I0.0468 J-0.081
G2 X10.7032 Y18.169 I-0.0935 J0.0
G2 X10.6566 Y18.2468 I0.0468 J0.081
G1 F10.0 Z-0.13
G2 F30.0 X10.7032 Y18.331 I0.0934 J0.0032
G2 X10.8435 Y18.25 I0.0468 J-0.081
G2 X10.7032 Y18.169 I-0.0935 J0.0
G2 X10.6566 Y18.2468 I0.0468 J0.081
G1 F10.0 Z-0.195
G2 F30.0 X10.7032 Y18.331 I0.0934 J0.0032
G2 X10.8435 Y18.25 I0.0468 J-0.081
G2 X10.7032 Y18.169 I-0.0935 J0.0
G2 X10.6566 Y18.2468 I0.0468 J0.081
G1 F10.0 Z-0.26
G2 F30.0 X10.7032 Y18.331 I0.0934 J0.0032
G2 X10.8435 Y18.25 I0.0468 J-0.081
G2 X10.7032 Y18.169 I-0.0935 J0.0
G2 X10.6566 Y18.2468 I0.0468 J0.081
G0 Z0.125
G0 X10.9861 Y15.4258
G0 Z0.0625
G1 F10.0 Z-0.065
G2 F30.0 X11.0369 Y15.3806 I0.0053 J-0.0452
G2 X10.9687 Y15.3412 I-0.0455 J0.0
G2 Y15.42 I0.0228 J0.0394
G2 X10.9861 Y15.4258 I0.0228 J-0.0394
G1 F10.0 Z-0.13
G2 F30.0 X11.0369 Y15.3806 I0.0053 J-0.0452
G2 X10.9687 Y15.3412 I-0.0455 J0.0
G2 Y15.42 I0.0228 J0.0394
G2 X10.9861 Y15.4258 I0.0228 J-0.0394
G1 F10.0 Z-0.195
G2 F30.0 X11.0369 Y15.3806 I0.0053 J-0.0452
G2 X10.9687 Y15.3412 I-0.0455 J0.0
G2 Y15.42 I0.0228 J0.0394
G2 X10.9861 Y15.4258 I0.0228 J-0.0394
G1 F10.0 Z-0.26
G2 F30.0 X11.0369 Y15.3806 I0.0053 J-0.0452
G2 X10.9687 Y15.3412 I-0.0455 J0.0
G2 Y15.42 I0.0228 J0.0394
G2 X10.9861 Y15.4258 I0.0228 J-0.0394
G0 Z0.125
G0 X10.9855 Y14.8522
G0 Z0.0625
G1 F10.0 Z-0.065
G2 F30.0 X11.1573 Y14.6802 I-0.0002 J-0.172
G2 X10.8993 Y14.5312 I-0.172 J0.0
G2 Y14.8291 I0.086 J0.149
G2 X10.9855 Y14.8522 I0.086 J-0.149
G1 F10.0 Z-0.13
G2 F30.0 X11.1573 Y14.6802 I-0.0002 J-0.172
G2 X10.8993 Y14.5312 I-0.172 J0.0
G2 Y14.8291 I0.086 J0.149
G2 X10.9855 Y14.8522 I0.086 J-0.149
G1 F10.0 Z-0.195
G2 F30.0 X11.1573 Y14.6802 I-0.0002 J-0.172
G2 X10.8993 Y14.5312 I-0.172 J0.0
G2 Y14.8291 I0.086 J0.149
G2 X10.9855 Y14.8522 I0.086 J-0.149
G1 F10.0 Z-0.26
G2 F30.0 X11.1573 Y14.6802 I-0.0002 J-0.172
G2 X10.8993 Y14.5312 I-0.172 J0.0
G2 Y14.8291 I0.086 J0.149
G2 X10.9855 Y14.8522 I0.086 J-0.149
G0 Z0.125
G0 X10.9911 Y14.0266
G0 Z0.0625
G1 F10.0 Z-0.065
G2 F30.0 X11.0369 Y13.9811 I0.0003 J-0.0455
G2 X10.9687 Y13.9417 I-0.0455 J0.0
G2 Y14.0205 I0.0227 J0.0394
G2 X10.9911 Y14.0266 I0.0227 J-0.0394
G1 F10.0 Z-0.13
G2 F30.0 X11.0369 Y13.9811 I0.0003 J-0.0455
G2 X10.9687 Y13.9417 I-0.0455 J0.0
G2 Y14.0205 I0.0227 J0.0394
G2 X10.9911 Y14.0266 I0.0227 J-0.0394
G1 F10.0 Z-0.195
G2 F30.0 X11.0369 Y13.9811 I0.0003 J-0.0455
G2 X10.9687 Y13.9417 I-0.0455 J0.0
G2 Y14.0205 I0.0227 J0.0394
G2 X10.9911 Y14.0266 I0.0227 J-0.0394
G1 F10.0 Z-0.26
G2 F30.0 X11.0369 Y13.9811 I0.0003 J-0.0455
G2 X10.9687 Y13.9417 I-0.0455 J0.0
G2 Y14.0205 I0.0227 J0.0394
G2 X10.9911 Y14.0266 I0.0227 J-0.0394
G0 Z0.125
G0 X9.5606 Y10.1247
G0 Z0.0625
G1 F10.0 Z-0.065
G2 F30.0 X9.5911 Y10.081 I-0.016 J-0.0437
G2 X9.5213 Y10.0407 I-0.0465 J0.0
G2 Y10.1213 I0.0233 J0.0403
G2 X9.5606 Y10.1247 I0.0233 J-0.0403
G1 F10.0 Z-0.13
G2 F30.0 X9.5911 Y10.081 I-0.016 J-0.0437
G2 X9.5213 Y10.0407 I-0.0465 J0.0
G2 Y10.1213 I0.0233 J0.0403
G2 X9.5606 Y10.1247 I0.0233 J-0.0403
G1 F10.0 Z-0.195
G2 F30.0 X9.5911 Y10.081 I-0.016 J-0.0437
G2 X9.5213 Y10.0407 I-0.0465 J0.0
G2 Y10.1213 I0.0233 J0.0403
G2 X9.5606 Y10.1247 I0.0233 J-0.0403
G1 F10.0 Z-0.26
G2 F30.0 X9.5911 Y10.081 I-0.016 J-0.0437
G2 X9.5213 Y10.0407 I-0.0465 J0.0
G2 Y10.1213 I0.0233 J0.0403
G2 X9.5606 Y10.1247 I0.0233 J-0.0403
G0 Z0.125
G0 X8.7738 Y10.0834
G0 Z0.0625
G1 F10.0 Z-0.065
G2 F30.0 Y10.081 I-0.0464 J-0.0024
G2 X8.7041 Y10.0407 I-0.0465 J0.0
G2 Y10.1213 I0.0233 J0.0403
G2 X8.7738 Y10.0834 I0.0233 J-0.0403
G1 F10.0 Z-0.13
G2 F30.0 Y10.081 I-0.0464 J-0.0024
G2 X8.7041 Y10.0407 I-0.0465 J0.0
G2 Y10.1213 I0.0233 J0.0403
G2 X8.7738 Y10.0834 I0.0233 J-0.0403
G1 F10.0 Z-0.195
G2 F30.0 Y10.081 I-0.0464 J-0.0024
G2 X8.7041 Y10.0407 I-0.0465 J0.0
G2 Y10.1213 I0.0233 J0.0403
G2 X8.7738 Y10.0834 I0.0233 J-0.0403
G1 F10.0 Z-0.26
G2 F30.0 Y10.081 I-0.0464 J-0.0024
G2 X8.7041 Y10.0407 I-0.0465 J0.0
G2 Y10.1213 I0.0233 J0.0403
G2 X8.7738 Y10.0834 I0.0233 J-0.0403
G0 Z0.125
G0 X8.7292 Y8.9655
G0 Z0.0625
G1 F10.0 Z-0.065
G2 F30.0 X8.7738 Y8.919 I-0.0019 J-0.0465
G2 X8.7041 Y8.8787 I-0.0465 J0.0
G2 Y8.9593 I0.0233 J0.0403
G2 X8.7292 Y8.9655 I0.0233 J-0.0403
G1 F10.0 Z-0.13
G2 F30.0 X8.7738 Y8.919 I-0.0019 J-0.0465
G2 X8.7041 Y8.8787 I-0.0465 J0.0
G2 Y8.9593 I0.0233 J0.0403
G2 X8.7292 Y8.9655 I0.0233 J-0.0403
G1 F10.0 Z-0.195
G2 F30.0 X8.7738 Y8.919 I-0.0019 J-0.0465
G2 X8.7041 Y8.8787 I-0.0465 J0.0
G2 Y8.9593 I0.0233 J0.0403
G2 X8.7292 Y8.9655 I0.0233 J-0.0403
G1 F10.0 Z-0.26
G2 F30.0 X8.7738 Y8.919 I-0.0019 J-0.0465
G2 X8.7041 Y8.8787 I-0.0465 J0.0
G2 Y8.9593 I0.0233 J0.0403
G2 X8.7292 Y8.9655 I0.0233 J-0.0403
G0 Z0.125
G0 X9.4982 Y8.9216
G0 Z0.0625
G1 F10.0 Z-0.065
G2 F30.0 X9.5213 Y8.9593 I0.0464 J-0.0026
G2 X9.5911 Y8.919 I0.0233 J-0.0403
G2 X9.5213 Y8.8787 I-0.0465 J0.0
G2 X9.4982 Y8.9216 I0.0233 J0.0403
G1 F10.0 Z-0.13
G2 F30.0 X9.5213 Y8.9593 I0.0464 J-0.0026
G2 X9.5911 Y8.919 I0.0233 J-0.0403
G2 X9.5213 Y8.8787 I-0.0465 J0.0
G2 X9.4982 Y8.9216 I0.0233 J0.0403
G1 F10.0 Z-0.195
G2 F30.0 X9.5213 Y8.9593 I0.0464 J-0.0026
G2 X9.5911 Y8.919 I0.0233 J-0.0403
G2 X9.5213 Y8.8787 I-0.0465 J0.0
G2 X9.4982 Y8.9216 I0.0233 J0.0403
G1 F10.0 Z-0.26
G2 F30.0 X9.5213 Y8.9593 I0.0464 J-0.0026
G2 X9.5911 Y8.919 I0.0233 J-0.0403
G2 X9.5213 Y8.8787 I-0.0465 J0.0
G2 X9.4982 Y8.9216 I0.0233 J0.0403
G0 Z0.125
G0 X10.9816 Y5.0697
G0 Z0.0625
G1 F10.0 Z-0.065
G2 F30.0 X11.0435 Y5.0272 I0.0164 J-0.0425
G2 X10.9752 Y4.9878 I-0.0455 J0.0
G2 Y5.0666 I0.0228 J0.0394
G2 X10.9816 Y5.0697 I0.0228 J-0.0394
G1 F10.0 Z-0.13
G2 F30.0 X11.0435 Y5.0272 I0.0164 J-0.0425
G2 X10.9752 Y4.9878 I-0.0455 J0.0
G2 Y5.0666 I0.0228 J0.0394
G2 X10.9816 Y5.0697 I0.0228 J-0.0394
G1 F10.0 Z-0.195
G2 F30.0 X11.0435 Y5.0272 I0.0164 J-0.0425
G2 X10.9752 Y4.9878 I-0.0455 J0.0
G2 Y5.0666 I0.0228 J0.0394
G2 X10.9816 Y5.0697 I0.0228 J-0.0394
G1 F10.0 Z-0.26
G2 F30.0 X11.0435 Y5.0272 I0.0164 J-0.0425
G2 X10.9752 Y4.9878 I-0.0455 J0.0
G2 Y5.0666 I0.0228 J0.0394
G2 X10.9816 Y5.0697 I0.0228 J-0.0394
G0 Z0.125
G0 X10.9895 Y4.4987
G0 Z0.0625
G1 F10.0 Z-0.065
G2 F30.0 X11.1638 Y4.3268 I0.0024 J-0.172
G2 X10.9058 Y4.1778 I-0.172 J0.0
G2 Y4.4757 I0.086 J0.149
G2 X10.9895 Y4.4987 I0.086 J-0.149
G1 F10.0 Z-0.13
G2 F30.0 X11.1638 Y4.3268 I0.0024 J-0.172
G2 X10.9058 Y4.1778 I-0.172 J0.0
G2 Y4.4757 I0.086 J0.149
G2 X10.9895 Y4.4987 I0.086 J-0.149
G1 F10.0 Z-0.195
G2 F30.0 X11.1638 Y4.3268 I0.0024 J-0.172
G2 X10.9058 Y4.1778 I-0.172 J0.0
G2 Y4.4757 I0.086 J0.149
G2 X10.9895 Y4.4987 I0.086 J-0.149
G1 F10.0 Z-0.26
G2 F30.0 X11.1638 Y4.3268 I0.0024 J-0.172
G2 X10.9058 Y4.1778 I-0.172 J0.0
G2 Y4.4757 I0.086 J0.149
G2 X10.9895 Y4.4987 I0.086 J-0.149
G0 Z0.125
G0 X10.9976 Y3.6695
G0 Z0.0625
G1 F10.0 Z-0.065
G2 F30.0 X11.0398 Y3.6277 I0.0004 J-0.0418
G2 X10.9771 Y3.5915 I-0.0418 J0.0
G2 Y3.6639 I0.0209 J0.0362
G2 X10.9976 Y3.6695 I0.0209 J-0.0362
G1 F10.0 Z-0.13
G2 F30.0 X11.0398 Y3.6277 I0.0004 J-0.0418
G2 X10.9771 Y3.5915 I-0.0418 J0.0
G2 Y3.6639 I0.0209 J0.0362
G2 X10.9976 Y3.6695 I0.0209 J-0.0362
G1 F10.0 Z-0.195
G2 F30.0 X11.0398 Y3.6277 I0.0004 J-0.0418
G2 X10.9771 Y3.5915 I-0.0418 J0.0
G2 Y3.6639 I0.0209 J0.0362
G2 X10.9976 Y3.6695 I0.0209 J-0.0362
G1 F10.0 Z-0.26
G2 F30.0 X11.0398 Y3.6277 I0.0004 J-0.0418
G2 X10.9771 Y3.5915 I-0.0418 J0.0
G2 Y3.6639 I0.0209 J0.0362
G2 X10.9976 Y3.6695 I0.0209 J-0.0362
G0 Z0.125
G0 X10.7579 Y0.8432
G0 Z0.0625
G1 F10.0 Z-0.065
G2 F30.0 X10.8435 Y0.75 I-0.0079 J-0.0932
G2 X10.7032 Y0.669 I-0.0935 J0.0
G2 Y0.831 I0.0467 J0.081
G2 X10.7579 Y0.8432 I0.0467 J-0.081
G1 F10.0 Z-0.13
G2 F30.0 X10.8435 Y0.75 I-0.0079 J-0.0932
G2 X10.7032 Y0.669 I-0.0935 J0.0
G2 Y0.831 I0.0467 J0.081
G2 X10.7579 Y0.8432 I0.0467 J-0.081
G1 F10.0 Z-0.195
G2 F30.0 X10.8435 Y0.75 I-0.0079 J-0.0932
G2 X10.7032 Y0.669 I-0.0935 J0.0
G2 Y0.831 I0.0467 J0.081
G2 X10.7579 Y0.8432 I0.0467 J-0.081
G1 F10.0 Z-0.26
G2 F30.0 X10.8435 Y0.75 I-0.0079 J-0.0932
G2 X10.7032 Y0.669 I-0.0935 J0.0
G2 Y0.831 I0.0467 J0.081
G2 X10.7579 Y0.8432 I0.0467 J-0.081
G0 Z0.125
G0 X8.8434 Y0.7543
G0 Z0.0625
G1 F10.0 Z-0.065
G2 F30.0 X8.8435 Y0.75 I-0.0934 J-0.0043
G2 X8.7032 Y0.669 I-0.0935 J0.0
G2 Y0.831 I0.0468 J0.081
G2 X8.8434 Y0.7543 I0.0468 J-0.081
G1 F10.0 Z-0.13
G2 F30.0 X8.8435 Y0.75 I-0.0934 J-0.0043
G2 X8.7032 Y0.669 I-0.0935 J0.0
G2 Y0.831 I0.0468 J0.081
G2 X8.8434 Y0.7543 I0.0468 J-0.081
G1 F10.0 Z-0.195
G2 F30.0 X8.8435 Y0.75 I-0.0934 J-0.0043
G2 X8.7032 Y0.669 I-0.0935 J0.0
G2 Y0.831 I0.0468 J0.081
G2 X8.8434 Y0.7543 I0.0468 J-0.081
G1 F10.0 Z-0.26
G2 F30.0 X8.8435 Y0.75 I-0.0934 J-0.0043
G2 X8.7032 Y0.669 I-0.0935 J0.0
G2 Y0.831 I0.0468 J0.081
G2 X8.8434 Y0.7543 I0.0468 J-0.081
G0 Z0.125
G0 X6.8435 Y0.7502
G0 Z0.0625
G1 F10.0 Z-0.065
G2 F30.0 Y0.75 I-0.0935 J-0.0002
G2 X6.7032 Y0.669 I-0.0935 J0.0
G2 Y0.831 I0.0468 J0.081
G2 X6.8435 Y0.7502 I0.0468 J-0.081
G1 F10.0 Z-0.13
G2 F30.0 Y0.75 I-0.0935 J-0.0002
G2 X6.7032 Y0.669 I-0.0935 J0.0
G2 Y0.831 I0.0468 J0.081
G2 X6.8435 Y0.7502 I0.0468 J-0.081
G1 F10.0 Z-0.195
G2 F30.0 Y0.75 I-0.0935 J-0.0002
G2 X6.7032 Y0.669 I-0.0935 J0.0
G2 Y0.831 I0.0468 J0.081
G2 X6.8435 Y0.7502 I0.0468 J-0.081
G1 F10.0 Z-0.26
G2 F30.0 Y0.75 I-0.0935 J-0.0002
G2 X6.7032 Y0.669 I-0.0935 J0.0
G2 Y0.831 I0.0468 J0.081
G2 X6.8435 Y0.7502 I0.0468 J-0.081
G0 Z0.125
G0 X4.8435 Y0.75
G0 Z0.0625
G1 F10.0 Z-0.065
G2 F30.0 X4.7032 Y0.669 I-0.0935 J0.0
G2 Y0.831 I0.0468 J0.081
G2 X4.8435 Y0.75 I0.0468 J-0.081
G1 F10.0 Z-0.13
G2 F30.0 X4.7032 Y0.669 I-0.0935 J0.0
G2 Y0.831 I0.0468 J0.081
G2 X4.8435 Y0.75 I0.0468 J-0.081
G1 F10.0 Z-0.195
G2 F30.0 X4.7032 Y0.669 I-0.0935 J0.0
G2 Y0.831 I0.0468 J0.081
G2 X4.8435 Y0.75 I0.0468 J-0.081
G1 F10.0 Z-0.26
G2 F30.0 X4.7032 Y0.669 I-0.0935 J0.0
G2 Y0.831 I0.0468 J0.081
G2 X4.8435 Y0.75 I0.0468 J-0.081
G0 Z0.125
G0 X3.0645
G0 Z0.0625
G1 F10.0 Z-0.065
G2 F30.0 X2.9242 Y0.669 I-0.0935 J0.0
G2 Y0.831 I0.0468 J0.081
G2 X3.0645 Y0.75 I0.0468 J-0.081
G1 F10.0 Z-0.13
G2 F30.0 X2.9242 Y0.669 I-0.0935 J0.0
G2 Y0.831 I0.0468 J0.081
G2 X3.0645 Y0.75 I0.0468 J-0.081
G1 F10.0 Z-0.195
G2 F30.0 X2.9242 Y0.669 I-0.0935 J0.0
G2 Y0.831 I0.0468 J0.081
G2 X3.0645 Y0.75 I0.0468 J-0.081
G1 F10.0 Z-0.26
G2 F30.0 X2.9242 Y0.669 I-0.0935 J0.0
G2 Y0.831 I0.0468 J0.081
G2 X3.0645 Y0.75 I0.0468 J-0.081
G0 Z0.125
G0 X0.9367
G0 Z0.0625
G1 F10.0 Z-0.065
G2 F30.0 X0.7964 Y0.669 I-0.0935 J0.0
G2 Y0.831 I0.0468 J0.081
G2 X0.9367 Y0.75 I0.0468 J-0.081
G1 F10.0 Z-0.13
G2 F30.0 X0.7964 Y0.669 I-0.0935 J0.0
G2 Y0.831 I0.0468 J0.081
G2 X0.9367 Y0.75 I0.0468 J-0.081
G1 F10.0 Z-0.195
G2 F30.0 X0.7964 Y0.669 I-0.0935 J0.0
G2 Y0.831 I0.0468 J0.081
G2 X0.9367 Y0.75 I0.0468 J-0.081
G1 F10.0 Z-0.26
G2 F30.0 X0.7964 Y0.669 I-0.0935 J0.0
G2 Y0.831 I0.0468 J0.081
G2 X0.9367 Y0.75 I0.0468 J-0.081
G0 Z0.125
G0 X4.9542 Y3.6007
G0 Z0.0625
G1 F10.0 Z-0.065
G2 F30.0 X4.9686 Y3.6664 I0.0371 J0.0263
G2 X5.0368 Y3.627 I0.0228 J-0.0394
G2 X4.9686 Y3.5876 I-0.0455 J0.0
G2 X4.9542 Y3.6007 I0.0228 J0.0394
G1 F10.0 Z-0.13
G2 F30.0 X4.9686 Y3.6664 I0.0371 J0.0263
G2 X5.0368 Y3.627 I0.0228 J-0.0394
G2 X4.9686 Y3.5876 I-0.0455 J0.0
G2 X4.9542 Y3.6007 I0.0228 J0.0394
G1 F10.0 Z-0.195
G2 F30.0 X4.9686 Y3.6664 I0.0371 J0.0263
G2 X5.0368 Y3.627 I0.0228 J-0.0394
G2 X4.9686 Y3.5876 I-0.0455 J0.0
G2 X4.9542 Y3.6007 I0.0228 J0.0394
G1 F10.0 Z-0.26
G2 F30.0 X4.9686 Y3.6664 I0.0371 J0.0263
G2 X5.0368 Y3.627 I0.0228 J-0.0394
G2 X4.9686 Y3.5876 I-0.0455 J0.0
G2 X4.9542 Y3.6007 I0.0228 J0.0394
G0 Z0.125
G0 X4.9828 Y4.1533
G0 Z0.0625
G1 F10.0 Z-0.065
G2 F30.0 X4.905 Y4.1763 I0.009 J0.1735
G2 Y4.4772 I0.0869 J0.1504
G2 X5.1655 Y4.3268 I0.0869 J-0.1504
G2 X4.9828 Y4.1533 I-0.1737 J0.0
G1 F10.0 Z-0.13
G2 F30.0 X4.905 Y4.1763 I0.009 J0.1735
G2 Y4.4772 I0.0869 J0.1504
G2 X5.1655 Y4.3268 I0.0869 J-0.1504
G2 X4.9828 Y4.1533 I-0.1737 J0.0
G1 F10.0 Z-0.195
G2 F30.0 X4.905 Y4.1763 I0.009 J0.1735
G2 Y4.4772 I0.0869 J0.1504
G2 X5.1655 Y4.3268 I0.0869 J-0.1504
G2 X4.9828 Y4.1533 I-0.1737 J0.0
G1 F10.0 Z-0.26
G2 F30.0 X4.905 Y4.1763 I0.009 J0.1735
G2 Y4.4772 I0.0869 J0.1504
G2 X5.1655 Y4.3268 I0.0869 J-0.1504
G2 X4.9828 Y4.1533 I-0.1737 J0.0
G0 Z0.125
G0 X4.9918 Y4.981
G0 Z0.0625
G1 F10.0 Z-0.065
G2 F30.0 X4.9696 Y4.9871 I0.0005 J0.0455
G2 Y5.0659 I0.0227 J0.0394
G2 X5.0378 Y5.0265 I0.0227 J-0.0394
G2 X4.9918 Y4.981 I-0.0455 J0.0
G1 F10.0 Z-0.13
G2 F30.0 X4.9696 Y4.9871 I0.0005 J0.0455
G2 Y5.0659 I0.0227 J0.0394
G2 X5.0378 Y5.0265 I0.0227 J-0.0394
G2 X4.9918 Y4.981 I-0.0455 J0.0
G1 F10.0 Z-0.195
G2 F30.0 X4.9696 Y4.9871 I0.0005 J0.0455
G2 Y5.0659 I0.0227 J0.0394
G2 X5.0378 Y5.0265 I0.0227 J-0.0394
G2 X4.9918 Y4.981 I-0.0455 J0.0
G1 F10.0 Z-0.26
G2 F30.0 X4.9696 Y4.9871 I0.0005 J0.0455
G2 Y5.0659 I0.0227 J0.0394
G2 X5.0378 Y5.0265 I0.0227 J-0.0394
G2 X4.9918 Y4.981 I-0.0455 J0.0
G0 Z0.125
G0 X5.1236 Y9.2886
G0 Z0.0625
G1 F10.0 Z-0.065
G2 F30.0 X5.1017 Y9.2948 I0.0014 J0.0465
G2 Y9.3753 I0.0233 J0.0403
G2 X5.1715 Y9.3351 I0.0233 J-0.0403
G2 X5.1236 Y9.2886 I-0.0465 J0.0
G1 F10.0 Z-0.13
G2 F30.0 X5.1017 Y9.2948 I0.0014 J0.0465
G2 Y9.3753 I0.0233 J0.0403
G2 X5.1715 Y9.3351 I0.0233 J-0.0403
G2 X5.1236 Y9.2886 I-0.0465 J0.0
G1 F10.0 Z-0.195
G2 F30.0 X5.1017 Y9.2948 I0.0014 J0.0465
G2 Y9.3753 I0.0233 J0.0403
G2 X5.1715 Y9.3351 I0.0233 J-0.0403
G2 X5.1236 Y9.2886 I-0.0465 J0.0
G1 F10.0 Z-0.26
G2 F30.0 X5.1017 Y9.2948 I0.0014 J0.0465
G2 Y9.3753 I0.0233 J0.0403
G2 X5.1715 Y9.3351 I0.0233 J-0.0403
G2 X5.1236 Y9.2886 I-0.0465 J0.0
G0 Z0.125
G0 X4.267 Y9.3327
G0 Z0.0625
G1 F10.0 Z-0.065
G2 F30.0 X4.1987 Y9.2956 I-0.0455 J0.0023
G2 Y9.3745 I0.0228 J0.0395
G2 X4.267 Y9.3351 I0.0228 J-0.0395
G2 Y9.3327 I-0.0456 J0.0
G1 F10.0 Z-0.13
G2 F30.0 X4.1987 Y9.2956 I-0.0455 J0.0023
G2 Y9.3745 I0.0228 J0.0395
G2 X4.267 Y9.3351 I0.0228 J-0.0395
G2 Y9.3327 I-0.0456 J0.0
G1 F10.0 Z-0.195
G2 F30.0 X4.1987 Y9.2956 I-0.0455 J0.0023
G2 Y9.3745 I0.0228 J0.0395
G2 X4.267 Y9.3351 I0.0228 J-0.0395
G2 Y9.3327 I-0.0456 J0.0
G1 F10.0 Z-0.26
G2 F30.0 X4.1987 Y9.2956 I-0.0455 J0.0023
G2 Y9.3745 I0.0228 J0.0395
G2 X4.267 Y9.3351 I0.0228 J-0.0395
G2 Y9.3327 I-0.0456 J0.0
G0 Z0.125
G0 X4.2229 Y10.7886
G0 Z0.0625
G1 F10.0 Z-0.065
G2 F30.0 X4.1982 Y10.7948 I-0.0014 J0.0465
G2 Y10.8753 I0.0233 J0.0403
G2 X4.268 Y10.8351 I0.0233 J-0.0403
G2 X4.2229 Y10.7886 I-0.0465 J0.0
G1 F10.0 Z-0.13
G2 F30.0 X4.1982 Y10.7948 I-0.0014 J0.0465
G2 Y10.8753 I0.0233 J0.0403
G2 X4.268 Y10.8351 I0.0233 J-0.0403
G2 X4.2229 Y10.7886 I-0.0465 J0.0
G1 F10.0 Z-0.195
G2 F30.0 X4.1982 Y10.7948 I-0.0014 J0.0465
G2 Y10.8753 I0.0233 J0.0403
G2 X4.268 Y10.8351 I0.0233 J-0.0403
G2 X4.2229 Y10.7886 I-0.0465 J0.0
G1 F10.0 Z-0.26
G2 F30.0 X4.1982 Y10.7948 I-0.0014 J0.0465
G2 Y10.8753 I0.0233 J0.0403
G2 X4.268 Y10.8351 I0.0233 J-0.0403
G2 X4.2229 Y10.7886 I-0.0465 J0.0
G0 Z0.125
G0 X5.0794 Y10.8327
G0 Z0.0625
G1 F10.0 Z-0.065
G2 F30.0 X5.1022 Y10.8746 I0.0456 J0.0024
G2 X5.1707 Y10.8351 I0.0228 J-0.0396
G2 X5.1022 Y10.7955 I-0.0457 J0.0
G2 X5.0794 Y10.8327 I0.0228 J0.0396
G1 F10.0 Z-0.13
G2 F30.0 X5.1022 Y10.8746 I0.0456 J0.0024
G2 X5.1707 Y10.8351 I0.0228 J-0.0396
G2 X5.1022 Y10.7955 I-0.0457 J0.0
G2 X5.0794 Y10.8327 I0.0228 J0.0396
G1 F10.0 Z-0.195
G2 F30.0 X5.1022 Y10.8746 I0.0456 J0.0024
G2 X5.1707 Y10.8351 I0.0228 J-0.0396
G2 X5.1022 Y10.7955 I-0.0457 J0.0
G2 X5.0794 Y10.8327 I0.0228 J0.0396
G1 F10.0 Z-0.26
G2 F30.0 X5.1022 Y10.8746 I0.0456 J0.0024
G2 X5.1707 Y10.8351 I0.0228 J-0.0396
G2 X5.1022 Y10.7955 I-0.0457 J0.0
G2 X5.0794 Y10.8327 I0.0228 J0.0396
G0 Z0.125
G0 X4.9861 Y13.9349
G0 Z0.0625
G1 F10.0 Z-0.065
G2 F30.0 X4.962 Y13.941 I-0.0014 J0.0455
G2 Y14.0198 I0.0227 J0.0394
G2 X5.0303 Y13.9804 I0.0227 J-0.0394
G2 X4.9861 Y13.9349 I-0.0455 J0.0
G1 F10.0 Z-0.13
G2 F30.0 X4.962 Y13.941 I-0.0014 J0.0455
G2 Y14.0198 I0.0227 J0.0394
G2 X5.0303 Y13.9804 I0.0227 J-0.0394
G2 X4.9861 Y13.9349 I-0.0455 J0.0
G1 F10.0 Z-0.195
G2 F30.0 X4.962 Y13.941 I-0.0014 J0.0455
G2 Y14.0198 I0.0227 J0.0394
G2 X5.0303 Y13.9804 I0.0227 J-0.0394
G2 X4.9861 Y13.9349 I-0.0455 J0.0
G1 F10.0 Z-0.26
G2 F30.0 X4.962 Y13.941 I-0.0014 J0.0455
G2 Y14.0198 I0.0227 J0.0394
G2 X5.0303 Y13.9804 I0.0227 J-0.0394
G2 X4.9861 Y13.9349 I-0.0455 J0.0
G0 Z0.125
G0 X4.9855 Y14.5072
G0 Z0.0625
G1 F10.0 Z-0.065
G2 F30.0 X4.8988 Y14.5304 I-0.0002 J0.173
G2 Y14.83 I0.0865 J0.1498
G2 X5.1582 Y14.6802 I0.0865 J-0.1498
G2 X4.9855 Y14.5072 I-0.173 J0.0
G1 F10.0 Z-0.13
G2 F30.0 X4.8988 Y14.5304 I-0.0002 J0.173
G2 Y14.83 I0.0865 J0.1498
G2 X5.1582 Y14.6802 I0.0865 J-0.1498
G2 X4.9855 Y14.5072 I-0.173 J0.0
G1 F10.0 Z-0.195
G2 F30.0 X4.8988 Y14.5304 I-0.0002 J0.173
G2 Y14.83 I0.0865 J0.1498
G2 X5.1582 Y14.6802 I0.0865 J-0.1498
G2 X4.9855 Y14.5072 I-0.173 J0.0
G1 F10.0 Z-0.26
G2 F30.0 X4.8988 Y14.5304 I-0.0002 J0.173
G2 Y14.83 I0.0865 J0.1498
G2 X5.1582 Y14.6802 I0.0865 J-0.1498
G2 X4.9855 Y14.5072 I-0.173 J0.0
G0 Z0.125
G0 X4.9858 Y15.3344
G0 Z0.0625
G1 F10.0 Z-0.065
G2 F30.0 X4.963 Y15.3405 I0.0 J0.0455
G2 Y15.4193 I0.0227 J0.0394
G2 X5.0313 Y15.3799 I0.0227 J-0.0394
G2 X4.9858 Y15.3344 I-0.0455 J0.0
G1 F10.0 Z-0.13
G2 F30.0 X4.963 Y15.3405 I0.0 J0.0455
G2 Y15.4193 I0.0227 J0.0394
G2 X5.0313 Y15.3799 I0.0227 J-0.0394
G2 X4.9858 Y15.3344 I-0.0455 J0.0
G1 F10.0 Z-0.195
G2 F30.0 X4.963 Y15.3405 I0.0 J0.0455
G2 Y15.4193 I0.0227 J0.0394
G2 X5.0313 Y15.3799 I0.0227 J-0.0394
G2 X4.9858 Y15.3344 I-0.0455 J0.0
G1 F10.0 Z-0.26
G2 F30.0 X4.963 Y15.3405 I0.0 J0.0455
G2 Y15.4193 I0.0227 J0.0394
G2 X5.0313 Y15.3799 I0.0227 J-0.0394
G2 X4.9858 Y15.3344 I-0.0455 J0.0
G0 Z0.125
G0 X4.7575 Y18.1568
G0 Z0.0625
G1 F10.0 Z-0.065
G2 F30.0 X4.7032 Y18.169 I-0.0075 J0.0932
G2 Y18.331 I0.0468 J0.081
G2 X4.8435 Y18.25 I0.0468 J-0.081
G2 X4.7575 Y18.1568 I-0.0935 J0.0
G1 F10.0 Z-0.13
G2 F30.0 X4.7032 Y18.169 I-0.0075 J0.0932
G2 Y18.331 I0.0468 J0.081
G2 X4.8435 Y18.25 I0.0468 J-0.081
G2 X4.7575 Y18.1568 I-0.0935 J0.0
G1 F10.0 Z-0.195
G2 F30.0 X4.7032 Y18.169 I-0.0075 J0.0932
G2 Y18.331 I0.0468 J0.081
G2 X4.8435 Y18.25 I0.0468 J-0.081
G2 X4.7575 Y18.1568 I-0.0935 J0.0
G1 F10.0 Z-0.26
G2 F30.0 X4.7032 Y18.169 I-0.0075 J0.0932
G2 Y18.331 I0.0468 J0.081
G2 X4.8435 Y18.25 I0.0468 J-0.081
G2 X4.7575 Y18.1568 I-0.0935 J0.0
G0 Z0.125
G0 X3.0643 Y18.2451
G0 Z0.0625
G1 F10.0 Z-0.065
G2 F30.0 X2.9242 Y18.169 I-0.0934 J0.0049
G2 Y18.331 I0.0468 J0.081
G2 X3.0645 Y18.25 I0.0467 J-0.081
G2 X3.0643 Y18.2451 I-0.0935 J0.0
G1 F10.0 Z-0.13
G2 F30.0 X2.9242 Y18.169 I-0.0934 J0.0049
G2 Y18.331 I0.0468 J0.081
G2 X3.0645 Y18.25 I0.0467 J-0.081
G2 X3.0643 Y18.2451 I-0.0935 J0.0
G1 F10.0 Z-0.195
G2 F30.0 X2.9242 Y18.169 I-0.0934 J0.0049
G2 Y18.331 I0.0468 J0.081
G2 X3.0645 Y18.25 I0.0467 J-0.081
G2 X3.0643 Y18.2451 I-0.0935 J0.0
G1 F10.0 Z-0.26
G2 F30.0 X2.9242 Y18.169 I-0.0934 J0.0049
G2 Y18.331 I0.0468 J0.081
G2 X3.0645 Y18.25 I0.0467 J-0.081
G2 X3.0643 Y18.2451 I-0.0935 J0.0
G0 Z0.125
G0 X0.8171 Y18.2498
G0 Z0.0625
G1 F10.0 Z-0.065
G2 F30.0 X0.6768 Y18.169 I-0.0935 J0.0002
G2 Y18.331 I0.0468 J0.081
G2 X0.8171 Y18.25 I0.0468 J-0.081
G2 Y18.2498 I-0.0935 J0.0
G1 F10.0 Z-0.13
G2 F30.0 X0.6768 Y18.169 I-0.0935 J0.0002
G2 Y18.331 I0.0468 J0.081
G2 X0.8171 Y18.25 I0.0468 J-0.081
G2 Y18.2498 I-0.0935 J0.0
G1 F10.0 Z-0.195
G2 F30.0 X0.6768 Y18.169 I-0.0935 J0.0002
G2 Y18.331 I0.0468 J0.081
G2 X0.8171 Y18.25 I0.0468 J-0.081
G2 Y18.2498 I-0.0935 J0.0
G1 F10.0 Z-0.26
G2 F30.0 X0.6768 Y18.169 I-0.0935 J0.0002
G2 Y18.331 I0.0468 J0.081
G2 X0.8171 Y18.25 I0.0468 J-0.081
G2 Y18.2498 I-0.0935 J0.0
G0 Z0.125
G0 X1.1555 Y15.7235
G0 Z0.0625
G1 F10.0 Z-0.065
G1 F30.0 X1.8475
G1 Y15.2765
G1 X1.1555
G1 Y15.7235
G1 F10.0 Z-0.13
G1 F30.0 X1.8475
G1 Y15.2765
G1 X1.1555
G1 Y15.7235
G1 F10.0 Z-0.195
G1 F30.0 X1.8475
G1 Y15.2765
G1 X1.1555
G1 Y15.7235
G1 F10.0 Z-0.26
G1 F30.0 X1.8475
G1 Y15.2765
G1 X1.1555
G1 Y15.7235
( outline )
S1000
G0 Z0.125
G0 X5.9375 Y1.5
G0 Z0.0625
G1 F10.0 Z-0.065
G1 F30.0 Y0.0
G3 X6.0 Y-0.0625 I0.0625 J0.0
G1 X11.5
G3 X11.5625 Y0.0 I0.0 J0.0625
G1 Y19.0
G3 X11.5 Y19.0625 I-0.0625 J0.0
G1 X6.0
G3 X5.9375 Y19.0 I0.0 J-0.0625
G1 Y17.5
G3 X5.9558 Y17.4558 I0.0625 J0.0
G1 X6.4375 Y16.9741
G1 Y2.0259
G1 X5.9558 Y1.5442
G3 X5.9375 Y1.5 I0.0442 J-0.0442
G1 F10.0 Z-0.13
G1 F30.0 Y0.0
G3 X6.0 Y-0.0625 I0.0625 J0.0
G1 X11.5
G3 X11.5625 Y0.0 I0.0 J0.0625
G1 Y19.0
G3 X11.5 Y19.0625 I-0.0625 J0.0
G1 X6.0
G3 X5.9375 Y19.0 I0.0 J-0.0625
G1 Y17.5
G3 X5.9558 Y17.4558 I0.0625 J0.0
G1 X6.4375 Y16.9741
G1 Y2.0259
G1 X5.9558 Y1.5442
G3 X5.9375 Y1.5 I0.0442 J-0.0442
G1 F10.0 Z-0.195
G1 F30.0 Y0.0
G3 X6.0 Y-0.0625 I0.0625 J0.0
G1 X11.5
G3 X11.5625 Y0.0 I0.0 J0.0625
G1 Y19.0
G3 X11.5 Y19.0625 I-0.0625 J0.0
G1 X6.0
G3 X5.9375 Y19.0 I0.0 J-0.0625
G1 Y17.5
G3 X5.9558 Y17.4558 I0.0625 J0.0
G1 X6.4375 Y16.9741
G1 Y2.0259
G1 X5.9558 Y1.5442
G3 X5.9375 Y1.5 I0.0442 J-0.0442
G1 F10.0 Z-0.26
G1 F30.0 Y0.0
G3 X6.0 Y-0.0625 I0.0625 J0.0
G1 X11.5
G3 X11.5625 Y0.0 I0.0 J0.0625
G1 Y19.0
G3 X11.5 Y19.0625 I-0.0625 J0.0
G1 X6.0
G3 X5.9375 Y19.0 I0.0 J-0.0625
G1 Y17.5
G3 X5.9558 Y17.4558 I0.0625 J0.0
G1 X6.4375 Y16.9741
G1 Y2.0259
G1 X5.9558 Y1.5442
G3 X5.9375 Y1.5 I0.0442 J-0.0442
G0 Z0.125
G0 X5.5625
G0 Z0.0625
G1 F10.0 Z-0.065
G1 F30.0 Y19.0
G3 X5.5 Y19.0625 I-0.0625 J0.0
G1 X0.0
G3 X-0.0625 Y19.0 I0.0 J-0.0625
G1 Y17.5
G3 X-0.0442 Y17.4558 I0.0625 J0.0
G1 X0.4375 Y16.9741
G1 Y2.0259
G1 X-0.0442 Y1.5442
G3 X-0.0625 Y1.5 I0.0442 J-0.0442
G1 Y0.0
G3 X0.0 Y-0.0625 I0.0625 J0.0
G1 X5.5
G3 X5.5625 Y0.0 I0.0 J0.0625
G1 Y1.5
G1 F10.0 Z-0.13
G1 F30.0 Y19.0
G3 X5.5 Y19.0625 I-0.0625 J0.0
G1 X0.0
G3 X-0.0625 Y19.0 I0.0 J-0.0625
G1 Y17.5
G3 X-0.0442 Y17.4558 I0.0625 J0.0
G1 X0.4375 Y16.9741
G1 Y2.0259
G1 X-0.0442 Y1.5442
G3 X-0.0625 Y1.5 I0.0442 J-0.0442
G1 Y0.0
G3 X0.0 Y-0.0625 I0.0625 J0.0
G1 X5.5
G3 X5.5625 Y0.0 I0.0 J0.0625
G1 Y1.5
G1 F10.0 Z-0.195
G1 F30.0 Y19.0
G3 X5.5 Y19.0625 I-0.0625 J0.0
G1 X0.0
G3 X-0.0625 Y19.0 I0.0 J-0.0625
G1 Y17.5
G3 X-0.0442 Y17.4558 I0.0625 J0.0
G1 X0.4375 Y16.9741
G1 Y2.0259
G1 X-0.0442 Y1.5442
G3 X-0.0625 Y1.5 I0.0442 J-0.0442
G1 Y0.0
G3 X0.0 Y-0.0625 I0.0625 J0.0
G1 X5.5
G3 X5.5625 Y0.0 I0.0 J0.0625
G1 Y1.5
G1 F10.0 Z-0.26
G1 F30.0 Y19.0
G3 X5.5 Y19.0625 I-0.0625 J0.0
G1 X0.0
G3 X-0.0625 Y19.0 I0.0 J-0.0625
G1 Y17.5
G3 X-0.0442 Y17.4558 I0.0625 J0.0
G1 X0.4375 Y16.9741
G1 Y2.0259
G1 X-0.0442 Y1.5442
G3 X-0.0625 Y1.5 I0.0442 J-0.0442
G1 Y0.0
G3 X0.0 Y-0.0625 I0.0625 J0.0
G1 X5.5
G3 X5.5625 Y0.0 I0.0 J0.0625
G1 Y1.5
G0 Z0.125
M5
M30
