( Made using CamBam - http://www.cambam.co.uk )
( fron_back_panels 10/12/2014 9:52:45 PM )
( T0 : 0.125 )
G20 G90 G64 G40
G0 Z0.125
( T0 : 0.125 )
T0 M6
( cutout )
G17
M3 S1000
G0 X0.8435 Y2.971
G0 Z0.0625
G1 F10.0 Z-0.065
G2 F30.0 X0.7032 Y2.89 I-0.0935 J0.0
G2 Y3.0519 I0.0468 J0.081
G2 X0.8435 Y2.971 I0.0468 J-0.081
G1 F10.0 Z-0.13
G2 F30.0 X0.7032 Y2.89 I-0.0935 J0.0
G2 Y3.0519 I0.0468 J0.081
G2 X0.8435 Y2.971 I0.0468 J-0.081
G1 F10.0 Z-0.195
G2 F30.0 X0.7032 Y2.89 I-0.0935 J0.0
G2 Y3.0519 I0.0468 J0.081
G2 X0.8435 Y2.971 I0.0468 J-0.081
G1 F10.0 Z-0.26
G2 F30.0 X0.7032 Y2.89 I-0.0935 J0.0
G2 Y3.0519 I0.0468 J0.081
G2 X0.8435 Y2.971 I0.0468 J-0.081
G0 Z0.125
G0 X0.7549 Y4.6566
G0 Z0.0625
G1 F10.0 Z-0.065
G2 F30.0 X0.7032 Y4.669 I-0.0049 J0.0934
G2 Y4.831 I0.0468 J0.081
G2 X0.8435 Y4.75 I0.0468 J-0.081
G2 X0.7549 Y4.6566 I-0.0935 J0.0
G1 F10.0 Z-0.13
G2 F30.0 X0.7032 Y4.669 I-0.0049 J0.0934
G2 Y4.831 I0.0468 J0.081
G2 X0.8435 Y4.75 I0.0468 J-0.081
G2 X0.7549 Y4.6566 I-0.0935 J0.0
G1 F10.0 Z-0.195
G2 F30.0 X0.7032 Y4.669 I-0.0049 J0.0934
G2 Y4.831 I0.0468 J0.081
G2 X0.8435 Y4.75 I0.0468 J-0.081
G2 X0.7549 Y4.6566 I-0.0935 J0.0
G1 F10.0 Z-0.26
G2 F30.0 X0.7032 Y4.669 I-0.0049 J0.0934
G2 Y4.831 I0.0468 J0.081
G2 X0.8435 Y4.75 I0.0468 J-0.081
G2 X0.7549 Y4.6566 I-0.0935 J0.0
G0 Z0.125
G0 X0.7502 Y6.6565
G0 Z0.0625
G1 F10.0 Z-0.065
G2 F30.0 X0.7033 Y6.669 I-0.0002 J0.0935
G2 Y6.831 I0.0468 J0.081
G2 X0.8435 Y6.75 I0.0468 J-0.081
G2 X0.7502 Y6.6565 I-0.0935 J0.0
G1 F10.0 Z-0.13
G2 F30.0 X0.7033 Y6.669 I-0.0002 J0.0935
G2 Y6.831 I0.0468 J0.081
G2 X0.8435 Y6.75 I0.0468 J-0.081
G2 X0.7502 Y6.6565 I-0.0935 J0.0
G1 F10.0 Z-0.195
G2 F30.0 X0.7033 Y6.669 I-0.0002 J0.0935
G2 Y6.831 I0.0468 J0.081
G2 X0.8435 Y6.75 I0.0468 J-0.081
G2 X0.7502 Y6.6565 I-0.0935 J0.0
G1 F10.0 Z-0.26
G2 F30.0 X0.7033 Y6.669 I-0.0002 J0.0935
G2 Y6.831 I0.0468 J0.081
G2 X0.8435 Y6.75 I0.0468 J-0.081
G2 X0.7502 Y6.6565 I-0.0935 J0.0
G0 Z0.125
G0 X1.8136 Y7.316
G0 Z0.0625
G1 F10.0 Z-0.065
G2 F30.0 X1.8125 Y7.32 I0.0064 J0.004
G1 Y9.43
G2 X1.82 Y9.4375 I0.0075 J0.0
G1 X2.0
G3 X2.0479 Y9.4598 I0.0 J0.0625
G1 X2.2979 Y9.7581
G3 X2.3125 Y9.7982 I-0.0479 J0.0402
G1 Y10.0265
G2 X2.32 Y10.034 I0.0075 J0.0
G1 X6.8765
G2 X6.8818 Y10.0318 I0.0 J-0.0075
G1 X7.3408 Y9.5728
G2 X7.343 Y9.5675 I-0.0053 J-0.0053
G1 Y7.5212
G2 X7.3418 Y7.517 I-0.0075 J0.0
G1 X6.8743 Y6.8158
G2 X6.868 Y6.8125 I-0.0062 J0.0042
G1 X3.4755
G2 X3.468 Y6.82 I0.0 J0.0075
G1 Y7.0
G3 X3.4497 Y7.0442 I-0.0625 J0.0
G1 X3.1997 Y7.2942
G3 X3.1555 Y7.3125 I-0.0442 J-0.0442
G1 X1.82
G2 X1.8136 Y7.316 I0.0 J0.0075
G1 F10.0 Z-0.13
G2 F30.0 X1.8125 Y7.32 I0.0064 J0.004
G1 Y9.43
G2 X1.82 Y9.4375 I0.0075 J0.0
G1 X2.0
G3 X2.0479 Y9.4598 I0.0 J0.0625
G1 X2.2979 Y9.7581
G3 X2.3125 Y9.7982 I-0.0479 J0.0402
G1 Y10.0265
G2 X2.32 Y10.034 I0.0075 J0.0
G1 X6.8765
G2 X6.8818 Y10.0318 I0.0 J-0.0075
G1 X7.3408 Y9.5728
G2 X7.343 Y9.5675 I-0.0053 J-0.0053
G1 Y7.5212
G2 X7.3418 Y7.517 I-0.0075 J0.0
G1 X6.8743 Y6.8158
G2 X6.868 Y6.8125 I-0.0062 J0.0042
G1 X3.4755
G2 X3.468 Y6.82 I0.0 J0.0075
G1 Y7.0
G3 X3.4497 Y7.0442 I-0.0625 J0.0
G1 X3.1997 Y7.2942
G3 X3.1555 Y7.3125 I-0.0442 J-0.0442
G1 X1.82
G2 X1.8136 Y7.316 I0.0 J0.0075
G1 F10.0 Z-0.195
G2 F30.0 X1.8125 Y7.32 I0.0064 J0.004
G1 Y9.43
G2 X1.82 Y9.4375 I0.0075 J0.0
G1 X2.0
G3 X2.0479 Y9.4598 I0.0 J0.0625
G1 X2.2979 Y9.7581
G3 X2.3125 Y9.7982 I-0.0479 J0.0402
G1 Y10.0265
G2 X2.32 Y10.034 I0.0075 J0.0
G1 X6.8765
G2 X6.8818 Y10.0318 I0.0 J-0.0075
G1 X7.3408 Y9.5728
G2 X7.343 Y9.5675 I-0.0053 J-0.0053
G1 Y7.5212
G2 X7.3418 Y7.517 I-0.0075 J0.0
G1 X6.8743 Y6.8158
G2 X6.868 Y6.8125 I-0.0062 J0.0042
G1 X3.4755
G2 X3.468 Y6.82 I0.0 J0.0075
G1 Y7.0
G3 X3.4497 Y7.0442 I-0.0625 J0.0
G1 X3.1997 Y7.2942
G3 X3.1555 Y7.3125 I-0.0442 J-0.0442
G1 X1.82
G2 X1.8136 Y7.316 I0.0 J0.0075
G1 F10.0 Z-0.26
G2 F30.0 X1.8125 Y7.32 I0.0064 J0.004
G1 Y9.43
G2 X1.82 Y9.4375 I0.0075 J0.0
G1 X2.0
G3 X2.0479 Y9.4598 I0.0 J0.0625
G1 X2.2979 Y9.7581
G3 X2.3125 Y9.7982 I-0.0479 J0.0402
G1 Y10.0265
G2 X2.32 Y10.034 I0.0075 J0.0
G1 X6.8765
G2 X6.8818 Y10.0318 I0.0 J-0.0075
G1 X7.3408 Y9.5728
G2 X7.343 Y9.5675 I-0.0053 J-0.0053
G1 Y7.5212
G2 X7.3418 Y7.517 I-0.0075 J0.0
G1 X6.8743 Y6.8158
G2 X6.868 Y6.8125 I-0.0062 J0.0042
G1 X3.4755
G2 X3.468 Y6.82 I0.0 J0.0075
G1 Y7.0
G3 X3.4497 Y7.0442 I-0.0625 J0.0
G1 X3.1997 Y7.2942
G3 X3.1555 Y7.3125 I-0.0442 J-0.0442
G1 X1.82
G2 X1.8136 Y7.316 I0.0 J0.0075
G0 Z0.125
G0 X3.5922 Y5.0218
G0 Z0.0625
G1 F10.0 Z-0.065
G2 F30.0 X3.5973 Y5.0252 I0.0279 J-0.036
G2 X3.6656 Y4.9858 I0.0227 J-0.0394
G2 X3.5973 Y4.9464 I-0.0455 J0.0
G2 X3.5922 Y5.0218 I0.0227 J0.0394
G1 F10.0 Z-0.13
G2 F30.0 X3.5973 Y5.0252 I0.0279 J-0.036
G2 X3.6656 Y4.9858 I0.0227 J-0.0394
G2 X3.5973 Y4.9464 I-0.0455 J0.0
G2 X3.5922 Y5.0218 I0.0227 J0.0394
G1 F10.0 Z-0.195
G2 F30.0 X3.5973 Y5.0252 I0.0279 J-0.036
G2 X3.6656 Y4.9858 I0.0227 J-0.0394
G2 X3.5973 Y4.9464 I-0.0455 J0.0
G2 X3.5922 Y5.0218 I0.0227 J0.0394
G1 F10.0 Z-0.26
G2 F30.0 X3.5973 Y5.0252 I0.0279 J-0.036
G2 X3.6656 Y4.9858 I0.0227 J-0.0394
G2 X3.5973 Y4.9464 I-0.0455 J0.0
G2 X3.5922 Y5.0218 I0.0227 J0.0394
G0 Z0.125
G0 X4.1471 Y4.9939
G0 Z0.0625
G1 F10.0 Z-0.065
G2 F30.0 X4.2334 Y5.1351 I0.1727 J-0.0087
G2 X4.4928 Y4.9853 I0.0865 J-0.1498
G2 X4.2334 Y4.8355 I-0.173 J0.0
G2 X4.1471 Y4.9939 I0.0865 J0.1498
G1 F10.0 Z-0.13
G2 F30.0 X4.2334 Y5.1351 I0.1727 J-0.0087
G2 X4.4928 Y4.9853 I0.0865 J-0.1498
G2 X4.2334 Y4.8355 I-0.173 J0.0
G2 X4.1471 Y4.9939 I0.0865 J0.1498
G1 F10.0 Z-0.195
G2 F30.0 X4.2334 Y5.1351 I0.1727 J-0.0087
G2 X4.4928 Y4.9853 I0.0865 J-0.1498
G2 X4.2334 Y4.8355 I-0.173 J0.0
G2 X4.1471 Y4.9939 I0.0865 J0.1498
G1 F10.0 Z-0.26
G2 F30.0 X4.2334 Y5.1351 I0.1727 J-0.0087
G2 X4.4928 Y4.9853 I0.0865 J-0.1498
G2 X4.2334 Y4.8355 I-0.173 J0.0
G2 X4.1471 Y4.9939 I0.0865 J0.1498
G0 Z0.125
G0 X4.975 Y4.9852
G0 Z0.0625
G1 F10.0 Z-0.065
G2 F30.0 X4.9973 Y5.0234 I0.0446 J-0.0005
G2 X5.0642 Y4.9848 I0.0223 J-0.0386
G2 X4.9973 Y4.9462 I-0.0446 J0.0
G2 X4.975 Y4.9852 I0.0223 J0.0386
G1 F10.0 Z-0.13
G2 F30.0 X4.9973 Y5.0234 I0.0446 J-0.0005
G2 X5.0642 Y4.9848 I0.0223 J-0.0386
G2 X4.9973 Y4.9462 I-0.0446 J0.0
G2 X4.975 Y4.9852 I0.0223 J0.0386
G1 F10.0 Z-0.195
G2 F30.0 X4.9973 Y5.0234 I0.0446 J-0.0005
G2 X5.0642 Y4.9848 I0.0223 J-0.0386
G2 X4.9973 Y4.9462 I-0.0446 J0.0
G2 X4.975 Y4.9852 I0.0223 J0.0386
G1 F10.0 Z-0.26
G2 F30.0 X4.9973 Y5.0234 I0.0446 J-0.0005
G2 X5.0642 Y4.9848 I0.0223 J-0.0386
G2 X4.9973 Y4.9462 I-0.0446 J0.0
G2 X4.975 Y4.9852 I0.0223 J0.0386
G0 Z0.125
G0 X8.1193 Y5.123
G0 Z0.0625
G1 F10.0 Z-0.065
G2 F30.0 X8.1421 Y5.1646 I0.0456 J0.002
G2 X8.2106 Y5.125 I0.0228 J-0.0396
G2 X8.1421 Y5.0854 I-0.0457 J0.0
G2 X8.1193 Y5.123 I0.0228 J0.0396
G1 F10.0 Z-0.13
G2 F30.0 X8.1421 Y5.1646 I0.0456 J0.002
G2 X8.2106 Y5.125 I0.0228 J-0.0396
G2 X8.1421 Y5.0854 I-0.0457 J0.0
G2 X8.1193 Y5.123 I0.0228 J0.0396
G1 F10.0 Z-0.195
G2 F30.0 X8.1421 Y5.1646 I0.0456 J0.002
G2 X8.2106 Y5.125 I0.0228 J-0.0396
G2 X8.1421 Y5.0854 I-0.0457 J0.0
G2 X8.1193 Y5.123 I0.0228 J0.0396
G1 F10.0 Z-0.26
G2 F30.0 X8.1421 Y5.1646 I0.0456 J0.002
G2 X8.2106 Y5.125 I0.0228 J-0.0396
G2 X8.1421 Y5.0854 I-0.0457 J0.0
G2 X8.1193 Y5.123 I0.0228 J0.0396
G0 Z0.125
G0 X8.1626 Y4.2679
G0 Z0.0625
G1 F10.0 Z-0.065
G2 F30.0 X8.2114 Y4.2215 I0.0024 J-0.0464
G2 X8.1417 Y4.1812 I-0.0465 J0.0
G2 Y4.2617 I0.0233 J0.0403
G2 X8.1626 Y4.2679 I0.0233 J-0.0403
G1 F10.0 Z-0.13
G2 F30.0 X8.2114 Y4.2215 I0.0024 J-0.0464
G2 X8.1417 Y4.1812 I-0.0465 J0.0
G2 Y4.2617 I0.0233 J0.0403
G2 X8.1626 Y4.2679 I0.0233 J-0.0403
G1 F10.0 Z-0.195
G2 F30.0 X8.2114 Y4.2215 I0.0024 J-0.0464
G2 X8.1417 Y4.1812 I-0.0465 J0.0
G2 Y4.2617 I0.0233 J0.0403
G2 X8.1626 Y4.2679 I0.0233 J-0.0403
G1 F10.0 Z-0.26
G2 F30.0 X8.2114 Y4.2215 I0.0024 J-0.0464
G2 X8.1417 Y4.1812 I-0.0465 J0.0
G2 Y4.2617 I0.0233 J0.0403
G2 X8.1626 Y4.2679 I0.0233 J-0.0403
G0 Z0.125
G0 X9.6194 Y4.2229
G0 Z0.0625
G1 F10.0 Z-0.065
G2 F30.0 X9.6422 Y4.2609 I0.0455 J-0.0014
G2 X9.7105 Y4.2215 I0.0228 J-0.0395
G2 X9.6422 Y4.182 I-0.0456 J0.0
G2 X9.6194 Y4.2229 I0.0228 J0.0395
G1 F10.0 Z-0.13
G2 F30.0 X9.6422 Y4.2609 I0.0455 J-0.0014
G2 X9.7105 Y4.2215 I0.0228 J-0.0395
G2 X9.6422 Y4.182 I-0.0456 J0.0
G2 X9.6194 Y4.2229 I0.0228 J0.0395
G1 F10.0 Z-0.195
G2 F30.0 X9.6422 Y4.2609 I0.0455 J-0.0014
G2 X9.7105 Y4.2215 I0.0228 J-0.0395
G2 X9.6422 Y4.182 I-0.0456 J0.0
G2 X9.6194 Y4.2229 I0.0228 J0.0395
G1 F10.0 Z-0.26
G2 F30.0 X9.6422 Y4.2609 I0.0455 J-0.0014
G2 X9.7105 Y4.2215 I0.0228 J-0.0395
G2 X9.6422 Y4.182 I-0.0456 J0.0
G2 X9.6194 Y4.2229 I0.0228 J0.0395
G0 Z0.125
G0 X9.6626 Y5.0786
G0 Z0.0625
G1 F10.0 Z-0.065
G2 F30.0 X9.6417 Y5.0847 I0.0023 J0.0464
G2 Y5.1653 I0.0232 J0.0403
G2 X9.7114 Y5.125 I0.0232 J-0.0403
G2 X9.6626 Y5.0786 I-0.0465 J0.0
G1 F10.0 Z-0.13
G2 F30.0 X9.6417 Y5.0847 I0.0023 J0.0464
G2 Y5.1653 I0.0232 J0.0403
G2 X9.7114 Y5.125 I0.0232 J-0.0403
G2 X9.6626 Y5.0786 I-0.0465 J0.0
G1 F10.0 Z-0.195
G2 F30.0 X9.6417 Y5.0847 I0.0023 J0.0464
G2 Y5.1653 I0.0232 J0.0403
G2 X9.7114 Y5.125 I0.0232 J-0.0403
G2 X9.6626 Y5.0786 I-0.0465 J0.0
G1 F10.0 Z-0.26
G2 F30.0 X9.6417 Y5.0847 I0.0023 J0.0464
G2 Y5.1653 I0.0232 J0.0403
G2 X9.7114 Y5.125 I0.0232 J-0.0403
G2 X9.6626 Y5.0786 I-0.0465 J0.0
G0 Z0.125
G0 X10.0757 Y8.6811
G0 Z0.0625
G1 F10.0 Z-0.065
G2 F30.0 X10.0578 Y8.6871 I0.0053 J0.0462
G2 Y8.7676 I0.0232 J0.0403
G2 X10.1275 Y8.7273 I0.0232 J-0.0403
G2 X10.0757 Y8.6811 I-0.0465 J0.0
G1 F10.0 Z-0.13
G2 F30.0 X10.0578 Y8.6871 I0.0053 J0.0462
G2 Y8.7676 I0.0232 J0.0403
G2 X10.1275 Y8.7273 I0.0232 J-0.0403
G2 X10.0757 Y8.6811 I-0.0465 J0.0
G1 F10.0 Z-0.195
G2 F30.0 X10.0578 Y8.6871 I0.0053 J0.0462
G2 Y8.7676 I0.0232 J0.0403
G2 X10.1275 Y8.7273 I0.0232 J-0.0403
G2 X10.0757 Y8.6811 I-0.0465 J0.0
G1 F10.0 Z-0.26
G2 F30.0 X10.0578 Y8.6871 I0.0053 J0.0462
G2 Y8.7676 I0.0232 J0.0403
G2 X10.1275 Y8.7273 I0.0232 J-0.0403
G2 X10.0757 Y8.6811 I-0.0465 J0.0
G0 Z0.125
G0 X10.0807 Y9.4981
G0 Z0.0625
G1 F10.0 Z-0.065
G2 F30.0 X10.0578 Y9.5043 I0.0003 J0.0465
G2 Y9.5848 I0.0233 J0.0403
G2 X10.1275 Y9.5446 I0.0232 J-0.0403
G2 X10.0807 Y9.4981 I-0.0465 J0.0
G1 F10.0 Z-0.13
G2 F30.0 X10.0578 Y9.5043 I0.0003 J0.0465
G2 Y9.5848 I0.0233 J0.0403
G2 X10.1275 Y9.5446 I0.0232 J-0.0403
G2 X10.0807 Y9.4981 I-0.0465 J0.0
G1 F10.0 Z-0.195
G2 F30.0 X10.0578 Y9.5043 I0.0003 J0.0465
G2 Y9.5848 I0.0233 J0.0403
G2 X10.1275 Y9.5446 I0.0232 J-0.0403
G2 X10.0807 Y9.4981 I-0.0465 J0.0
G1 F10.0 Z-0.26
G2 F30.0 X10.0578 Y9.5043 I0.0003 J0.0465
G2 Y9.5848 I0.0233 J0.0403
G2 X10.1275 Y9.5446 I0.0232 J-0.0403
G2 X10.0807 Y9.4981 I-0.0465 J0.0
G0 Z0.125
G0 X8.9655 Y9.5427
G0 Z0.0625
G1 F10.0 Z-0.065
G2 F30.0 X8.8958 Y9.5043 I-0.0465 J0.0019
G2 Y9.5848 I0.0232 J0.0403
G2 X8.9655 Y9.5446 I0.0232 J-0.0403
G2 Y9.5427 I-0.0465 J0.0
G1 F10.0 Z-0.13
G2 F30.0 X8.8958 Y9.5043 I-0.0465 J0.0019
G2 Y9.5848 I0.0232 J0.0403
G2 X8.9655 Y9.5446 I0.0232 J-0.0403
G2 Y9.5427 I-0.0465 J0.0
G1 F10.0 Z-0.195
G2 F30.0 X8.8958 Y9.5043 I-0.0465 J0.0019
G2 Y9.5848 I0.0232 J0.0403
G2 X8.9655 Y9.5446 I0.0232 J-0.0403
G2 Y9.5427 I-0.0465 J0.0
G1 F10.0 Z-0.26
G2 F30.0 X8.8958 Y9.5043 I-0.0465 J0.0019
G2 Y9.5848 I0.0232 J0.0403
G2 X8.9655 Y9.5446 I0.0232 J-0.0403
G2 Y9.5427 I-0.0465 J0.0
G0 Z0.125
G0 X8.9216 Y8.7738
G0 Z0.0625
G1 F10.0 Z-0.065
G2 F30.0 X8.9655 Y8.7273 I-0.0026 J-0.0464
G2 X8.8958 Y8.6871 I-0.0465 J0.0
G2 Y8.7676 I0.0233 J0.0403
G2 X8.9216 Y8.7738 I0.0233 J-0.0403
G1 F10.0 Z-0.13
G2 F30.0 X8.9655 Y8.7273 I-0.0026 J-0.0464
G2 X8.8958 Y8.6871 I-0.0465 J0.0
G2 Y8.7676 I0.0233 J0.0403
G2 X8.9216 Y8.7738 I0.0233 J-0.0403
G1 F10.0 Z-0.195
G2 F30.0 X8.9655 Y8.7273 I-0.0026 J-0.0464
G2 X8.8958 Y8.6871 I-0.0465 J0.0
G2 Y8.7676 I0.0233 J0.0403
G2 X8.9216 Y8.7738 I0.0233 J-0.0403
G1 F10.0 Z-0.26
G2 F30.0 X8.9655 Y8.7273 I-0.0026 J-0.0464
G2 X8.8958 Y8.6871 I-0.0465 J0.0
G2 Y8.7676 I0.0233 J0.0403
G2 X8.9216 Y8.7738 I0.0233 J-0.0403
G0 Z0.125
G0 X5.0584 Y10.969
G0 Z0.0625
G1 F10.0 Z-0.065
G2 F30.0 X4.9961 Y10.952 I-0.0396 J0.0225
G2 Y11.0308 I0.0227 J0.0394
G2 X5.0644 Y10.9914 I0.0227 J-0.0394
G2 X5.0584 Y10.969 I-0.0455 J0.0
G1 F10.0 Z-0.13
G2 F30.0 X4.9961 Y10.952 I-0.0396 J0.0225
G2 Y11.0308 I0.0227 J0.0394
G2 X5.0644 Y10.9914 I0.0227 J-0.0394
G2 X5.0584 Y10.969 I-0.0455 J0.0
G1 F10.0 Z-0.195
G2 F30.0 X4.9961 Y10.952 I-0.0396 J0.0225
G2 Y11.0308 I0.0227 J0.0394
G2 X5.0644 Y10.9914 I0.0227 J-0.0394
G2 X5.0584 Y10.969 I-0.0455 J0.0
G1 F10.0 Z-0.26
G2 F30.0 X4.9961 Y10.952 I-0.0396 J0.0225
G2 Y11.0308 I0.0227 J0.0394
G2 X5.0644 Y10.9914 I0.0227 J-0.0394
G2 X5.0584 Y10.969 I-0.0455 J0.0
G0 Z0.125
G0 X4.4918 Y10.9815
G0 Z0.0625
G1 F10.0 Z-0.065
G2 F30.0 X4.2338 Y10.8363 I-0.172 J0.0038
G2 Y11.1342 I0.086 J0.149
G2 X4.4918 Y10.9853 I0.086 J-0.149
G2 Y10.9815 I-0.172 J0.0
G1 F10.0 Z-0.13
G2 F30.0 X4.2338 Y10.8363 I-0.172 J0.0038
G2 Y11.1342 I0.086 J0.149
G2 X4.4918 Y10.9853 I0.086 J-0.149
G2 Y10.9815 I-0.172 J0.0
G1 F10.0 Z-0.195
G2 F30.0 X4.2338 Y10.8363 I-0.172 J0.0038
G2 Y11.1342 I0.086 J0.149
G2 X4.4918 Y10.9853 I0.086 J-0.149
G2 Y10.9815 I-0.172 J0.0
G1 F10.0 Z-0.26
G2 F30.0 X4.2338 Y10.8363 I-0.172 J0.0038
G2 Y11.1342 I0.086 J0.149
G2 X4.4918 Y10.9853 I0.086 J-0.149
G2 Y10.9815 I-0.172 J0.0
G0 Z0.125
G0 X3.6649 Y10.9909
G0 Z0.0625
G1 F10.0 Z-0.065
G2 F30.0 X3.5966 Y10.952 I-0.0455 J0.0005
G2 Y11.0308 I0.0227 J0.0394
G2 X3.6649 Y10.9914 I0.0227 J-0.0394
G2 Y10.9909 I-0.0455 J0.0
G1 F10.0 Z-0.13
G2 F30.0 X3.5966 Y10.952 I-0.0455 J0.0005
G2 Y11.0308 I0.0227 J0.0394
G2 X3.6649 Y10.9914 I0.0227 J-0.0394
G2 Y10.9909 I-0.0455 J0.0
G1 F10.0 Z-0.195
G2 F30.0 X3.5966 Y10.952 I-0.0455 J0.0005
G2 Y11.0308 I0.0227 J0.0394
G2 X3.6649 Y10.9914 I0.0227 J-0.0394
G2 Y10.9909 I-0.0455 J0.0
G1 F10.0 Z-0.26
G2 F30.0 X3.5966 Y10.952 I-0.0455 J0.0005
G2 Y11.0308 I0.0227 J0.0394
G2 X3.6649 Y10.9914 I0.0227 J-0.0394
G2 Y10.9909 I-0.0455 J0.0
G0 Z0.125
G0 X0.8432 Y10.7577
G0 Z0.0625
G1 F10.0 Z-0.065
G2 F30.0 X0.8435 Y10.75 I-0.0932 J-0.0077
G2 X0.7033 Y10.669 I-0.0935 J0.0
G2 Y10.831 I0.0468 J0.081
G2 X0.8432 Y10.7577 I0.0468 J-0.081
G1 F10.0 Z-0.13
G2 F30.0 X0.8435 Y10.75 I-0.0932 J-0.0077
G2 X0.7033 Y10.669 I-0.0935 J0.0
G2 Y10.831 I0.0468 J0.081
G2 X0.8432 Y10.7577 I0.0468 J-0.081
G1 F10.0 Z-0.195
G2 F30.0 X0.8435 Y10.75 I-0.0932 J-0.0077
G2 X0.7033 Y10.669 I-0.0935 J0.0
G2 Y10.831 I0.0468 J0.081
G2 X0.8432 Y10.7577 I0.0468 J-0.081
G1 F10.0 Z-0.26
G2 F30.0 X0.8435 Y10.75 I-0.0932 J-0.0077
G2 X0.7033 Y10.669 I-0.0935 J0.0
G2 Y10.831 I0.0468 J0.081
G2 X0.8432 Y10.7577 I0.0468 J-0.081
G0 Z0.125
G0 X3.2765 Y1.8475
G0 Z0.0625
G1 F10.0 Z-0.065
G1 F30.0 X3.7235
G1 Y1.1555
G1 X3.2765
G1 Y1.8475
G1 F10.0 Z-0.13
G1 F30.0 X3.7235
G1 Y1.1555
G1 X3.2765
G1 Y1.8475
G1 F10.0 Z-0.195
G1 F30.0 X3.7235
G1 Y1.1555
G1 X3.2765
G1 Y1.8475
G1 F10.0 Z-0.26
G1 F30.0 X3.7235
G1 Y1.1555
G1 X3.2765
G1 Y1.8475
G0 Z0.125
G0 X0.8354 Y0.7616
G0 Z0.0625
G1 F10.0 Z-0.065
G2 F30.0 X0.8435 Y0.7236 I-0.0854 J-0.038
G2 X0.7032 Y0.6426 I-0.0935 J0.0
G2 Y0.8046 I0.0468 J0.081
G2 X0.8354 Y0.7616 I0.0468 J-0.081
G1 F10.0 Z-0.13
G2 F30.0 X0.8435 Y0.7236 I-0.0854 J-0.038
G2 X0.7032 Y0.6426 I-0.0935 J0.0
G2 Y0.8046 I0.0468 J0.081
G2 X0.8354 Y0.7616 I0.0468 J-0.081
G1 F10.0 Z-0.195
G2 F30.0 X0.8435 Y0.7236 I-0.0854 J-0.038
G2 X0.7032 Y0.6426 I-0.0935 J0.0
G2 Y0.8046 I0.0468 J0.081
G2 X0.8354 Y0.7616 I0.0468 J-0.081
G1 F10.0 Z-0.26
G2 F30.0 X0.8435 Y0.7236 I-0.0854 J-0.038
G2 X0.7032 Y0.6426 I-0.0935 J0.0
G2 Y0.8046 I0.0468 J0.081
G2 X0.8354 Y0.7616 I0.0468 J-0.081
G0 Z0.125
G0 X13.9311 Y4.9787
G0 Z0.0625
G1 F10.0 Z-0.065
G2 F30.0 X13.9512 Y5.0309 I0.0424 J0.0137
G2 X14.0181 Y4.9923 I0.0223 J-0.0386
G2 X13.9512 Y4.9537 I-0.0446 J0.0
G2 X13.9311 Y4.9787 I0.0223 J0.0386
G1 F10.0 Z-0.13
G2 F30.0 X13.9512 Y5.0309 I0.0424 J0.0137
G2 X14.0181 Y4.9923 I0.0223 J-0.0386
G2 X13.9512 Y4.9537 I-0.0446 J0.0
G2 X13.9311 Y4.9787 I0.0223 J0.0386
G1 F10.0 Z-0.195
G2 F30.0 X13.9512 Y5.0309 I0.0424 J0.0137
G2 X14.0181 Y4.9923 I0.0223 J-0.0386
G2 X13.9512 Y4.9537 I-0.0446 J0.0
G2 X13.9311 Y4.9787 I0.0223 J0.0386
G1 F10.0 Z-0.26
G2 F30.0 X13.9512 Y5.0309 I0.0424 J0.0137
G2 X14.0181 Y4.9923 I0.0223 J-0.0386
G2 X13.9512 Y4.9537 I-0.0446 J0.0
G2 X13.9311 Y4.9787 I0.0223 J0.0386
G0 Z0.125
G0 X14.4995 Y4.9887
G0 Z0.0625
G1 F10.0 Z-0.065
G2 F30.0 X14.5864 Y5.1423 I0.1737 J0.0031
G2 X14.847 Y4.9918 I0.0869 J-0.1504
G2 X14.5864 Y4.8414 I-0.1737 J0.0
G2 X14.4995 Y4.9887 I0.0869 J0.1504
G1 F10.0 Z-0.13
G2 F30.0 X14.5864 Y5.1423 I0.1737 J0.0031
G2 X14.847 Y4.9918 I0.0869 J-0.1504
G2 X14.5864 Y4.8414 I-0.1737 J0.0
G2 X14.4995 Y4.9887 I0.0869 J0.1504
G1 F10.0 Z-0.195
G2 F30.0 X14.5864 Y5.1423 I0.1737 J0.0031
G2 X14.847 Y4.9918 I0.0869 J-0.1504
G2 X14.5864 Y4.8414 I-0.1737 J0.0
G2 X14.4995 Y4.9887 I0.0869 J0.1504
G1 F10.0 Z-0.26
G2 F30.0 X14.5864 Y5.1423 I0.1737 J0.0031
G2 X14.847 Y4.9918 I0.0869 J-0.1504
G2 X14.5864 Y4.8414 I-0.1737 J0.0
G2 X14.4995 Y4.9887 I0.0869 J0.1504
G0 Z0.125
G0 X15.3275 Y4.9912
G0 Z0.0625
G1 F10.0 Z-0.065
G2 F30.0 X15.3502 Y5.0307 I0.0455 J0.0001
G2 X15.4185 Y4.9913 I0.0228 J-0.0394
G2 X15.3502 Y4.9519 I-0.0455 J0.0
G2 X15.3275 Y4.9912 I0.0228 J0.0394
G1 F10.0 Z-0.13
G2 F30.0 X15.3502 Y5.0307 I0.0455 J0.0001
G2 X15.4185 Y4.9913 I0.0228 J-0.0394
G2 X15.3502 Y4.9519 I-0.0455 J0.0
G2 X15.3275 Y4.9912 I0.0228 J0.0394
G1 F10.0 Z-0.195
G2 F30.0 X15.3502 Y5.0307 I0.0455 J0.0001
G2 X15.4185 Y4.9913 I0.0228 J-0.0394
G2 X15.3502 Y4.9519 I-0.0455 J0.0
G2 X15.3275 Y4.9912 I0.0228 J0.0394
G1 F10.0 Z-0.26
G2 F30.0 X15.3502 Y5.0307 I0.0455 J0.0001
G2 X15.4185 Y4.9913 I0.0228 J-0.0394
G2 X15.3502 Y4.9519 I-0.0455 J0.0
G2 X15.3275 Y4.9912 I0.0228 J0.0394
G0 Z0.125
G0 X18.1568 Y4.7577
G0 Z0.0625
G1 F10.0 Z-0.065
G2 F30.0 X18.2033 Y4.831 I0.0932 J-0.0077
G2 X18.3435 Y4.75 I0.0467 J-0.081
G2 X18.2033 Y4.669 I-0.0935 J0.0
G2 X18.1568 Y4.7577 I0.0467 J0.081
G1 F10.0 Z-0.13
G2 F30.0 X18.2033 Y4.831 I0.0932 J-0.0077
G2 X18.3435 Y4.75 I0.0467 J-0.081
G2 X18.2033 Y4.669 I-0.0935 J0.0
G2 X18.1568 Y4.7577 I0.0467 J0.081
G1 F10.0 Z-0.195
G2 F30.0 X18.2033 Y4.831 I0.0932 J-0.0077
G2 X18.3435 Y4.75 I0.0467 J-0.081
G2 X18.2033 Y4.669 I-0.0935 J0.0
G2 X18.1568 Y4.7577 I0.0467 J0.081
G1 F10.0 Z-0.26
G2 F30.0 X18.2033 Y4.831 I0.0932 J-0.0077
G2 X18.3435 Y4.75 I0.0467 J-0.081
G2 X18.2033 Y4.669 I-0.0935 J0.0
G2 X18.1568 Y4.7577 I0.0467 J0.081
G0 Z0.125
G0 X18.2451 Y3.0643
G0 Z0.0625
G1 F10.0 Z-0.065
G2 F30.0 X18.3435 Y2.971 I0.0049 J-0.0934
G2 X18.2033 Y2.89 I-0.0935 J0.0
G2 Y3.0519 I0.0467 J0.081
G2 X18.2451 Y3.0643 I0.0467 J-0.081
G1 F10.0 Z-0.13
G2 F30.0 X18.3435 Y2.971 I0.0049 J-0.0934
G2 X18.2033 Y2.89 I-0.0935 J0.0
G2 Y3.0519 I0.0467 J0.081
G2 X18.2451 Y3.0643 I0.0467 J-0.081
G1 F10.0 Z-0.195
G2 F30.0 X18.3435 Y2.971 I0.0049 J-0.0934
G2 X18.2033 Y2.89 I-0.0935 J0.0
G2 Y3.0519 I0.0467 J0.081
G2 X18.2451 Y3.0643 I0.0467 J-0.081
G1 F10.0 Z-0.26
G2 F30.0 X18.3435 Y2.971 I0.0049 J-0.0934
G2 X18.2033 Y2.89 I-0.0935 J0.0
G2 Y3.0519 I0.0467 J0.081
G2 X18.2451 Y3.0643 I0.0467 J-0.081
G0 Z0.125
G0 X18.2498 Y0.9367
G0 Z0.0625
G1 F10.0 Z-0.065
G2 F30.0 X18.3435 Y0.8432 I0.0002 J-0.0935
G2 X18.2033 Y0.7622 I-0.0935 J0.0
G2 Y0.9242 I0.0467 J0.081
G2 X18.2498 Y0.9367 I0.0467 J-0.081
G1 F10.0 Z-0.13
G2 F30.0 X18.3435 Y0.8432 I0.0002 J-0.0935
G2 X18.2033 Y0.7622 I-0.0935 J0.0
G2 Y0.9242 I0.0467 J0.081
G2 X18.2498 Y0.9367 I0.0467 J-0.081
G1 F10.0 Z-0.195
G2 F30.0 X18.3435 Y0.8432 I0.0002 J-0.0935
G2 X18.2033 Y0.7622 I-0.0935 J0.0
G2 Y0.9242 I0.0467 J0.081
G2 X18.2498 Y0.9367 I0.0467 J-0.081
G1 F10.0 Z-0.26
G2 F30.0 X18.3435 Y0.8432 I0.0002 J-0.0935
G2 X18.2033 Y0.7622 I-0.0935 J0.0
G2 Y0.9242 I0.0467 J0.081
G2 X18.2498 Y0.9367 I0.0467 J-0.081
G0 Z0.125
G0 X18.25 Y6.6565
G0 Z0.0625
G1 F10.0 Z-0.065
G2 F30.0 X18.2033 Y6.669 I0.0 J0.0935
G2 Y6.831 I0.0467 J0.081
G2 X18.3435 Y6.75 I0.0467 J-0.081
G2 X18.25 Y6.6565 I-0.0935 J0.0
G1 F10.0 Z-0.13
G2 F30.0 X18.2033 Y6.669 I0.0 J0.0935
G2 Y6.831 I0.0467 J0.081
G2 X18.3435 Y6.75 I0.0467 J-0.081
G2 X18.25 Y6.6565 I-0.0935 J0.0
G1 F10.0 Z-0.195
G2 F30.0 X18.2033 Y6.669 I0.0 J0.0935
G2 Y6.831 I0.0467 J0.081
G2 X18.3435 Y6.75 I0.0467 J-0.081
G2 X18.25 Y6.6565 I-0.0935 J0.0
G1 F10.0 Z-0.26
G2 F30.0 X18.2033 Y6.669 I0.0 J0.0935
G2 Y6.831 I0.0467 J0.081
G2 X18.3435 Y6.75 I0.0467 J-0.081
G2 X18.25 Y6.6565 I-0.0935 J0.0
G0 Z0.125
G0 Y8.6565
G0 Z0.0625
G1 F10.0 Z-0.065
G2 F30.0 X18.2033 Y8.669 I0.0 J0.0935
G2 Y8.831 I0.0468 J0.081
G2 X18.3435 Y8.75 I0.0468 J-0.081
G2 X18.25 Y8.6565 I-0.0935 J0.0
G1 F10.0 Z-0.13
G2 F30.0 X18.2033 Y8.669 I0.0 J0.0935
G2 Y8.831 I0.0468 J0.081
G2 X18.3435 Y8.75 I0.0468 J-0.081
G2 X18.25 Y8.6565 I-0.0935 J0.0
G1 F10.0 Z-0.195
G2 F30.0 X18.2033 Y8.669 I0.0 J0.0935
G2 Y8.831 I0.0468 J0.081
G2 X18.3435 Y8.75 I0.0468 J-0.081
G2 X18.25 Y8.6565 I-0.0935 J0.0
G1 F10.0 Z-0.26
G2 F30.0 X18.2033 Y8.669 I0.0 J0.0935
G2 Y8.831 I0.0468 J0.081
G2 X18.3435 Y8.75 I0.0468 J-0.081
G2 X18.25 Y8.6565 I-0.0935 J0.0
G0 Z0.125
G0 Y10.6565
G0 Z0.0625
G1 F10.0 Z-0.065
G2 F30.0 X18.2033 Y10.669 I0.0 J0.0935
G2 Y10.831 I0.0467 J0.081
G2 X18.3435 Y10.75 I0.0467 J-0.081
G2 X18.25 Y10.6565 I-0.0935 J0.0
G1 F10.0 Z-0.13
G2 F30.0 X18.2033 Y10.669 I0.0 J0.0935
G2 Y10.831 I0.0467 J0.081
G2 X18.3435 Y10.75 I0.0467 J-0.081
G2 X18.25 Y10.6565 I-0.0935 J0.0
G1 F10.0 Z-0.195
G2 F30.0 X18.2033 Y10.669 I0.0 J0.0935
G2 Y10.831 I0.0467 J0.081
G2 X18.3435 Y10.75 I0.0467 J-0.081
G2 X18.25 Y10.6565 I-0.0935 J0.0
G1 F10.0 Z-0.26
G2 F30.0 X18.2033 Y10.669 I0.0 J0.0935
G2 Y10.831 I0.0467 J0.081
G2 X18.3435 Y10.75 I0.0467 J-0.081
G2 X18.25 Y10.6565 I-0.0935 J0.0
G0 Z0.125
G0 X15.4138 Y10.993
G0 Z0.0625
G1 F10.0 Z-0.065
G2 F30.0 X15.3514 Y10.9617 I-0.0415 J0.0049
G2 Y11.0342 I0.0209 J0.0362
G2 X15.4141 Y10.998 I0.0209 J-0.0362
G2 X15.4138 Y10.993 I-0.0418 J0.0
G1 F10.0 Z-0.13
G2 F30.0 X15.3514 Y10.9617 I-0.0415 J0.0049
G2 Y11.0342 I0.0209 J0.0362
G2 X15.4141 Y10.998 I0.0209 J-0.0362
G2 X15.4138 Y10.993 I-0.0418 J0.0
G1 F10.0 Z-0.195
G2 F30.0 X15.3514 Y10.9617 I-0.0415 J0.0049
G2 Y11.0342 I0.0209 J0.0362
G2 X15.4141 Y10.998 I0.0209 J-0.0362
G2 X15.4138 Y10.993 I-0.0418 J0.0
G1 F10.0 Z-0.26
G2 F30.0 X15.3514 Y10.9617 I-0.0415 J0.0049
G2 Y11.0342 I0.0209 J0.0362
G2 X15.4141 Y10.998 I0.0209 J-0.0362
G2 X15.4138 Y10.993 I-0.0418 J0.0
G0 Z0.125
G0 X14.8452 Y10.9921
G0 Z0.0625
G1 F10.0 Z-0.065
G2 F30.0 Y10.9918 I-0.172 J-0.0003
G2 X14.5872 Y10.8429 I-0.172 J0.0
G2 Y11.1408 I0.086 J0.149
G2 X14.8452 Y10.9921 I0.086 J-0.149
G1 F10.0 Z-0.13
G2 F30.0 Y10.9918 I-0.172 J-0.0003
G2 X14.5872 Y10.8429 I-0.172 J0.0
G2 Y11.1408 I0.086 J0.149
G2 X14.8452 Y10.9921 I0.086 J-0.149
G1 F10.0 Z-0.195
G2 F30.0 Y10.9918 I-0.172 J-0.0003
G2 X14.5872 Y10.8429 I-0.172 J0.0
G2 Y11.1408 I0.086 J0.149
G2 X14.8452 Y10.9921 I0.086 J-0.149
G1 F10.0 Z-0.26
G2 F30.0 Y10.9918 I-0.172 J-0.0003
G2 X14.5872 Y10.8429 I-0.172 J0.0
G2 Y11.1408 I0.086 J0.149
G2 X14.8452 Y10.9921 I0.086 J-0.149
G0 Z0.125
G0 X14.0183 Y10.9977
G0 Z0.0625
G1 F10.0 Z-0.065
G2 F30.0 X13.95 Y10.9586 I-0.0455 J0.0003
G2 Y11.0374 I0.0227 J0.0394
G2 X14.0183 Y10.998 I0.0227 J-0.0394
G2 Y10.9977 I-0.0455 J0.0
G1 F10.0 Z-0.13
G2 F30.0 X13.95 Y10.9586 I-0.0455 J0.0003
G2 Y11.0374 I0.0227 J0.0394
G2 X14.0183 Y10.998 I0.0227 J-0.0394
G2 Y10.9977 I-0.0455 J0.0
G1 F10.0 Z-0.195
G2 F30.0 X13.95 Y10.9586 I-0.0455 J0.0003
G2 Y11.0374 I0.0227 J0.0394
G2 X14.0183 Y10.998 I0.0227 J-0.0394
G2 Y10.9977 I-0.0455 J0.0
G1 F10.0 Z-0.26
G2 F30.0 X13.95 Y10.9586 I-0.0455 J0.0003
G2 Y11.0374 I0.0227 J0.0394
G2 X14.0183 Y10.998 I0.0227 J-0.0394
G2 Y10.9977 I-0.0455 J0.0
( cutout2 )
S1000
G0 Z0.125
G0 X0.8435 Y8.75
G0 Z0.0625
G1 F10.0 Z-0.065
G2 F30.0 X0.7033 Y8.669 I-0.0935 J0.0
G2 Y8.831 I0.0467 J0.081
G2 X0.8435 Y8.75 I0.0467 J-0.081
G1 F10.0 Z-0.13
G2 F30.0 X0.7033 Y8.669 I-0.0935 J0.0
G2 Y8.831 I0.0467 J0.081
G2 X0.8435 Y8.75 I0.0467 J-0.081
G1 F10.0 Z-0.195
G2 F30.0 X0.7033 Y8.669 I-0.0935 J0.0
G2 Y8.831 I0.0467 J0.081
G2 X0.8435 Y8.75 I0.0467 J-0.081
G1 F10.0 Z-0.26
G2 F30.0 X0.7033 Y8.669 I-0.0935 J0.0
G2 Y8.831 I0.0467 J0.081
G2 X0.8435 Y8.75 I0.0467 J-0.081
( Drill1 )
S1000
G0 Z0.125
G0 X1.9665 Y9.8799
G98
G81 X1.9665 Y9.8799 Z-0.26 R0.125 F10.0
G81 X2.8917 Y6.9665 Z-0.26
G81 X7.439 Z-0.26
G81 Y9.8799 Z-0.26
G81 X3.786 Y1.91 Z-0.26
G81 X4.0 Y1.75 Z-0.26
G81 Y1.25 Z-0.26
G81 X3.786 Y1.093 Z-0.26
G81 X3.214 Z-0.26
G81 X3.0 Y1.25 Z-0.26
G81 Y1.75 Z-0.26
G81 X3.214 Y1.91 Z-0.26
G80
( outline )
S1000
G0 Z0.125
G0 X2.0237 Y0.4353
G0 Z0.0625
G1 F10.0 Z-0.065
G2 F30.0 X2.029 Y0.4375 I0.0053 J-0.0053
G1 X16.971
G2 X16.9763 Y0.4353 I0.0 J-0.0075
G1 X17.4558 Y-0.0442
G3 X17.5 Y-0.0625 I0.0442 J0.0442
G1 X19.0
G3 X19.0625 Y0.0 I0.0 J0.0625
G1 Y5.5
G3 X19.0 Y5.5625 I-0.0625 J0.0
G1 X0.0
G3 X-0.0625 Y5.5 I0.0 J-0.0625
G1 Y0.0
G3 X0.0 Y-0.0625 I0.0625 J0.0
G1 X1.5
G3 X1.5442 Y-0.0442 I0.0 J0.0625
G1 X2.0237 Y0.4353
G1 F10.0 Z-0.13
G2 F30.0 X2.029 Y0.4375 I0.0053 J-0.0053
G1 X16.971
G2 X16.9763 Y0.4353 I0.0 J-0.0075
G1 X17.4558 Y-0.0442
G3 X17.5 Y-0.0625 I0.0442 J0.0442
G1 X19.0
G3 X19.0625 Y0.0 I0.0 J0.0625
G1 Y5.5
G3 X19.0 Y5.5625 I-0.0625 J0.0
G1 X0.0
G3 X-0.0625 Y5.5 I0.0 J-0.0625
G1 Y0.0
G3 X0.0 Y-0.0625 I0.0625 J0.0
G1 X1.5
G3 X1.5442 Y-0.0442 I0.0 J0.0625
G1 X2.0237 Y0.4353
G1 F10.0 Z-0.195
G2 F30.0 X2.029 Y0.4375 I0.0053 J-0.0053
G1 X16.971
G2 X16.9763 Y0.4353 I0.0 J-0.0075
G1 X17.4558 Y-0.0442
G3 X17.5 Y-0.0625 I0.0442 J0.0442
G1 X19.0
G3 X19.0625 Y0.0 I0.0 J0.0625
G1 Y5.5
G3 X19.0 Y5.5625 I-0.0625 J0.0
G1 X0.0
G3 X-0.0625 Y5.5 I0.0 J-0.0625
G1 Y0.0
G3 X0.0 Y-0.0625 I0.0625 J0.0
G1 X1.5
G3 X1.5442 Y-0.0442 I0.0 J0.0625
G1 X2.0237 Y0.4353
G1 F10.0 Z-0.26
G2 F30.0 X2.029 Y0.4375 I0.0053 J-0.0053
G1 X16.971
G2 X16.9763 Y0.4353 I0.0 J-0.0075
G1 X17.4558 Y-0.0442
G3 X17.5 Y-0.0625 I0.0442 J0.0442
G1 X19.0
G3 X19.0625 Y0.0 I0.0 J0.0625
G1 Y5.5
G3 X19.0 Y5.5625 I-0.0625 J0.0
G1 X0.0
G3 X-0.0625 Y5.5 I0.0 J-0.0625
G1 Y0.0
G3 X0.0 Y-0.0625 I0.0625 J0.0
G1 X1.5
G3 X1.5442 Y-0.0442 I0.0 J0.0625
G1 X2.0237 Y0.4353
G0 Z0.125
G0 X1.5059 Y5.9378
G0 Z0.0625
G1 F10.0 Z-0.065
G3 F30.0 X1.5404 Y5.9523 I-0.0059 J0.0622
G1 X2.1116 Y6.4357
G2 X2.1164 Y6.4375 I0.0048 J-0.0057
G1 X16.971
G2 X16.9763 Y6.4353 I0.0 J-0.0075
G1 X17.4558 Y5.9558
G3 X17.5 Y5.9375 I0.0442 J0.0442
G1 X19.0
G3 X19.0625 Y6.0 I0.0 J0.0625
G1 Y11.5
G3 X19.0 Y11.5625 I-0.0625 J0.0
G1 X0.0
G3 X-0.0625 Y11.5 I0.0 J-0.0625
G1 Y6.0
G3 X0.0 Y5.9375 I0.0625 J0.0
G1 X1.5
G3 X1.5059 Y5.9378 I0.0 J0.0625
G1 F10.0 Z-0.13
G3 F30.0 X1.5404 Y5.9523 I-0.0059 J0.0622
G1 X2.1116 Y6.4357
G2 X2.1164 Y6.4375 I0.0048 J-0.0057
G1 X16.971
G2 X16.9763 Y6.4353 I0.0 J-0.0075
G1 X17.4558 Y5.9558
G3 X17.5 Y5.9375 I0.0442 J0.0442
G1 X19.0
G3 X19.0625 Y6.0 I0.0 J0.0625
G1 Y11.5
G3 X19.0 Y11.5625 I-0.0625 J0.0
G1 X0.0
G3 X-0.0625 Y11.5 I0.0 J-0.0625
G1 Y6.0
G3 X0.0 Y5.9375 I0.0625 J0.0
G1 X1.5
G3 X1.5059 Y5.9378 I0.0 J0.0625
G1 F10.0 Z-0.195
G3 F30.0 X1.5404 Y5.9523 I-0.0059 J0.0622
G1 X2.1116 Y6.4357
G2 X2.1164 Y6.4375 I0.0048 J-0.0057
G1 X16.971
G2 X16.9763 Y6.4353 I0.0 J-0.0075
G1 X17.4558 Y5.9558
G3 X17.5 Y5.9375 I0.0442 J0.0442
G1 X19.0
G3 X19.0625 Y6.0 I0.0 J0.0625
G1 Y11.5
G3 X19.0 Y11.5625 I-0.0625 J0.0
G1 X0.0
G3 X-0.0625 Y11.5 I0.0 J-0.0625
G1 Y6.0
G3 X0.0 Y5.9375 I0.0625 J0.0
G1 X1.5
G3 X1.5059 Y5.9378 I0.0 J0.0625
G1 F10.0 Z-0.26
G3 F30.0 X1.5404 Y5.9523 I-0.0059 J0.0622
G1 X2.1116 Y6.4357
G2 X2.1164 Y6.4375 I0.0048 J-0.0057
G1 X16.971
G2 X16.9763 Y6.4353 I0.0 J-0.0075
G1 X17.4558 Y5.9558
G3 X17.5 Y5.9375 I0.0442 J0.0442
G1 X19.0
G3 X19.0625 Y6.0 I0.0 J0.0625
G1 Y11.5
G3 X19.0 Y11.5625 I-0.0625 J0.0
G1 X0.0
G3 X-0.0625 Y11.5 I0.0 J-0.0625
G1 Y6.0
G3 X0.0 Y5.9375 I0.0625 J0.0
G1 X1.5
G3 X1.5059 Y5.9378 I0.0 J0.0625
G0 Z0.125
M5
M30
