( Made using CamBam - http://www.cambam.co.uk )
( Lbracket_support_nested 9/18/2014 12:40:38 PM )
( T0 : 0.125 )
G20 G90 G64 G40
G0 Z0.125
( T0 : 0.125 )
T0 M6
( cutout )
G17
M3 S1000
G0 X0.8422 Y5.25
G0 Z0.0625
G1 F10.0 Z-0.065
G2 F30.0 X0.7039 Y5.1702 I-0.0922 J0.0
G2 Y5.3298 I0.0461 J0.0798
G2 X0.8422 Y5.25 I0.0461 J-0.0798
G1 F10.0 Z-0.13
G2 F30.0 X0.7039 Y5.1702 I-0.0922 J0.0
G2 Y5.3298 I0.0461 J0.0798
G2 X0.8422 Y5.25 I0.0461 J-0.0798
G1 F10.0 Z-0.195
G2 F30.0 X0.7039 Y5.1702 I-0.0922 J0.0
G2 Y5.3298 I0.0461 J0.0798
G2 X0.8422 Y5.25 I0.0461 J-0.0798
G1 F10.0 Z-0.26
G2 F30.0 X0.7039 Y5.1702 I-0.0922 J0.0
G2 Y5.3298 I0.0461 J0.0798
G2 X0.8422 Y5.25 I0.0461 J-0.0798
G0 Z0.125
G0 X1.6607 Y4.5678
G0 Z0.0625
G1 F10.0 Z-0.065
G2 F30.0 X2.2759 Y4.5917 I0.3184 J-0.2653
G1 X4.3912 Y2.1144
G2 X4.1415 Y1.5716 I-0.3325 J-0.1759
G1 X2.4367 Y1.5668
G2 X1.5668 Y2.4368 I0.0633 J0.9332
G1 X1.5655 Y4.3288
G2 X1.6607 Y4.5678 I0.4136 J-0.0264
G1 F10.0 Z-0.13
G2 F30.0 X2.2759 Y4.5917 I0.3184 J-0.2653
G1 X4.3912 Y2.1144
G2 X4.1415 Y1.5716 I-0.3325 J-0.1759
G1 X2.4367 Y1.5668
G2 X1.5668 Y2.4368 I0.0633 J0.9332
G1 X1.5655 Y4.3288
G2 X1.6607 Y4.5678 I0.4136 J-0.0264
G1 F10.0 Z-0.195
G2 F30.0 X2.2759 Y4.5917 I0.3184 J-0.2653
G1 X4.3912 Y2.1144
G2 X4.1415 Y1.5716 I-0.3325 J-0.1759
G1 X2.4367 Y1.5668
G2 X1.5668 Y2.4368 I0.0633 J0.9332
G1 X1.5655 Y4.3288
G2 X1.6607 Y4.5678 I0.4136 J-0.0264
G1 F10.0 Z-0.26
G2 F30.0 X2.2759 Y4.5917 I0.3184 J-0.2653
G1 X4.3912 Y2.1144
G2 X4.1415 Y1.5716 I-0.3325 J-0.1759
G1 X2.4367 Y1.5668
G2 X1.5668 Y2.4368 I0.0633 J0.9332
G1 X1.5655 Y4.3288
G2 X1.6607 Y4.5678 I0.4136 J-0.0264
G0 Z0.125
G0 X0.8186 Y3.8116
G0 Z0.0625
G1 F10.0 Z-0.065
G2 F30.0 X0.8422 Y3.75 I-0.0686 J-0.0616
G2 X0.7039 Y3.6702 I-0.0922 J0.0
G2 Y3.8298 I0.0461 J0.0798
G2 X0.8186 Y3.8116 I0.0461 J-0.0798
G1 F10.0 Z-0.13
G2 F30.0 X0.8422 Y3.75 I-0.0686 J-0.0616
G2 X0.7039 Y3.6702 I-0.0922 J0.0
G2 Y3.8298 I0.0461 J0.0798
G2 X0.8186 Y3.8116 I0.0461 J-0.0798
G1 F10.0 Z-0.195
G2 F30.0 X0.8422 Y3.75 I-0.0686 J-0.0616
G2 X0.7039 Y3.6702 I-0.0922 J0.0
G2 Y3.8298 I0.0461 J0.0798
G2 X0.8186 Y3.8116 I0.0461 J-0.0798
G1 F10.0 Z-0.26
G2 F30.0 X0.8422 Y3.75 I-0.0686 J-0.0616
G2 X0.7039 Y3.6702 I-0.0922 J0.0
G2 Y3.8298 I0.0461 J0.0798
G2 X0.8186 Y3.8116 I0.0461 J-0.0798
G0 Z0.125
G0 X0.754 Y2.3421
G0 Z0.0625
G1 F10.0 Z-0.065
G2 F30.0 X0.8422 Y2.25 I-0.004 J-0.0921
G2 X0.7039 Y2.1702 I-0.0922 J0.0
G2 Y2.3298 I0.0461 J0.0798
G2 X0.754 Y2.3421 I0.0461 J-0.0798
G1 F10.0 Z-0.13
G2 F30.0 X0.8422 Y2.25 I-0.004 J-0.0921
G2 X0.7039 Y2.1702 I-0.0922 J0.0
G2 Y2.3298 I0.0461 J0.0798
G2 X0.754 Y2.3421 I0.0461 J-0.0798
G1 F10.0 Z-0.195
G2 F30.0 X0.8422 Y2.25 I-0.004 J-0.0921
G2 X0.7039 Y2.1702 I-0.0922 J0.0
G2 Y2.3298 I0.0461 J0.0798
G2 X0.754 Y2.3421 I0.0461 J-0.0798
G1 F10.0 Z-0.26
G2 F30.0 X0.8422 Y2.25 I-0.004 J-0.0921
G2 X0.7039 Y2.1702 I-0.0922 J0.0
G2 Y2.3298 I0.0461 J0.0798
G2 X0.754 Y2.3421 I0.0461 J-0.0798
G0 Z0.125
G0 X0.7502 Y0.8422
G0 Z0.0625
G1 F10.0 Z-0.065
G2 F30.0 X0.8422 Y0.75 I-0.0002 J-0.0922
G2 X0.7039 Y0.6702 I-0.0922 J0.0
G2 Y0.8298 I0.0461 J0.0798
G2 X0.7502 Y0.8422 I0.0461 J-0.0798
G1 F10.0 Z-0.13
G2 F30.0 X0.8422 Y0.75 I-0.0002 J-0.0922
G2 X0.7039 Y0.6702 I-0.0922 J0.0
G2 Y0.8298 I0.0461 J0.0798
G2 X0.7502 Y0.8422 I0.0461 J-0.0798
G1 F10.0 Z-0.195
G2 F30.0 X0.8422 Y0.75 I-0.0002 J-0.0922
G2 X0.7039 Y0.6702 I-0.0922 J0.0
G2 Y0.8298 I0.0461 J0.0798
G2 X0.7502 Y0.8422 I0.0461 J-0.0798
G1 F10.0 Z-0.26
G2 F30.0 X0.8422 Y0.75 I-0.0002 J-0.0922
G2 X0.7039 Y0.6702 I-0.0922 J0.0
G2 Y0.8298 I0.0461 J0.0798
G2 X0.7502 Y0.8422 I0.0461 J-0.0798
G0 Z0.125
G0 X2.158 Y0.7557
G0 Z0.0625
G1 F10.0 Z-0.065
G2 F30.0 X2.2039 Y0.8298 I0.092 J-0.0057
G2 X2.3422 Y0.75 I0.0461 J-0.0798
G2 X2.2039 Y0.6702 I-0.0922 J0.0
G2 X2.158 Y0.7557 I0.0461 J0.0798
G1 F10.0 Z-0.13
G2 F30.0 X2.2039 Y0.8298 I0.092 J-0.0057
G2 X2.3422 Y0.75 I0.0461 J-0.0798
G2 X2.2039 Y0.6702 I-0.0922 J0.0
G2 X2.158 Y0.7557 I0.0461 J0.0798
G1 F10.0 Z-0.195
G2 F30.0 X2.2039 Y0.8298 I0.092 J-0.0057
G2 X2.3422 Y0.75 I0.0461 J-0.0798
G2 X2.2039 Y0.6702 I-0.0922 J0.0
G2 X2.158 Y0.7557 I0.0461 J0.0798
G1 F10.0 Z-0.26
G2 F30.0 X2.2039 Y0.8298 I0.092 J-0.0057
G2 X2.3422 Y0.75 I0.0461 J-0.0798
G2 X2.2039 Y0.6702 I-0.0922 J0.0
G2 X2.158 Y0.7557 I0.0461 J0.0798
G0 Z0.125
G0 X3.6578 Y0.7503
G0 Z0.0625
G1 F10.0 Z-0.065
G2 F30.0 X3.7039 Y0.8298 I0.0922 J-0.0003
G2 X3.8422 Y0.75 I0.0461 J-0.0798
G2 X3.7039 Y0.6702 I-0.0922 J0.0
G2 X3.6578 Y0.7503 I0.0461 J0.0798
G1 F10.0 Z-0.13
G2 F30.0 X3.7039 Y0.8298 I0.0922 J-0.0003
G2 X3.8422 Y0.75 I0.0461 J-0.0798
G2 X3.7039 Y0.6702 I-0.0922 J0.0
G2 X3.6578 Y0.7503 I0.0461 J0.0798
G1 F10.0 Z-0.195
G2 F30.0 X3.7039 Y0.8298 I0.0922 J-0.0003
G2 X3.8422 Y0.75 I0.0461 J-0.0798
G2 X3.7039 Y0.6702 I-0.0922 J0.0
G2 X3.6578 Y0.7503 I0.0461 J0.0798
G1 F10.0 Z-0.26
G2 F30.0 X3.7039 Y0.8298 I0.0922 J-0.0003
G2 X3.8422 Y0.75 I0.0461 J-0.0798
G2 X3.7039 Y0.6702 I-0.0922 J0.0
G2 X3.6578 Y0.7503 I0.0461 J0.0798
G0 Z0.125
G0 X5.1578 Y0.75
G0 Z0.0625
G1 F10.0 Z-0.065
G2 F30.0 X5.2039 Y0.8298 I0.0922 J0.0
G2 X5.3422 Y0.75 I0.0461 J-0.0798
G2 X5.2039 Y0.6702 I-0.0922 J0.0
G2 X5.1578 Y0.75 I0.0461 J0.0798
G1 F10.0 Z-0.13
G2 F30.0 X5.2039 Y0.8298 I0.0922 J0.0
G2 X5.3422 Y0.75 I0.0461 J-0.0798
G2 X5.2039 Y0.6702 I-0.0922 J0.0
G2 X5.1578 Y0.75 I0.0461 J0.0798
G1 F10.0 Z-0.195
G2 F30.0 X5.2039 Y0.8298 I0.0922 J0.0
G2 X5.3422 Y0.75 I0.0461 J-0.0798
G2 X5.2039 Y0.6702 I-0.0922 J0.0
G2 X5.1578 Y0.75 I0.0461 J0.0798
G1 F10.0 Z-0.26
G2 F30.0 X5.2039 Y0.8298 I0.0922 J0.0
G2 X5.3422 Y0.75 I0.0461 J-0.0798
G2 X5.2039 Y0.6702 I-0.0922 J0.0
G2 X5.1578 Y0.75 I0.0461 J0.0798
G0 Z0.125
G0 X5.9887 Y4.0338
G0 Z0.0625
G1 F10.0 Z-0.065
G2 F30.0 X5.7935 Y4.1464 I0.1017 J0.4018
G1 X3.6783 Y6.6237
G2 X3.9279 Y7.1665 I0.3325 J0.1759
G1 X5.6327 Y7.1713
G2 X6.5027 Y6.3013 I-0.0633 J-0.9332
G1 X6.504 Y4.4092
G2 X5.9887 Y4.0338 I-0.4136 J0.0264
G1 F10.0 Z-0.13
G2 F30.0 X5.7935 Y4.1464 I0.1017 J0.4018
G1 X3.6783 Y6.6237
G2 X3.9279 Y7.1665 I0.3325 J0.1759
G1 X5.6327 Y7.1713
G2 X6.5027 Y6.3013 I-0.0633 J-0.9332
G1 X6.504 Y4.4092
G2 X5.9887 Y4.0338 I-0.4136 J0.0264
G1 F10.0 Z-0.195
G2 F30.0 X5.7935 Y4.1464 I0.1017 J0.4018
G1 X3.6783 Y6.6237
G2 X3.9279 Y7.1665 I0.3325 J0.1759
G1 X5.6327 Y7.1713
G2 X6.5027 Y6.3013 I-0.0633 J-0.9332
G1 X6.504 Y4.4092
G2 X5.9887 Y4.0338 I-0.4136 J0.0264
G1 F10.0 Z-0.26
G2 F30.0 X5.7935 Y4.1464 I0.1017 J0.4018
G1 X3.6783 Y6.6237
G2 X3.9279 Y7.1665 I0.3325 J0.1759
G1 X5.6327 Y7.1713
G2 X6.5027 Y6.3013 I-0.0633 J-0.9332
G1 X6.504 Y4.4092
G2 X5.9887 Y4.0338 I-0.4136 J0.0264
G0 Z0.125
G0 X7.2342 Y3.5231
G0 Z0.0625
G1 F10.0 Z-0.065
G2 F30.0 X7.2734 Y3.5679 I0.0853 J-0.035
G2 X7.4116 Y3.4881 I0.0461 J-0.0798
G2 X7.2734 Y3.4083 I-0.0922 J0.0
G2 X7.2342 Y3.5231 I0.0461 J0.0798
G1 F10.0 Z-0.13
G2 F30.0 X7.2734 Y3.5679 I0.0853 J-0.035
G2 X7.4116 Y3.4881 I0.0461 J-0.0798
G2 X7.2734 Y3.4083 I-0.0922 J0.0
G2 X7.2342 Y3.5231 I0.0461 J0.0798
G1 F10.0 Z-0.195
G2 F30.0 X7.2734 Y3.5679 I0.0853 J-0.035
G2 X7.4116 Y3.4881 I0.0461 J-0.0798
G2 X7.2734 Y3.4083 I-0.0922 J0.0
G2 X7.2342 Y3.5231 I0.0461 J0.0798
G1 F10.0 Z-0.26
G2 F30.0 X7.2734 Y3.5679 I0.0853 J-0.035
G2 X7.4116 Y3.4881 I0.0461 J-0.0798
G2 X7.2734 Y3.4083 I-0.0922 J0.0
G2 X7.2342 Y3.5231 I0.0461 J0.0798
G0 Z0.125
G0 X7.3141 Y4.8961
G0 Z0.0625
G1 F10.0 Z-0.065
G2 F30.0 X7.2734 Y4.9083 I0.0054 J0.092
G2 Y5.0679 I0.0461 J0.0798
G2 X7.4116 Y4.9881 I0.0461 J-0.0798
G2 X7.3141 Y4.8961 I-0.0922 J0.0
G1 F10.0 Z-0.13
G2 F30.0 X7.2734 Y4.9083 I0.0054 J0.092
G2 Y5.0679 I0.0461 J0.0798
G2 X7.4116 Y4.9881 I0.0461 J-0.0798
G2 X7.3141 Y4.8961 I-0.0922 J0.0
G1 F10.0 Z-0.195
G2 F30.0 X7.2734 Y4.9083 I0.0054 J0.092
G2 Y5.0679 I0.0461 J0.0798
G2 X7.4116 Y4.9881 I0.0461 J-0.0798
G2 X7.3141 Y4.8961 I-0.0922 J0.0
G1 F10.0 Z-0.26
G2 F30.0 X7.2734 Y4.9083 I0.0054 J0.092
G2 Y5.0679 I0.0461 J0.0798
G2 X7.4116 Y4.9881 I0.0461 J-0.0798
G2 X7.3141 Y4.8961 I-0.0922 J0.0
G0 Z0.125
G0 X7.3191 Y6.3959
G0 Z0.0625
G1 F10.0 Z-0.065
G2 F30.0 X7.2734 Y6.4083 I0.0003 J0.0922
G2 Y6.5679 I0.0461 J0.0798
G2 X7.4116 Y6.4881 I0.0461 J-0.0798
G2 X7.3191 Y6.3959 I-0.0922 J0.0
G1 F10.0 Z-0.13
G2 F30.0 X7.2734 Y6.4083 I0.0003 J0.0922
G2 Y6.5679 I0.0461 J0.0798
G2 X7.4116 Y6.4881 I0.0461 J-0.0798
G2 X7.3191 Y6.3959 I-0.0922 J0.0
G1 F10.0 Z-0.195
G2 F30.0 X7.2734 Y6.4083 I0.0003 J0.0922
G2 Y6.5679 I0.0461 J0.0798
G2 X7.4116 Y6.4881 I0.0461 J-0.0798
G2 X7.3191 Y6.3959 I-0.0922 J0.0
G1 F10.0 Z-0.26
G2 F30.0 X7.2734 Y6.4083 I0.0003 J0.0922
G2 Y6.5679 I0.0461 J0.0798
G2 X7.4116 Y6.4881 I0.0461 J-0.0798
G2 X7.3191 Y6.3959 I-0.0922 J0.0
G0 Z0.125
G0 X7.3194 Y7.8959
G0 Z0.0625
G1 F10.0 Z-0.065
G2 F30.0 X7.2734 Y7.9083 I0.0 J0.0922
G2 Y8.0679 I0.0461 J0.0798
G2 X7.4116 Y7.9881 I0.0461 J-0.0798
G2 X7.3194 Y7.8959 I-0.0922 J0.0
G1 F10.0 Z-0.13
G2 F30.0 X7.2734 Y7.9083 I0.0 J0.0922
G2 Y8.0679 I0.0461 J0.0798
G2 X7.4116 Y7.9881 I0.0461 J-0.0798
G2 X7.3194 Y7.8959 I-0.0922 J0.0
G1 F10.0 Z-0.195
G2 F30.0 X7.2734 Y7.9083 I0.0 J0.0922
G2 Y8.0679 I0.0461 J0.0798
G2 X7.4116 Y7.9881 I0.0461 J-0.0798
G2 X7.3194 Y7.8959 I-0.0922 J0.0
G1 F10.0 Z-0.26
G2 F30.0 X7.2734 Y7.9083 I0.0 J0.0922
G2 Y8.0679 I0.0461 J0.0798
G2 X7.4116 Y7.9881 I0.0461 J-0.0798
G2 X7.3194 Y7.8959 I-0.0922 J0.0
G0 Z0.125
G0 X5.9114 Y7.9824
G0 Z0.0625
G1 F10.0 Z-0.065
G2 F30.0 X5.7734 Y7.9083 I-0.092 J0.0057
G2 Y8.0679 I0.0461 J0.0798
G2 X5.9116 Y7.9881 I0.0461 J-0.0798
G2 X5.9114 Y7.9824 I-0.0922 J0.0
G1 F10.0 Z-0.13
G2 F30.0 X5.7734 Y7.9083 I-0.092 J0.0057
G2 Y8.0679 I0.0461 J0.0798
G2 X5.9116 Y7.9881 I0.0461 J-0.0798
G2 X5.9114 Y7.9824 I-0.0922 J0.0
G1 F10.0 Z-0.195
G2 F30.0 X5.7734 Y7.9083 I-0.092 J0.0057
G2 Y8.0679 I0.0461 J0.0798
G2 X5.9116 Y7.9881 I0.0461 J-0.0798
G2 X5.9114 Y7.9824 I-0.0922 J0.0
G1 F10.0 Z-0.26
G2 F30.0 X5.7734 Y7.9083 I-0.092 J0.0057
G2 Y8.0679 I0.0461 J0.0798
G2 X5.9116 Y7.9881 I0.0461 J-0.0798
G2 X5.9114 Y7.9824 I-0.0922 J0.0
G0 Z0.125
G0 X4.4116 Y7.9878
G0 Z0.0625
G1 F10.0 Z-0.065
G2 F30.0 X4.2734 Y7.9083 I-0.0922 J0.0003
G2 Y8.0679 I0.0461 J0.0798
G2 X4.4116 Y7.9881 I0.0461 J-0.0798
G2 Y7.9878 I-0.0922 J0.0
G1 F10.0 Z-0.13
G2 F30.0 X4.2734 Y7.9083 I-0.0922 J0.0003
G2 Y8.0679 I0.0461 J0.0798
G2 X4.4116 Y7.9881 I0.0461 J-0.0798
G2 Y7.9878 I-0.0922 J0.0
G1 F10.0 Z-0.195
G2 F30.0 X4.2734 Y7.9083 I-0.0922 J0.0003
G2 Y8.0679 I0.0461 J0.0798
G2 X4.4116 Y7.9881 I0.0461 J-0.0798
G2 Y7.9878 I-0.0922 J0.0
G1 F10.0 Z-0.26
G2 F30.0 X4.2734 Y7.9083 I-0.0922 J0.0003
G2 Y8.0679 I0.0461 J0.0798
G2 X4.4116 Y7.9881 I0.0461 J-0.0798
G2 Y7.9878 I-0.0922 J0.0
G0 Z0.125
G0 X2.9116 Y7.9881
G0 Z0.0625
G1 F10.0 Z-0.065
G2 F30.0 X2.7734 Y7.9083 I-0.0922 J0.0
G2 Y8.0679 I0.0461 J0.0798
G2 X2.9116 Y7.9881 I0.0461 J-0.0798
G1 F10.0 Z-0.13
G2 F30.0 X2.7734 Y7.9083 I-0.0922 J0.0
G2 Y8.0679 I0.0461 J0.0798
G2 X2.9116 Y7.9881 I0.0461 J-0.0798
G1 F10.0 Z-0.195
G2 F30.0 X2.7734 Y7.9083 I-0.0922 J0.0
G2 Y8.0679 I0.0461 J0.0798
G2 X2.9116 Y7.9881 I0.0461 J-0.0798
G1 F10.0 Z-0.26
G2 F30.0 X2.7734 Y7.9083 I-0.0922 J0.0
G2 Y8.0679 I0.0461 J0.0798
G2 X2.9116 Y7.9881 I0.0461 J-0.0798
G0 Z0.125
G0 X9.2426 Y3.8008
G0 Z0.0625
G1 F10.0 Z-0.065
G2 F30.0 X9.2734 Y3.8298 I0.0769 J-0.0508
G2 X9.4116 Y3.75 I0.0461 J-0.0798
G2 X9.2734 Y3.6702 I-0.0922 J0.0
G2 X9.2426 Y3.8008 I0.0461 J0.0798
G1 F10.0 Z-0.13
G2 F30.0 X9.2734 Y3.8298 I0.0769 J-0.0508
G2 X9.4116 Y3.75 I0.0461 J-0.0798
G2 X9.2734 Y3.6702 I-0.0922 J0.0
G2 X9.2426 Y3.8008 I0.0461 J0.0798
G1 F10.0 Z-0.195
G2 F30.0 X9.2734 Y3.8298 I0.0769 J-0.0508
G2 X9.4116 Y3.75 I0.0461 J-0.0798
G2 X9.2734 Y3.6702 I-0.0922 J0.0
G2 X9.2426 Y3.8008 I0.0461 J0.0798
G1 F10.0 Z-0.26
G2 F30.0 X9.2734 Y3.8298 I0.0769 J-0.0508
G2 X9.4116 Y3.75 I0.0461 J-0.0798
G2 X9.2734 Y3.6702 I-0.0922 J0.0
G2 X9.2426 Y3.8008 I0.0461 J0.0798
G0 Z0.125
G0 X9.3148 Y2.3434
G0 Z0.0625
G1 F10.0 Z-0.065
G2 F30.0 X9.4129 Y2.25 I0.0046 J-0.0934
G2 X9.2727 Y2.169 I-0.0935 J0.0
G2 Y2.331 I0.0467 J0.081
G2 X9.3148 Y2.3434 I0.0467 J-0.081
G1 F10.0 Z-0.13
G2 F30.0 X9.4129 Y2.25 I0.0046 J-0.0934
G2 X9.2727 Y2.169 I-0.0935 J0.0
G2 Y2.331 I0.0467 J0.081
G2 X9.3148 Y2.3434 I0.0467 J-0.081
G1 F10.0 Z-0.195
G2 F30.0 X9.4129 Y2.25 I0.0046 J-0.0934
G2 X9.2727 Y2.169 I-0.0935 J0.0
G2 Y2.331 I0.0467 J0.081
G2 X9.3148 Y2.3434 I0.0467 J-0.081
G1 F10.0 Z-0.26
G2 F30.0 X9.4129 Y2.25 I0.0046 J-0.0934
G2 X9.2727 Y2.169 I-0.0935 J0.0
G2 Y2.331 I0.0467 J0.081
G2 X9.3148 Y2.3434 I0.0467 J-0.081
G0 Z0.125
G0 X9.3192 Y0.8422
G0 Z0.0625
G1 F10.0 Z-0.065
G2 F30.0 X9.4116 Y0.75 I0.0003 J-0.0922
G2 X9.2734 Y0.6702 I-0.0922 J0.0
G2 Y0.8298 I0.0461 J0.0798
G2 X9.3192 Y0.8422 I0.0461 J-0.0798
G1 F10.0 Z-0.13
G2 F30.0 X9.4116 Y0.75 I0.0003 J-0.0922
G2 X9.2734 Y0.6702 I-0.0922 J0.0
G2 Y0.8298 I0.0461 J0.0798
G2 X9.3192 Y0.8422 I0.0461 J-0.0798
G1 F10.0 Z-0.195
G2 F30.0 X9.4116 Y0.75 I0.0003 J-0.0922
G2 X9.2734 Y0.6702 I-0.0922 J0.0
G2 Y0.8298 I0.0461 J0.0798
G2 X9.3192 Y0.8422 I0.0461 J-0.0798
G1 F10.0 Z-0.26
G2 F30.0 X9.4116 Y0.75 I0.0003 J-0.0922
G2 X9.2734 Y0.6702 I-0.0922 J0.0
G2 Y0.8298 I0.0461 J0.0798
G2 X9.3192 Y0.8422 I0.0461 J-0.0798
G0 Z0.125
G0 X10.7261 Y0.7557
G0 Z0.0625
G1 F10.0 Z-0.065
G2 F30.0 X10.7727 Y0.831 I0.0933 J-0.0057
G2 X10.9129 Y0.75 I0.0467 J-0.081
G2 X10.7727 Y0.669 I-0.0935 J0.0
G2 X10.7261 Y0.7557 I0.0467 J0.081
G1 F10.0 Z-0.13
G2 F30.0 X10.7727 Y0.831 I0.0933 J-0.0057
G2 X10.9129 Y0.75 I0.0467 J-0.081
G2 X10.7727 Y0.669 I-0.0935 J0.0
G2 X10.7261 Y0.7557 I0.0467 J0.081
G1 F10.0 Z-0.195
G2 F30.0 X10.7727 Y0.831 I0.0933 J-0.0057
G2 X10.9129 Y0.75 I0.0467 J-0.081
G2 X10.7727 Y0.669 I-0.0935 J0.0
G2 X10.7261 Y0.7557 I0.0467 J0.081
G1 F10.0 Z-0.26
G2 F30.0 X10.7727 Y0.831 I0.0933 J-0.0057
G2 X10.9129 Y0.75 I0.0467 J-0.081
G2 X10.7727 Y0.669 I-0.0935 J0.0
G2 X10.7261 Y0.7557 I0.0467 J0.081
G0 Z0.125
G0 X12.2273 Y0.7503
G0 Z0.0625
G1 F10.0 Z-0.065
G2 F30.0 X12.2734 Y0.8298 I0.0922 J-0.0003
G2 X12.4116 Y0.75 I0.0461 J-0.0798
G2 X12.2734 Y0.6702 I-0.0922 J0.0
G2 X12.2273 Y0.7503 I0.0461 J0.0798
G1 F10.0 Z-0.13
G2 F30.0 X12.2734 Y0.8298 I0.0922 J-0.0003
G2 X12.4116 Y0.75 I0.0461 J-0.0798
G2 X12.2734 Y0.6702 I-0.0922 J0.0
G2 X12.2273 Y0.7503 I0.0461 J0.0798
G1 F10.0 Z-0.195
G2 F30.0 X12.2734 Y0.8298 I0.0922 J-0.0003
G2 X12.4116 Y0.75 I0.0461 J-0.0798
G2 X12.2734 Y0.6702 I-0.0922 J0.0
G2 X12.2273 Y0.7503 I0.0461 J0.0798
G1 F10.0 Z-0.26
G2 F30.0 X12.2734 Y0.8298 I0.0922 J-0.0003
G2 X12.4116 Y0.75 I0.0461 J-0.0798
G2 X12.2734 Y0.6702 I-0.0922 J0.0
G2 X12.2273 Y0.7503 I0.0461 J0.0798
G0 Z0.125
G0 X14.2273 Y0.75
G0 Z0.0625
G1 F10.0 Z-0.065
G2 F30.0 X14.2734 Y0.8298 I0.0922 J0.0
G2 X14.4116 Y0.75 I0.0461 J-0.0798
G2 X14.2734 Y0.6702 I-0.0922 J0.0
G2 X14.2273 Y0.75 I0.0461 J0.0798
G1 F10.0 Z-0.13
G2 F30.0 X14.2734 Y0.8298 I0.0922 J0.0
G2 X14.4116 Y0.75 I0.0461 J-0.0798
G2 X14.2734 Y0.6702 I-0.0922 J0.0
G2 X14.2273 Y0.75 I0.0461 J0.0798
G1 F10.0 Z-0.195
G2 F30.0 X14.2734 Y0.8298 I0.0922 J0.0
G2 X14.4116 Y0.75 I0.0461 J-0.0798
G2 X14.2734 Y0.6702 I-0.0922 J0.0
G2 X14.2273 Y0.75 I0.0461 J0.0798
G1 F10.0 Z-0.26
G2 F30.0 X14.2734 Y0.8298 I0.0922 J0.0
G2 X14.4116 Y0.75 I0.0461 J-0.0798
G2 X14.2734 Y0.6702 I-0.0922 J0.0
G2 X14.2273 Y0.75 I0.0461 J0.0798
G0 Z0.125
G0 X14.3137 Y2.1567
G0 Z0.0625
G1 F10.0 Z-0.065
G2 F30.0 X14.2727 Y2.169 I0.0057 J0.0933
G2 Y2.331 I0.0467 J0.081
G2 X14.4129 Y2.25 I0.0467 J-0.081
G2 X14.3137 Y2.1567 I-0.0935 J0.0
G1 F10.0 Z-0.13
G2 F30.0 X14.2727 Y2.169 I0.0057 J0.0933
G2 Y2.331 I0.0467 J0.081
G2 X14.4129 Y2.25 I0.0467 J-0.081
G2 X14.3137 Y2.1567 I-0.0935 J0.0
G1 F10.0 Z-0.195
G2 F30.0 X14.2727 Y2.169 I0.0057 J0.0933
G2 Y2.331 I0.0467 J0.081
G2 X14.4129 Y2.25 I0.0467 J-0.081
G2 X14.3137 Y2.1567 I-0.0935 J0.0
G1 F10.0 Z-0.26
G2 F30.0 X14.2727 Y2.169 I0.0057 J0.0933
G2 Y2.331 I0.0467 J0.081
G2 X14.4129 Y2.25 I0.0467 J-0.081
G2 X14.3137 Y2.1567 I-0.0935 J0.0
G0 Z0.125
G0 X14.3191 Y3.6578
G0 Z0.0625
G1 F10.0 Z-0.065
G2 F30.0 X14.2734 Y3.6702 I0.0003 J0.0922
G2 Y3.8298 I0.0461 J0.0798
G2 X14.4116 Y3.75 I0.0461 J-0.0798
G2 X14.3191 Y3.6578 I-0.0922 J0.0
G1 F10.0 Z-0.13
G2 F30.0 X14.2734 Y3.6702 I0.0003 J0.0922
G2 Y3.8298 I0.0461 J0.0798
G2 X14.4116 Y3.75 I0.0461 J-0.0798
G2 X14.3191 Y3.6578 I-0.0922 J0.0
G1 F10.0 Z-0.195
G2 F30.0 X14.2734 Y3.6702 I0.0003 J0.0922
G2 Y3.8298 I0.0461 J0.0798
G2 X14.4116 Y3.75 I0.0461 J-0.0798
G2 X14.3191 Y3.6578 I-0.0922 J0.0
G1 F10.0 Z-0.26
G2 F30.0 X14.2734 Y3.6702 I0.0003 J0.0922
G2 Y3.8298 I0.0461 J0.0798
G2 X14.4116 Y3.75 I0.0461 J-0.0798
G2 X14.3191 Y3.6578 I-0.0922 J0.0
G0 Z0.125
G0 X12.9128 Y3.7443
G0 Z0.0625
G1 F10.0 Z-0.065
G2 F30.0 X12.7727 Y3.669 I-0.0933 J0.0057
G2 Y3.831 I0.0467 J0.081
G2 X12.9129 Y3.75 I0.0467 J-0.081
G2 X12.9128 Y3.7443 I-0.0935 J0.0
G1 F10.0 Z-0.13
G2 F30.0 X12.7727 Y3.669 I-0.0933 J0.0057
G2 Y3.831 I0.0467 J0.081
G2 X12.9129 Y3.75 I0.0467 J-0.081
G2 X12.9128 Y3.7443 I-0.0935 J0.0
G1 F10.0 Z-0.195
G2 F30.0 X12.7727 Y3.669 I-0.0933 J0.0057
G2 Y3.831 I0.0467 J0.081
G2 X12.9129 Y3.75 I0.0467 J-0.081
G2 X12.9128 Y3.7443 I-0.0935 J0.0
G1 F10.0 Z-0.26
G2 F30.0 X12.7727 Y3.669 I-0.0933 J0.0057
G2 Y3.831 I0.0467 J0.081
G2 X12.9129 Y3.75 I0.0467 J-0.081
G2 X12.9128 Y3.7443 I-0.0935 J0.0
G0 Z0.125
G0 X11.4116 Y3.7497
G0 Z0.0625
G1 F10.0 Z-0.065
G2 F30.0 X11.2734 Y3.6702 I-0.0922 J0.0003
G2 Y3.8298 I0.0461 J0.0798
G2 X11.4116 Y3.75 I0.0461 J-0.0798
G2 Y3.7497 I-0.0922 J0.0
G1 F10.0 Z-0.13
G2 F30.0 X11.2734 Y3.6702 I-0.0922 J0.0003
G2 Y3.8298 I0.0461 J0.0798
G2 X11.4116 Y3.75 I0.0461 J-0.0798
G2 Y3.7497 I-0.0922 J0.0
G1 F10.0 Z-0.195
G2 F30.0 X11.2734 Y3.6702 I-0.0922 J0.0003
G2 Y3.8298 I0.0461 J0.0798
G2 X11.4116 Y3.75 I0.0461 J-0.0798
G2 Y3.7497 I-0.0922 J0.0
G1 F10.0 Z-0.26
G2 F30.0 X11.2734 Y3.6702 I-0.0922 J0.0003
G2 Y3.8298 I0.0461 J0.0798
G2 X11.4116 Y3.75 I0.0461 J-0.0798
G2 Y3.7497 I-0.0922 J0.0
( outline )
S1000
G0 Z0.125
G0 X9.6944 Y4.5625
G0 Z0.0625
G1 F10.0 Z-0.065
G1 F30.0 X8.9444
G3 X8.5069 Y4.125 I0.0 J-0.4375
G1 Y0.375
G3 X8.9444 Y-0.0625 I0.4375 J0.0
G1 X12.6944
G3 X13.1319 Y0.375 I0.0 J0.4375
G1 Y1.125
G3 X12.6713 Y1.5623 I-0.4382 J-0.0003
G1 X10.3194 Y1.5625
G2 X10.1319 Y1.75 I0.0 J0.1875
G1 Y4.125
G3 X9.6944 Y4.5625 I-0.4375 J0.0
G1 F10.0 Z-0.13
G1 F30.0 X8.9444
G3 X8.5069 Y4.125 I0.0 J-0.4375
G1 Y0.375
G3 X8.9444 Y-0.0625 I0.4375 J0.0
G1 X12.6944
G3 X13.1319 Y0.375 I0.0 J0.4375
G1 Y1.125
G3 X12.6713 Y1.5623 I-0.4382 J-0.0003
G1 X10.3194 Y1.5625
G2 X10.1319 Y1.75 I0.0 J0.1875
G1 Y4.125
G3 X9.6944 Y4.5625 I-0.4375 J0.0
G1 F10.0 Z-0.195
G1 F30.0 X8.9444
G3 X8.5069 Y4.125 I0.0 J-0.4375
G1 Y0.375
G3 X8.9444 Y-0.0625 I0.4375 J0.0
G1 X12.6944
G3 X13.1319 Y0.375 I0.0 J0.4375
G1 Y1.125
G3 X12.6713 Y1.5623 I-0.4382 J-0.0003
G1 X10.3194 Y1.5625
G2 X10.1319 Y1.75 I0.0 J0.1875
G1 Y4.125
G3 X9.6944 Y4.5625 I-0.4375 J0.0
G1 F10.0 Z-0.26
G1 F30.0 X8.9444
G3 X8.5069 Y4.125 I0.0 J-0.4375
G1 Y0.375
G3 X8.9444 Y-0.0625 I0.4375 J0.0
G1 X12.6944
G3 X13.1319 Y0.375 I0.0 J0.4375
G1 Y1.125
G3 X12.6713 Y1.5623 I-0.4382 J-0.0003
G1 X10.3194 Y1.5625
G2 X10.1319 Y1.75 I0.0 J0.1875
G1 Y4.125
G3 X9.6944 Y4.5625 I-0.4375 J0.0
G0 Z0.125
G0 X10.5315 Y4.2695
G0 Z0.0625
G1 F10.0 Z-0.065
G3 F30.0 X10.5069 Y4.125 I0.4129 J-0.1445
G1 Y3.375
G3 X10.9675 Y2.9377 I0.4382 J0.0003
G1 X13.3194 Y2.9375
G2 X13.5069 Y2.75 I0.0 J-0.1875
G1 Y0.375
G3 X13.9444 Y-0.0625 I0.4375 J0.0
G1 X14.6944
G3 X15.1319 Y0.375 I0.0 J0.4375
G1 Y4.125
G3 X14.6944 Y4.5625 I-0.4375 J0.0
G1 X10.9444
G3 X10.5315 Y4.2695 I0.0 J-0.4375
G1 F10.0 Z-0.13
G3 F30.0 X10.5069 Y4.125 I0.4129 J-0.1445
G1 Y3.375
G3 X10.9675 Y2.9377 I0.4382 J0.0003
G1 X13.3194 Y2.9375
G2 X13.5069 Y2.75 I0.0 J-0.1875
G1 Y0.375
G3 X13.9444 Y-0.0625 I0.4375 J0.0
G1 X14.6944
G3 X15.1319 Y0.375 I0.0 J0.4375
G1 Y4.125
G3 X14.6944 Y4.5625 I-0.4375 J0.0
G1 X10.9444
G3 X10.5315 Y4.2695 I0.0 J-0.4375
G1 F10.0 Z-0.195
G3 F30.0 X10.5069 Y4.125 I0.4129 J-0.1445
G1 Y3.375
G3 X10.9675 Y2.9377 I0.4382 J0.0003
G1 X13.3194 Y2.9375
G2 X13.5069 Y2.75 I0.0 J-0.1875
G1 Y0.375
G3 X13.9444 Y-0.0625 I0.4375 J0.0
G1 X14.6944
G3 X15.1319 Y0.375 I0.0 J0.4375
G1 Y4.125
G3 X14.6944 Y4.5625 I-0.4375 J0.0
G1 X10.9444
G3 X10.5315 Y4.2695 I0.0 J-0.4375
G1 F10.0 Z-0.26
G3 F30.0 X10.5069 Y4.125 I0.4129 J-0.1445
G1 Y3.375
G3 X10.9675 Y2.9377 I0.4382 J0.0003
G1 X13.3194 Y2.9375
G2 X13.5069 Y2.75 I0.0 J-0.1875
G1 Y0.375
G3 X13.9444 Y-0.0625 I0.4375 J0.0
G1 X14.6944
G3 X15.1319 Y0.375 I0.0 J0.4375
G1 Y4.125
G3 X14.6944 Y4.5625 I-0.4375 J0.0
G1 X10.9444
G3 X10.5315 Y4.2695 I0.0 J-0.4375
G0 Z0.125
G0 X8.1319
G0 Z0.0625
G1 F10.0 Z-0.065
G1 F30.0 Y8.7381
G3 X8.0694 Y8.8006 I-0.0625 J0.0
G1 X2.0694
G3 X2.0069 Y8.7381 I0.0 J-0.0625
G1 Y7.2381
G3 X2.022 Y7.1974 I0.0625 J0.0
G1 X6.522 Y1.9474
G3 X6.5694 Y1.9256 I0.0475 J0.0407
G1 X8.0694
G3 X8.1319 Y1.9881 I0.0 J0.0625
G1 Y4.2695
G1 F10.0 Z-0.13
G1 F30.0 Y8.7381
G3 X8.0694 Y8.8006 I-0.0625 J0.0
G1 X2.0694
G3 X2.0069 Y8.7381 I0.0 J-0.0625
G1 Y7.2381
G3 X2.022 Y7.1974 I0.0625 J0.0
G1 X6.522 Y1.9474
G3 X6.5694 Y1.9256 I0.0475 J0.0407
G1 X8.0694
G3 X8.1319 Y1.9881 I0.0 J0.0625
G1 Y4.2695
G1 F10.0 Z-0.195
G1 F30.0 Y8.7381
G3 X8.0694 Y8.8006 I-0.0625 J0.0
G1 X2.0694
G3 X2.0069 Y8.7381 I0.0 J-0.0625
G1 Y7.2381
G3 X2.022 Y7.1974 I0.0625 J0.0
G1 X6.522 Y1.9474
G3 X6.5694 Y1.9256 I0.0475 J0.0407
G1 X8.0694
G3 X8.1319 Y1.9881 I0.0 J0.0625
G1 Y4.2695
G1 F10.0 Z-0.26
G1 F30.0 Y8.7381
G3 X8.0694 Y8.8006 I-0.0625 J0.0
G1 X2.0694
G3 X2.0069 Y8.7381 I0.0 J-0.0625
G1 Y7.2381
G3 X2.022 Y7.1974 I0.0625 J0.0
G1 X6.522 Y1.9474
G3 X6.5694 Y1.9256 I0.0475 J0.0407
G1 X8.0694
G3 X8.1319 Y1.9881 I0.0 J0.0625
G1 Y4.2695
G0 Z0.125
G0 X5.5819 Y2.0838
G0 Z0.0625
G1 F10.0 Z-0.065
G1 F30.0 X1.5475 Y6.7907
G3 X1.5 Y6.8125 I-0.0475 J-0.0407
G1 X0.0
G3 X-0.0625 Y6.75 I0.0 J-0.0625
G1 Y0.0
G3 X0.0 Y-0.0625 I0.0625 J0.0
G1 X6.0
G3 X6.0625 Y0.0 I0.0 J0.0625
G1 Y1.5
G3 X6.0475 Y1.5407 I-0.0625 J0.0
G1 X5.5819 Y2.0838
G1 F10.0 Z-0.13
G1 F30.0 X1.5475 Y6.7907
G3 X1.5 Y6.8125 I-0.0475 J-0.0407
G1 X0.0
G3 X-0.0625 Y6.75 I0.0 J-0.0625
G1 Y0.0
G3 X0.0 Y-0.0625 I0.0625 J0.0
G1 X6.0
G3 X6.0625 Y0.0 I0.0 J0.0625
G1 Y1.5
G3 X6.0475 Y1.5407 I-0.0625 J0.0
G1 X5.5819 Y2.0838
G1 F10.0 Z-0.195
G1 F30.0 X1.5475 Y6.7907
G3 X1.5 Y6.8125 I-0.0475 J-0.0407
G1 X0.0
G3 X-0.0625 Y6.75 I0.0 J-0.0625
G1 Y0.0
G3 X0.0 Y-0.0625 I0.0625 J0.0
G1 X6.0
G3 X6.0625 Y0.0 I0.0 J0.0625
G1 Y1.5
G3 X6.0475 Y1.5407 I-0.0625 J0.0
G1 X5.5819 Y2.0838
G1 F10.0 Z-0.26
G1 F30.0 X1.5475 Y6.7907
G3 X1.5 Y6.8125 I-0.0475 J-0.0407
G1 X0.0
G3 X-0.0625 Y6.75 I0.0 J-0.0625
G1 Y0.0
G3 X0.0 Y-0.0625 I0.0625 J0.0
G1 X6.0
G3 X6.0625 Y0.0 I0.0 J0.0625
G1 Y1.5
G3 X6.0475 Y1.5407 I-0.0625 J0.0
G1 X5.5819 Y2.0838
G0 Z0.125
M5
M30
