( Made using CamBam - http://www.cambam.co.uk )
( motor_spacer 9/18/2014 2:58:10 PM )
( T0 : 0.0 )
G20 G90 G64 G40
G0 Z0.125
( T0 : 0.0 )
T0 M6
( Motor_drills )
G17
M3 S1000
G0 X0.2161 Y1.4567
G98
G81 X0.2161 Y1.4567 Z-0.26 R0.125 F10.0
G81 X0.2165 Y0.2362 Z-0.26
G81 X1.4372 Y0.2352 Z-0.26
G81 Y1.4541 Z-0.26
G80
( cutout )
S1000
G0 Z0.125
G0 X1.1957 Y0.8465
G0 Z0.0625
G1 F10.0 Z-0.065
G2 F30.0 X0.6423 Y0.527 I-0.3689 J0.0
G2 Y1.1659 I0.1845 J0.3195
G2 X1.1957 Y0.8465 I0.1845 J-0.3195
G1 F10.0 Z-0.13
G2 F30.0 X0.6423 Y0.527 I-0.3689 J0.0
G2 Y1.1659 I0.1845 J0.3195
G2 X1.1957 Y0.8465 I0.1845 J-0.3195
G1 F10.0 Z-0.195
G2 F30.0 X0.6423 Y0.527 I-0.3689 J0.0
G2 Y1.1659 I0.1845 J0.3195
G2 X1.1957 Y0.8465 I0.1845 J-0.3195
G1 F10.0 Z-0.26
G2 F30.0 X0.6423 Y0.527 I-0.3689 J0.0
G2 Y1.1659 I0.1845 J0.3195
G2 X1.1957 Y0.8465 I0.1845 J-0.3195
( outline )
S1000
G0 Z0.125
G0 X0.152 Y-0.0625
G0 Z0.0625
G1 F10.0 Z-0.065
G1 F30.0 X1.5016
G3 X1.5458 Y-0.0442 I0.0 J0.0625
G1 X1.6978 Y0.1078
G3 X1.7161 Y0.152 I-0.0442 J0.0442
G1 Y1.5409
G3 X1.6978 Y1.5851 I-0.0625 J0.0
G1 X1.5458 Y1.7371
G3 X1.5016 Y1.7554 I-0.0442 J-0.0442
G1 X0.152
G3 X0.1078 Y1.7371 I0.0 J-0.0625
G1 X-0.0442 Y1.5851
G3 X-0.0625 Y1.5409 I0.0442 J-0.0442
G1 Y0.152
G3 X-0.0442 Y0.1078 I0.0625 J0.0
G1 X0.1078 Y-0.0442
G3 X0.152 Y-0.0625 I0.0442 J0.0442
G1 F10.0 Z-0.13
G1 F30.0 X1.5016
G3 X1.5458 Y-0.0442 I0.0 J0.0625
G1 X1.6978 Y0.1078
G3 X1.7161 Y0.152 I-0.0442 J0.0442
G1 Y1.5409
G3 X1.6978 Y1.5851 I-0.0625 J0.0
G1 X1.5458 Y1.7371
G3 X1.5016 Y1.7554 I-0.0442 J-0.0442
G1 X0.152
G3 X0.1078 Y1.7371 I0.0 J-0.0625
G1 X-0.0442 Y1.5851
G3 X-0.0625 Y1.5409 I0.0442 J-0.0442
G1 Y0.152
G3 X-0.0442 Y0.1078 I0.0625 J0.0
G1 X0.1078 Y-0.0442
G3 X0.152 Y-0.0625 I0.0442 J0.0442
G1 F10.0 Z-0.195
G1 F30.0 X1.5016
G3 X1.5458 Y-0.0442 I0.0 J0.0625
G1 X1.6978 Y0.1078
G3 X1.7161 Y0.152 I-0.0442 J0.0442
G1 Y1.5409
G3 X1.6978 Y1.5851 I-0.0625 J0.0
G1 X1.5458 Y1.7371
G3 X1.5016 Y1.7554 I-0.0442 J-0.0442
G1 X0.152
G3 X0.1078 Y1.7371 I0.0 J-0.0625
G1 X-0.0442 Y1.5851
G3 X-0.0625 Y1.5409 I0.0442 J-0.0442
G1 Y0.152
G3 X-0.0442 Y0.1078 I0.0625 J0.0
G1 X0.1078 Y-0.0442
G3 X0.152 Y-0.0625 I0.0442 J0.0442
G1 F10.0 Z-0.26
G1 F30.0 X1.5016
G3 X1.5458 Y-0.0442 I0.0 J0.0625
G1 X1.6978 Y0.1078
G3 X1.7161 Y0.152 I-0.0442 J0.0442
G1 Y1.5409
G3 X1.6978 Y1.5851 I-0.0625 J0.0
G1 X1.5458 Y1.7371
G3 X1.5016 Y1.7554 I-0.0442 J-0.0442
G1 X0.152
G3 X0.1078 Y1.7371 I0.0 J-0.0625
G1 X-0.0442 Y1.5851
G3 X-0.0625 Y1.5409 I0.0442 J-0.0442
G1 Y0.152
G3 X-0.0442 Y0.1078 I0.0625 J0.0
G1 X0.1078 Y-0.0442
G3 X0.152 Y-0.0625 I0.0442 J0.0442
G0 Z0.125
M5
M30
