( Made using CamBam - http://www.cambam.co.uk )
( motor_extruder_bracket 10/16/2014 4:00:08 PM )
( T0 : 0.0 )
G20 G90 G64 G40
G0 Z0.125
( T0 : 0.0 )
T0 M6
( Drill1 )
G17
M3 S1000
G0 X2.0 Y1.6535
G98
G81 X2.0 Y1.6535 Z-0.075 R0.125 F10.0
G81 X3.3 Y2.4034 Z-0.075
G81 Y4.4034 Z-0.075
G81 X2.0 Y0.0 Z-0.075
G80
( Drill2 )
S1000
G0 Z0.125
G0 X3.687 Y1.437
G98
G81 X3.687 Y1.437 Z-0.076 R0.125 F10.0
G81 Y0.2165 Z-0.076
G81 X2.467 Z-0.076
G81 X2.4665 Y1.437 Z-0.076
G80
( cutout )
S1000
G0 Z0.125
G0 X0.2957 Y0.3725
G0 Z0.0625
G1 F10.0 Z-0.015
G2 F15.0 X0.2273 Y0.333 I-0.0456 J0.0
G2 Y0.412 I0.0228 J0.0395
G2 X0.2957 Y0.3725 I0.0228 J-0.0395
G1 F10.0 Z-0.03
G2 F15.0 X0.2273 Y0.333 I-0.0456 J0.0
G2 Y0.412 I0.0228 J0.0395
G2 X0.2957 Y0.3725 I0.0228 J-0.0395
G1 F10.0 Z-0.045
G2 F15.0 X0.2273 Y0.333 I-0.0456 J0.0
G2 Y0.412 I0.0228 J0.0395
G2 X0.2957 Y0.3725 I0.0228 J-0.0395
G1 F10.0 Z-0.06
G2 F15.0 X0.2273 Y0.333 I-0.0456 J0.0
G2 Y0.412 I0.0228 J0.0395
G2 X0.2957 Y0.3725 I0.0228 J-0.0395
G1 F10.0 Z-0.075
G2 F15.0 X0.2273 Y0.333 I-0.0456 J0.0
G2 Y0.412 I0.0228 J0.0395
G2 X0.2957 Y0.3725 I0.0228 J-0.0395
G0 Z0.125
G0 X0.2523 Y1.2321
G0 Z0.0625
G1 F10.0 Z-0.015
G2 F15.0 X0.2268 Y1.2383 I-0.0023 J0.0464
G2 Y1.3188 I0.0233 J0.0403
G2 X0.2965 Y1.2785 I0.0232 J-0.0403
G2 X0.2523 Y1.2321 I-0.0465 J0.0
G1 F10.0 Z-0.03
G2 F15.0 X0.2268 Y1.2383 I-0.0023 J0.0464
G2 Y1.3188 I0.0233 J0.0403
G2 X0.2965 Y1.2785 I0.0232 J-0.0403
G2 X0.2523 Y1.2321 I-0.0465 J0.0
G1 F10.0 Z-0.045
G2 F15.0 X0.2268 Y1.2383 I-0.0023 J0.0464
G2 Y1.3188 I0.0233 J0.0403
G2 X0.2965 Y1.2785 I0.0232 J-0.0403
G2 X0.2523 Y1.2321 I-0.0465 J0.0
G1 F10.0 Z-0.06
G2 F15.0 X0.2268 Y1.2383 I-0.0023 J0.0464
G2 Y1.3188 I0.0233 J0.0403
G2 X0.2965 Y1.2785 I0.0232 J-0.0403
G2 X0.2523 Y1.2321 I-0.0465 J0.0
G1 F10.0 Z-0.075
G2 F15.0 X0.2268 Y1.2383 I-0.0023 J0.0464
G2 Y1.3188 I0.0233 J0.0403
G2 X0.2965 Y1.2785 I0.0232 J-0.0403
G2 X0.2523 Y1.2321 I-0.0465 J0.0
G0 Z0.125
G0 X1.7035 Y1.2771
G0 Z0.0625
G1 F10.0 Z-0.015
G2 F15.0 X1.7268 Y1.3188 I0.0465 J0.0014
G2 X1.7965 Y1.2785 I0.0233 J-0.0403
G2 X1.7268 Y1.2383 I-0.0465 J0.0
G2 X1.7035 Y1.2771 I0.0233 J0.0403
G1 F10.0 Z-0.03
G2 F15.0 X1.7268 Y1.3188 I0.0465 J0.0014
G2 X1.7965 Y1.2785 I0.0233 J-0.0403
G2 X1.7268 Y1.2383 I-0.0465 J0.0
G2 X1.7035 Y1.2771 I0.0233 J0.0403
G1 F10.0 Z-0.045
G2 F15.0 X1.7268 Y1.3188 I0.0465 J0.0014
G2 X1.7965 Y1.2785 I0.0233 J-0.0403
G2 X1.7268 Y1.2383 I-0.0465 J0.0
G2 X1.7035 Y1.2771 I0.0233 J0.0403
G1 F10.0 Z-0.06
G2 F15.0 X1.7268 Y1.3188 I0.0465 J0.0014
G2 X1.7965 Y1.2785 I0.0233 J-0.0403
G2 X1.7268 Y1.2383 I-0.0465 J0.0
G2 X1.7035 Y1.2771 I0.0233 J0.0403
G1 F10.0 Z-0.075
G2 F15.0 X1.7268 Y1.3188 I0.0465 J0.0014
G2 X1.7965 Y1.2785 I0.0233 J-0.0403
G2 X1.7268 Y1.2383 I-0.0465 J0.0
G2 X1.7035 Y1.2771 I0.0233 J0.0403
G0 Z0.125
G0 X1.7476 Y0.4214
G0 Z0.0625
G1 F10.0 Z-0.015
G2 F15.0 X1.7965 Y0.375 I0.0024 J-0.0464
G2 X1.7268 Y0.3347 I-0.0465 J0.0
G2 Y0.4153 I0.0233 J0.0403
G2 X1.7476 Y0.4214 I0.0233 J-0.0403
G1 F10.0 Z-0.03
G2 F15.0 X1.7965 Y0.375 I0.0024 J-0.0464
G2 X1.7268 Y0.3347 I-0.0465 J0.0
G2 Y0.4153 I0.0233 J0.0403
G2 X1.7476 Y0.4214 I0.0233 J-0.0403
G1 F10.0 Z-0.045
G2 F15.0 X1.7965 Y0.375 I0.0024 J-0.0464
G2 X1.7268 Y0.3347 I-0.0465 J0.0
G2 Y0.4153 I0.0233 J0.0403
G2 X1.7476 Y0.4214 I0.0233 J-0.0403
G1 F10.0 Z-0.06
G2 F15.0 X1.7965 Y0.375 I0.0024 J-0.0464
G2 X1.7268 Y0.3347 I-0.0465 J0.0
G2 Y0.4153 I0.0233 J0.0403
G2 X1.7476 Y0.4214 I0.0233 J-0.0403
G1 F10.0 Z-0.075
G2 F15.0 X1.7965 Y0.375 I0.0024 J-0.0464
G2 X1.7268 Y0.3347 I-0.0465 J0.0
G2 Y0.4153 I0.0233 J0.0403
G2 X1.7476 Y0.4214 I0.0233 J-0.0403
G0 Z0.125
G0 X2.6583 Y0.6992
G0 Z0.0625
G1 F10.0 Z-0.015
G2 F15.0 X2.858 Y1.2057 I0.4185 J0.1276
G2 X3.5143 Y0.8268 I0.2188 J-0.3789
G2 X2.858 Y0.4479 I-0.4375 J0.0
G2 X2.6583 Y0.6992 I0.2188 J0.3789
G1 F10.0 Z-0.03
G2 F15.0 X2.858 Y1.2057 I0.4185 J0.1276
G2 X3.5143 Y0.8268 I0.2188 J-0.3789
G2 X2.858 Y0.4479 I-0.4375 J0.0
G2 X2.6583 Y0.6992 I0.2188 J0.3789
G1 F10.0 Z-0.045
G2 F15.0 X2.858 Y1.2057 I0.4185 J0.1276
G2 X3.5143 Y0.8268 I0.2188 J-0.3789
G2 X2.858 Y0.4479 I-0.4375 J0.0
G2 X2.6583 Y0.6992 I0.2188 J0.3789
G1 F10.0 Z-0.06
G2 F15.0 X2.858 Y1.2057 I0.4185 J0.1276
G2 X3.5143 Y0.8268 I0.2188 J-0.3789
G2 X2.858 Y0.4479 I-0.4375 J0.0
G2 X2.6583 Y0.6992 I0.2188 J0.3789
G1 F10.0 Z-0.075
G2 F15.0 X2.858 Y1.2057 I0.4185 J0.1276
G2 X3.5143 Y0.8268 I0.2188 J-0.3789
G2 X2.858 Y0.4479 I-0.4375 J0.0
G2 X2.6583 Y0.6992 I0.2188 J0.3789
G0 Z0.125
G0 X3.5264 Y2.2489
G0 Z0.0625
G1 F10.0 Z-0.015
G2 F15.0 X3.5257 Y2.2493 I0.0305 J0.0545
G2 Y2.3574 I0.0312 J0.0541
G2 X3.6193 Y2.3034 I0.0312 J-0.0541
G2 X3.5264 Y2.2489 I-0.0624 J0.0
G1 F10.0 Z-0.03
G2 F15.0 X3.5257 Y2.2493 I0.0305 J0.0545
G2 Y2.3574 I0.0312 J0.0541
G2 X3.6193 Y2.3034 I0.0312 J-0.0541
G2 X3.5264 Y2.2489 I-0.0624 J0.0
G1 F10.0 Z-0.045
G2 F15.0 X3.5257 Y2.2493 I0.0305 J0.0545
G2 Y2.3574 I0.0312 J0.0541
G2 X3.6193 Y2.3034 I0.0312 J-0.0541
G2 X3.5264 Y2.2489 I-0.0624 J0.0
G1 F10.0 Z-0.06
G2 F15.0 X3.5257 Y2.2493 I0.0305 J0.0545
G2 Y2.3574 I0.0312 J0.0541
G2 X3.6193 Y2.3034 I0.0312 J-0.0541
G2 X3.5264 Y2.2489 I-0.0624 J0.0
G1 F10.0 Z-0.075
G2 F15.0 X3.5257 Y2.2493 I0.0305 J0.0545
G2 Y2.3574 I0.0312 J0.0541
G2 X3.6193 Y2.3034 I0.0312 J-0.0541
G2 X3.5264 Y2.2489 I-0.0624 J0.0
G0 Z0.125
G0 X3.592 Y2.8558
G0 Z0.0625
G1 F10.0 Z-0.015
G2 F15.0 X3.5778 Y2.8604 I0.0039 J0.0357
G2 Y2.9227 I0.018 J0.0311
G2 X3.6317 Y2.8915 I0.018 J-0.0311
G2 X3.592 Y2.8558 I-0.0359 J0.0
G1 F10.0 Z-0.03
G2 F15.0 X3.5778 Y2.8604 I0.0039 J0.0357
G2 Y2.9227 I0.018 J0.0311
G2 X3.6317 Y2.8915 I0.018 J-0.0311
G2 X3.592 Y2.8558 I-0.0359 J0.0
G1 F10.0 Z-0.045
G2 F15.0 X3.5778 Y2.8604 I0.0039 J0.0357
G2 Y2.9227 I0.018 J0.0311
G2 X3.6317 Y2.8915 I0.018 J-0.0311
G2 X3.592 Y2.8558 I-0.0359 J0.0
G1 F10.0 Z-0.06
G2 F15.0 X3.5778 Y2.8604 I0.0039 J0.0357
G2 Y2.9227 I0.018 J0.0311
G2 X3.6317 Y2.8915 I0.018 J-0.0311
G2 X3.592 Y2.8558 I-0.0359 J0.0
G1 F10.0 Z-0.075
G2 F15.0 X3.5778 Y2.8604 I0.0039 J0.0357
G2 Y2.9227 I0.018 J0.0311
G2 X3.6317 Y2.8915 I0.018 J-0.0311
G2 X3.592 Y2.8558 I-0.0359 J0.0
G0 Z0.125
G0 X3.5957 Y3.8793
G0 Z0.0625
G1 F10.0 Z-0.015
G2 F15.0 X3.5778 Y3.8841 I0.0001 J0.0359
G2 Y3.9463 I0.018 J0.0311
G2 X3.6317 Y3.9152 I0.018 J-0.0311
G2 X3.5957 Y3.8793 I-0.0359 J0.0
G1 F10.0 Z-0.03
G2 F15.0 X3.5778 Y3.8841 I0.0001 J0.0359
G2 Y3.9463 I0.018 J0.0311
G2 X3.6317 Y3.9152 I0.018 J-0.0311
G2 X3.5957 Y3.8793 I-0.0359 J0.0
G1 F10.0 Z-0.045
G2 F15.0 X3.5778 Y3.8841 I0.0001 J0.0359
G2 Y3.9463 I0.018 J0.0311
G2 X3.6317 Y3.9152 I0.018 J-0.0311
G2 X3.5957 Y3.8793 I-0.0359 J0.0
G1 F10.0 Z-0.06
G2 F15.0 X3.5778 Y3.8841 I0.0001 J0.0359
G2 Y3.9463 I0.018 J0.0311
G2 X3.6317 Y3.9152 I0.018 J-0.0311
G2 X3.5957 Y3.8793 I-0.0359 J0.0
G1 F10.0 Z-0.075
G2 F15.0 X3.5778 Y3.8841 I0.0001 J0.0359
G2 Y3.9463 I0.018 J0.0311
G2 X3.6317 Y3.9152 I0.018 J-0.0311
G2 X3.5957 Y3.8793 I-0.0359 J0.0
G0 Z0.125
G0 X3.5608 Y4.441
G0 Z0.0625
G1 F10.0 Z-0.015
G2 F15.0 X3.5257 Y4.4492 I-0.0039 J0.0624
G2 Y4.5575 I0.0312 J0.0541
G2 X3.6194 Y4.5034 I0.0312 J-0.0541
G2 X3.5608 Y4.441 I-0.0625 J0.0
G1 F10.0 Z-0.03
G2 F15.0 X3.5257 Y4.4492 I-0.0039 J0.0624
G2 Y4.5575 I0.0312 J0.0541
G2 X3.6194 Y4.5034 I0.0312 J-0.0541
G2 X3.5608 Y4.441 I-0.0625 J0.0
G1 F10.0 Z-0.045
G2 F15.0 X3.5257 Y4.4492 I-0.0039 J0.0624
G2 Y4.5575 I0.0312 J0.0541
G2 X3.6194 Y4.5034 I0.0312 J-0.0541
G2 X3.5608 Y4.441 I-0.0625 J0.0
G1 F10.0 Z-0.06
G2 F15.0 X3.5257 Y4.4492 I-0.0039 J0.0624
G2 Y4.5575 I0.0312 J0.0541
G2 X3.6194 Y4.5034 I0.0312 J-0.0541
G2 X3.5608 Y4.441 I-0.0625 J0.0
G1 F10.0 Z-0.075
G2 F15.0 X3.5257 Y4.4492 I-0.0039 J0.0624
G2 Y4.5575 I0.0312 J0.0541
G2 X3.6194 Y4.5034 I0.0312 J-0.0541
G2 X3.5608 Y4.441 I-0.0625 J0.0
G0 Z0.125
G0 X4.7635 Y3.9292
G0 Z0.0625
G1 F10.0 Z-0.015
G2 F15.0 X4.7786 Y3.9463 I0.0331 J-0.0141
G2 X4.8325 Y3.9152 I0.018 J-0.0311
G2 X4.7786 Y3.8841 I-0.0359 J0.0
G2 X4.7635 Y3.9292 I0.018 J0.0311
G1 F10.0 Z-0.03
G2 F15.0 X4.7786 Y3.9463 I0.0331 J-0.0141
G2 X4.8325 Y3.9152 I0.018 J-0.0311
G2 X4.7786 Y3.8841 I-0.0359 J0.0
G2 X4.7635 Y3.9292 I0.018 J0.0311
G1 F10.0 Z-0.045
G2 F15.0 X4.7786 Y3.9463 I0.0331 J-0.0141
G2 X4.8325 Y3.9152 I0.018 J-0.0311
G2 X4.7786 Y3.8841 I-0.0359 J0.0
G2 X4.7635 Y3.9292 I0.018 J0.0311
G1 F10.0 Z-0.06
G2 F15.0 X4.7786 Y3.9463 I0.0331 J-0.0141
G2 X4.8325 Y3.9152 I0.018 J-0.0311
G2 X4.7786 Y3.8841 I-0.0359 J0.0
G2 X4.7635 Y3.9292 I0.018 J0.0311
G1 F10.0 Z-0.075
G2 F15.0 X4.7786 Y3.9463 I0.0331 J-0.0141
G2 X4.8325 Y3.9152 I0.018 J-0.0311
G2 X4.7786 Y3.8841 I-0.0359 J0.0
G2 X4.7635 Y3.9292 I0.018 J0.0311
G0 Z0.125
G0 X5.4625 Y3.9159
G0 Z0.0625
G1 F10.0 Z-0.015
G2 F15.0 X5.4804 Y3.9463 I0.0359 J-0.0007
G2 X5.5343 Y3.9152 I0.018 J-0.0311
G2 X5.4804 Y3.8841 I-0.0359 J0.0
G2 X5.4625 Y3.9159 I0.018 J0.0311
G1 F10.0 Z-0.03
G2 F15.0 X5.4804 Y3.9463 I0.0359 J-0.0007
G2 X5.5343 Y3.9152 I0.018 J-0.0311
G2 X5.4804 Y3.8841 I-0.0359 J0.0
G2 X5.4625 Y3.9159 I0.018 J0.0311
G1 F10.0 Z-0.045
G2 F15.0 X5.4804 Y3.9463 I0.0359 J-0.0007
G2 X5.5343 Y3.9152 I0.018 J-0.0311
G2 X5.4804 Y3.8841 I-0.0359 J0.0
G2 X5.4625 Y3.9159 I0.018 J0.0311
G1 F10.0 Z-0.06
G2 F15.0 X5.4804 Y3.9463 I0.0359 J-0.0007
G2 X5.5343 Y3.9152 I0.018 J-0.0311
G2 X5.4804 Y3.8841 I-0.0359 J0.0
G2 X5.4625 Y3.9159 I0.018 J0.0311
G1 F10.0 Z-0.075
G2 F15.0 X5.4804 Y3.9463 I0.0359 J-0.0007
G2 X5.5343 Y3.9152 I0.018 J-0.0311
G2 X5.4804 Y3.8841 I-0.0359 J0.0
G2 X5.4625 Y3.9159 I0.018 J0.0311
G0 Z0.125
G0 X5.4971 Y2.9275
G0 Z0.0625
G1 F10.0 Z-0.015
G2 F15.0 X5.5343 Y2.8916 I0.0013 J-0.0359
G2 X5.4804 Y2.8604 I-0.0359 J0.0
G2 Y2.9227 I0.018 J0.0311
G2 X5.4971 Y2.9275 I0.018 J-0.0311
G1 F10.0 Z-0.03
G2 F15.0 X5.5343 Y2.8916 I0.0013 J-0.0359
G2 X5.4804 Y2.8604 I-0.0359 J0.0
G2 Y2.9227 I0.018 J0.0311
G2 X5.4971 Y2.9275 I0.018 J-0.0311
G1 F10.0 Z-0.045
G2 F15.0 X5.5343 Y2.8916 I0.0013 J-0.0359
G2 X5.4804 Y2.8604 I-0.0359 J0.0
G2 Y2.9227 I0.018 J0.0311
G2 X5.4971 Y2.9275 I0.018 J-0.0311
G1 F10.0 Z-0.06
G2 F15.0 X5.5343 Y2.8916 I0.0013 J-0.0359
G2 X5.4804 Y2.8604 I-0.0359 J0.0
G2 Y2.9227 I0.018 J0.0311
G2 X5.4971 Y2.9275 I0.018 J-0.0311
G1 F10.0 Z-0.075
G2 F15.0 X5.5343 Y2.8916 I0.0013 J-0.0359
G2 X5.4804 Y2.8604 I-0.0359 J0.0
G2 Y2.9227 I0.018 J0.0311
G2 X5.4971 Y2.9275 I0.018 J-0.0311
G0 Z0.125
G0 X4.8325 Y2.8934
G0 Z0.0625
G1 F10.0 Z-0.015
G2 F15.0 Y2.8916 I-0.0359 J-0.0018
G2 X4.7786 Y2.8604 I-0.0359 J0.0
G2 Y2.9227 I0.018 J0.0311
G2 X4.8325 Y2.8934 I0.018 J-0.0311
G1 F10.0 Z-0.03
G2 F15.0 Y2.8916 I-0.0359 J-0.0018
G2 X4.7786 Y2.8604 I-0.0359 J0.0
G2 Y2.9227 I0.018 J0.0311
G2 X4.8325 Y2.8934 I0.018 J-0.0311
G1 F10.0 Z-0.045
G2 F15.0 Y2.8916 I-0.0359 J-0.0018
G2 X4.7786 Y2.8604 I-0.0359 J0.0
G2 Y2.9227 I0.018 J0.0311
G2 X4.8325 Y2.8934 I0.018 J-0.0311
G1 F10.0 Z-0.06
G2 F15.0 Y2.8916 I-0.0359 J-0.0018
G2 X4.7786 Y2.8604 I-0.0359 J0.0
G2 Y2.9227 I0.018 J0.0311
G2 X4.8325 Y2.8934 I0.018 J-0.0311
G1 F10.0 Z-0.075
G2 F15.0 Y2.8916 I-0.0359 J-0.0018
G2 X4.7786 Y2.8604 I-0.0359 J0.0
G2 Y2.9227 I0.018 J0.0311
G2 X4.8325 Y2.8934 I0.018 J-0.0311
G0 Z0.125
G0 X6.6632 Y2.8916
G0 Z0.0625
G1 F10.0 Z-0.015
G2 F15.0 X6.6812 Y2.9227 I0.0359 J0.0
G2 X6.7351 Y2.8915 I0.018 J-0.0311
G2 X6.6812 Y2.8604 I-0.0359 J0.0
G2 X6.6632 Y2.8916 I0.018 J0.0311
G1 F10.0 Z-0.03
G2 F15.0 X6.6812 Y2.9227 I0.0359 J0.0
G2 X6.7351 Y2.8915 I0.018 J-0.0311
G2 X6.6812 Y2.8604 I-0.0359 J0.0
G2 X6.6632 Y2.8916 I0.018 J0.0311
G1 F10.0 Z-0.045
G2 F15.0 X6.6812 Y2.9227 I0.0359 J0.0
G2 X6.7351 Y2.8915 I0.018 J-0.0311
G2 X6.6812 Y2.8604 I-0.0359 J0.0
G2 X6.6632 Y2.8916 I0.018 J0.0311
G1 F10.0 Z-0.06
G2 F15.0 X6.6812 Y2.9227 I0.0359 J0.0
G2 X6.7351 Y2.8915 I0.018 J-0.0311
G2 X6.6812 Y2.8604 I-0.0359 J0.0
G2 X6.6632 Y2.8916 I0.018 J0.0311
G1 F10.0 Z-0.075
G2 F15.0 X6.6812 Y2.9227 I0.0359 J0.0
G2 X6.7351 Y2.8915 I0.018 J-0.0311
G2 X6.6812 Y2.8604 I-0.0359 J0.0
G2 X6.6632 Y2.8916 I0.018 J0.0311
G0 Z0.125
G0 X6.6979 Y3.8793
G0 Z0.0625
G1 F10.0 Z-0.015
G2 F15.0 X6.6812 Y3.8841 I0.0013 J0.0359
G2 Y3.9463 I0.018 J0.0311
G2 X6.7351 Y3.9152 I0.018 J-0.0311
G2 X6.6979 Y3.8793 I-0.0359 J0.0
G1 F10.0 Z-0.03
G2 F15.0 X6.6812 Y3.8841 I0.0013 J0.0359
G2 Y3.9463 I0.018 J0.0311
G2 X6.7351 Y3.9152 I0.018 J-0.0311
G2 X6.6979 Y3.8793 I-0.0359 J0.0
G1 F10.0 Z-0.045
G2 F15.0 X6.6812 Y3.8841 I0.0013 J0.0359
G2 Y3.9463 I0.018 J0.0311
G2 X6.7351 Y3.9152 I0.018 J-0.0311
G2 X6.6979 Y3.8793 I-0.0359 J0.0
G1 F10.0 Z-0.06
G2 F15.0 X6.6812 Y3.8841 I0.0013 J0.0359
G2 Y3.9463 I0.018 J0.0311
G2 X6.7351 Y3.9152 I0.018 J-0.0311
G2 X6.6979 Y3.8793 I-0.0359 J0.0
G1 F10.0 Z-0.075
G2 F15.0 X6.6812 Y3.8841 I0.0013 J0.0359
G2 Y3.9463 I0.018 J0.0311
G2 X6.7351 Y3.9152 I0.018 J-0.0311
G2 X6.6979 Y3.8793 I-0.0359 J0.0
G0 Z0.125
G0 X2.0077 Y3.4098
G0 Z0.0625
G1 F10.0 Z-0.015
G2 F15.0 X2.008 Y3.4032 I-0.0651 J-0.0065
G2 X1.9098 Y3.3465 I-0.0655 J0.0
G2 Y3.4599 I0.0327 J0.0567
G2 X2.0077 Y3.4098 I0.0327 J-0.0567
G1 F10.0 Z-0.03
G2 F15.0 X2.008 Y3.4032 I-0.0651 J-0.0065
G2 X1.9098 Y3.3465 I-0.0655 J0.0
G2 Y3.4599 I0.0327 J0.0567
G2 X2.0077 Y3.4098 I0.0327 J-0.0567
G1 F10.0 Z-0.045
G2 F15.0 X2.008 Y3.4032 I-0.0651 J-0.0065
G2 X1.9098 Y3.3465 I-0.0655 J0.0
G2 Y3.4599 I0.0327 J0.0567
G2 X2.0077 Y3.4098 I0.0327 J-0.0567
G1 F10.0 Z-0.06
G2 F15.0 X2.008 Y3.4032 I-0.0651 J-0.0065
G2 X1.9098 Y3.3465 I-0.0655 J0.0
G2 Y3.4599 I0.0327 J0.0567
G2 X2.0077 Y3.4098 I0.0327 J-0.0567
G1 F10.0 Z-0.075
G2 F15.0 X2.008 Y3.4032 I-0.0651 J-0.0065
G2 X1.9098 Y3.3465 I-0.0655 J0.0
G2 Y3.4599 I0.0327 J0.0567
G2 X2.0077 Y3.4098 I0.0327 J-0.0567
( outline )
S1000
G0 Z0.125
G0 X3.4232 Y1.9909
G0 Z0.0625
G1 F10.0 Z-0.015
G3 F15.0 X3.425 I0.0018 J0.0625
G1 X3.6125
G3 X3.925 Y2.3033 I0.0 J0.3125
G2 X4.1125 Y2.4908 I0.1875 J0.0
G1 X6.8006 Y2.4909
G3 X6.9881 Y2.6784 I0.0 J0.1875
G1 X6.988 Y4.1284
G3 X6.8005 Y4.3159 I-0.1875 J0.0
G1 X4.1125
G2 X3.925 Y4.5027 I0.0 J0.1875
G3 X3.6156 Y4.814 I-0.3125 J-0.0011
G1 X3.4268 Y4.8159
G3 X3.2375 Y4.6284 I-0.0019 J-0.1875
G1 Y4.4659
G1 X0.1249 Y4.466
G3 X-0.0626 Y4.2785 I0.0 J-0.1875
G1 X-0.0625 Y2.5285
G3 X0.125 Y2.341 I0.1875 J0.0
G1 X3.2375 Y2.3409
G1 Y2.1784
G3 X3.4232 Y1.9909 I0.1875 J0.0
G1 F10.0 Z-0.03
G3 F15.0 X3.425 I0.0018 J0.0625
G1 X3.6125
G3 X3.925 Y2.3033 I0.0 J0.3125
G2 X4.1125 Y2.4908 I0.1875 J0.0
G1 X6.8006 Y2.4909
G3 X6.9881 Y2.6784 I0.0 J0.1875
G1 X6.988 Y4.1284
G3 X6.8005 Y4.3159 I-0.1875 J0.0
G1 X4.1125
G2 X3.925 Y4.5027 I0.0 J0.1875
G3 X3.6156 Y4.814 I-0.3125 J-0.0011
G1 X3.4268 Y4.8159
G3 X3.2375 Y4.6284 I-0.0019 J-0.1875
G1 Y4.4659
G1 X0.1249 Y4.466
G3 X-0.0626 Y4.2785 I0.0 J-0.1875
G1 X-0.0625 Y2.5285
G3 X0.125 Y2.341 I0.1875 J0.0
G1 X3.2375 Y2.3409
G1 Y2.1784
G3 X3.4232 Y1.9909 I0.1875 J0.0
G1 F10.0 Z-0.045
G3 F15.0 X3.425 I0.0018 J0.0625
G1 X3.6125
G3 X3.925 Y2.3033 I0.0 J0.3125
G2 X4.1125 Y2.4908 I0.1875 J0.0
G1 X6.8006 Y2.4909
G3 X6.9881 Y2.6784 I0.0 J0.1875
G1 X6.988 Y4.1284
G3 X6.8005 Y4.3159 I-0.1875 J0.0
G1 X4.1125
G2 X3.925 Y4.5027 I0.0 J0.1875
G3 X3.6156 Y4.814 I-0.3125 J-0.0011
G1 X3.4268 Y4.8159
G3 X3.2375 Y4.6284 I-0.0019 J-0.1875
G1 Y4.4659
G1 X0.1249 Y4.466
G3 X-0.0626 Y4.2785 I0.0 J-0.1875
G1 X-0.0625 Y2.5285
G3 X0.125 Y2.341 I0.1875 J0.0
G1 X3.2375 Y2.3409
G1 Y2.1784
G3 X3.4232 Y1.9909 I0.1875 J0.0
G1 F10.0 Z-0.06
G3 F15.0 X3.425 I0.0018 J0.0625
G1 X3.6125
G3 X3.925 Y2.3033 I0.0 J0.3125
G2 X4.1125 Y2.4908 I0.1875 J0.0
G1 X6.8006 Y2.4909
G3 X6.9881 Y2.6784 I0.0 J0.1875
G1 X6.988 Y4.1284
G3 X6.8005 Y4.3159 I-0.1875 J0.0
G1 X4.1125
G2 X3.925 Y4.5027 I0.0 J0.1875
G3 X3.6156 Y4.814 I-0.3125 J-0.0011
G1 X3.4268 Y4.8159
G3 X3.2375 Y4.6284 I-0.0019 J-0.1875
G1 Y4.4659
G1 X0.1249 Y4.466
G3 X-0.0626 Y4.2785 I0.0 J-0.1875
G1 X-0.0625 Y2.5285
G3 X0.125 Y2.341 I0.1875 J0.0
G1 X3.2375 Y2.3409
G1 Y2.1784
G3 X3.4232 Y1.9909 I0.1875 J0.0
G1 F10.0 Z-0.075
G3 F15.0 X3.425 I0.0018 J0.0625
G1 X3.6125
G3 X3.925 Y2.3033 I0.0 J0.3125
G2 X4.1125 Y2.4908 I0.1875 J0.0
G1 X6.8006 Y2.4909
G3 X6.9881 Y2.6784 I0.0 J0.1875
G1 X6.988 Y4.1284
G3 X6.8005 Y4.3159 I-0.1875 J0.0
G1 X4.1125
G2 X3.925 Y4.5027 I0.0 J0.1875
G3 X3.6156 Y4.814 I-0.3125 J-0.0011
G1 X3.4268 Y4.8159
G3 X3.2375 Y4.6284 I-0.0019 J-0.1875
G1 Y4.4659
G1 X0.1249 Y4.466
G3 X-0.0626 Y4.2785 I0.0 J-0.1875
G1 X-0.0625 Y2.5285
G3 X0.125 Y2.341 I0.1875 J0.0
G1 X3.2375 Y2.3409
G1 Y2.1784
G3 X3.4232 Y1.9909 I0.1875 J0.0
G0 Z0.125
G0 Y1.716
G0 Z0.0625
G1 F10.0 Z-0.015
G1 F15.0 X0.125
G3 X-0.0625 Y1.5285 I0.0 J-0.1875
G1 Y0.125
G3 X0.125 Y-0.0625 I0.1875 J0.0
G1 X3.7785
G3 X3.966 Y0.125 I0.0 J0.1875
G1 Y1.5285
G3 X3.7785 Y1.716 I-0.1875 J0.0
G1 X3.4232
G1 F10.0 Z-0.03
G1 F15.0 X0.125
G3 X-0.0625 Y1.5285 I0.0 J-0.1875
G1 Y0.125
G3 X0.125 Y-0.0625 I0.1875 J0.0
G1 X3.7785
G3 X3.966 Y0.125 I0.0 J0.1875
G1 Y1.5285
G3 X3.7785 Y1.716 I-0.1875 J0.0
G1 X3.4232
G1 F10.0 Z-0.045
G1 F15.0 X0.125
G3 X-0.0625 Y1.5285 I0.0 J-0.1875
G1 Y0.125
G3 X0.125 Y-0.0625 I0.1875 J0.0
G1 X3.7785
G3 X3.966 Y0.125 I0.0 J0.1875
G1 Y1.5285
G3 X3.7785 Y1.716 I-0.1875 J0.0
G1 X3.4232
G1 F10.0 Z-0.06
G1 F15.0 X0.125
G3 X-0.0625 Y1.5285 I0.0 J-0.1875
G1 Y0.125
G3 X0.125 Y-0.0625 I0.1875 J0.0
G1 X3.7785
G3 X3.966 Y0.125 I0.0 J0.1875
G1 Y1.5285
G3 X3.7785 Y1.716 I-0.1875 J0.0
G1 X3.4232
G1 F10.0 Z-0.075
G1 F15.0 X0.125
G3 X-0.0625 Y1.5285 I0.0 J-0.1875
G1 Y0.125
G3 X0.125 Y-0.0625 I0.1875 J0.0
G1 X3.7785
G3 X3.966 Y0.125 I0.0 J0.1875
G1 Y1.5285
G3 X3.7785 Y1.716 I-0.1875 J0.0
G1 X3.4232
G0 Z0.125
M5
M30
