( Made using CamBam - http://www.cambam.co.uk )
( slide_holder 9/18/2014 11:28:53 PM )
( T0 : 0.125 )
G20 G90 G64 G40
G0 Z0.125
( T0 : 0.125 )
T0 M6
( cutout )
G17
M3 S1000
G0 X0.7775 Y1.045
G0 Z0.0625
G1 F10.0 Z-0.065
G2 F30.0 X0.4288 Y0.8436 I-0.2325 J0.0
G2 Y1.2464 I0.1163 J0.2014
G2 X0.7775 Y1.045 I0.1163 J-0.2014
G1 F10.0 Z-0.13
G2 F30.0 X0.4288 Y0.8436 I-0.2325 J0.0
G2 Y1.2464 I0.1163 J0.2014
G2 X0.7775 Y1.045 I0.1163 J-0.2014
G1 F10.0 Z-0.195
G2 F30.0 X0.4288 Y0.8436 I-0.2325 J0.0
G2 Y1.2464 I0.1163 J0.2014
G2 X0.7775 Y1.045 I0.1163 J-0.2014
G1 F10.0 Z-0.26
G2 F30.0 X0.4288 Y0.8436 I-0.2325 J0.0
G2 Y1.2464 I0.1163 J0.2014
G2 X0.7775 Y1.045 I0.1163 J-0.2014
( Profile2 )
S1000
G0 Z0.125
G0 X0.545 Y2.1525
G0 Z0.0625
G1 F10.0 Z-0.065
G1 F30.0 X0.0
G3 X-0.0625 Y2.09 I0.0 J-0.0625
G1 Y0.0
G3 X0.0 Y-0.0625 I0.0625 J0.0
G1 X0.545
G3 X0.6075 Y0.0 I0.0 J0.0625
G1 Y0.4385
G2 X0.6097 Y0.441 I0.0025 J0.0
G3 Y1.649 I-0.0647 J0.604
G2 X0.6075 Y1.6515 I0.0003 J0.0025
G1 Y2.09
G3 X0.545 Y2.1525 I-0.0625 J0.0
G1 F10.0 Z-0.13
G1 F30.0 X0.0
G3 X-0.0625 Y2.09 I0.0 J-0.0625
G1 Y0.0
G3 X0.0 Y-0.0625 I0.0625 J0.0
G1 X0.545
G3 X0.6075 Y0.0 I0.0 J0.0625
G1 Y0.4385
G2 X0.6097 Y0.441 I0.0025 J0.0
G3 Y1.649 I-0.0647 J0.604
G2 X0.6075 Y1.6515 I0.0003 J0.0025
G1 Y2.09
G3 X0.545 Y2.1525 I-0.0625 J0.0
G1 F10.0 Z-0.195
G1 F30.0 X0.0
G3 X-0.0625 Y2.09 I0.0 J-0.0625
G1 Y0.0
G3 X0.0 Y-0.0625 I0.0625 J0.0
G1 X0.545
G3 X0.6075 Y0.0 I0.0 J0.0625
G1 Y0.4385
G2 X0.6097 Y0.441 I0.0025 J0.0
G3 Y1.649 I-0.0647 J0.604
G2 X0.6075 Y1.6515 I0.0003 J0.0025
G1 Y2.09
G3 X0.545 Y2.1525 I-0.0625 J0.0
G1 F10.0 Z-0.26
G1 F30.0 X0.0
G3 X-0.0625 Y2.09 I0.0 J-0.0625
G1 Y0.0
G3 X0.0 Y-0.0625 I0.0625 J0.0
G1 X0.545
G3 X0.6075 Y0.0 I0.0 J0.0625
G1 Y0.4385
G2 X0.6097 Y0.441 I0.0025 J0.0
G3 Y1.649 I-0.0647 J0.604
G2 X0.6075 Y1.6515 I0.0003 J0.0025
G1 Y2.09
G3 X0.545 Y2.1525 I-0.0625 J0.0
G0 Z0.125
M5
M30
