; generated by Slic3r 1.1.7 on 2014-10-16 at 16:52:33

; perimeters extrusion width = 0.40mm
; infill extrusion width = 0.42mm
; solid infill extrusion width = 0.42mm
; top infill extrusion width = 0.42mm
; support material extrusion width = 0.40mm

G21 ; set units to millimeters
M107
M104 S185 ; set temperature
G92 X0 Y0 Z0
G1 Z5 F5000 ; lift nozzle

M109 S185 ; wait for temperature to be reached
G90 ; use absolute coordinates
G92 E0
M82 ; use absolute distances for extrusion
M204 S635
G1 F1800.000 E-1.00000
G92 E0
G1 Z0.350 F2400.000
G1 X147.837 Y119.357 F2400.000
G1 E1.00000 F1800.000
G1 X149.492 Y117.766 E1.21230 F630.000
G1 X151.590 Y116.834 E1.42459
G1 X153.194 Y116.637 E1.57410
G1 X191.294 Y116.638 E5.09802
G1 X193.555 Y117.035 E5.31032 F630.000
G1 X195.545 Y118.178 E5.52262
G1 X197.027 Y119.931 E5.73491
G1 X197.822 Y122.084 E5.94721
G1 X197.930 Y123.273 E6.05762
G1 X197.912 Y135.062 E7.14797
G1 X195.230 Y171.444 E10.52214
G1 X194.911 Y173.866 E10.74803
G1 X194.622 Y175.116 E10.86672
G1 X192.437 Y181.406 E11.48258
G1 X192.029 Y182.220 E11.56684
G1 X191.361 Y183.286 E11.68321
G1 X188.781 Y186.649 E12.07522
G1 X187.837 Y187.646 E12.20217
G1 X185.986 Y189.221 E12.42698
G1 X184.324 Y190.490 E12.62036
G1 X182.938 Y191.470 E12.77741
G1 X181.645 Y192.183 E12.91393
G1 X178.023 Y193.678 E13.27637
G1 X176.924 Y194.085 E13.38476
G1 X175.485 Y194.442 E13.52187
G1 X171.505 Y194.964 E13.89314
G1 X169.840 Y195.106 E14.04770
G1 X151.636 Y195.099 E15.73140
G1 X118.238 Y193.530 E18.82385
G1 X116.594 Y193.313 E18.97717
G1 X114.921 Y192.865 E19.13739
G1 X113.390 Y192.230 E19.29071
G1 X111.890 Y191.364 E19.45092
G1 X110.574 Y190.355 E19.60424
G1 X109.350 Y189.130 E19.76446
G1 X108.340 Y187.815 E19.91778
G1 X107.474 Y186.315 E20.07799
G1 X106.839 Y184.781 E20.23157
G1 X106.392 Y183.110 E20.39154
G1 X106.175 Y181.467 E20.54488
G1 X106.175 Y179.735 E20.70508
G1 X106.392 Y178.091 E20.85840
G1 X106.840 Y176.418 E21.01861
G1 X107.474 Y174.886 E21.17193
G1 X108.248 Y173.509 E21.31801
G1 X147.802 Y119.405 E27.51682
G1 F1800.000 E26.51682
G92 E0
G1 X190.944 Y134.226 F2400.000
G1 E1.00000 F1800.000
G1 X153.544 Y134.226 E4.45916 F378.000
G1 X153.544 Y133.275 E4.54712
G1 X190.944 Y133.275 E8.00628
G1 X190.944 Y134.166 E8.08870
G1 X190.598 Y134.026 F2400.000
G1 F1800.000 E7.08870
G92 E0
G1 X190.944 Y124.574 F2400.000
G1 E1.00000 F1800.000
G1 X153.544 Y124.574 E4.45916 F378.000
G1 X153.544 Y123.623 E4.54712
G1 X190.944 Y123.623 E8.00629
G1 X190.944 Y124.514 E8.08869
G1 X190.598 Y124.374 F2400.000
M204 S635
M204 S635
G1 F1800.000 E7.08869
G92 E0
G1 X121.765 Y177.940 F2400.000
G1 E1.00000 F1800.000
G1 X122.363 Y178.719 E1.09086 F540.000
G1 X122.739 Y179.627 E1.18170
G1 X122.867 Y180.601 E1.27257
G1 X122.739 Y181.575 E1.36343
G1 X122.363 Y182.482 E1.45425
G1 X121.765 Y183.261 E1.54510
G1 X120.985 Y183.859 E1.63596
G1 X120.078 Y184.235 E1.72678
G1 X119.242 Y184.345 E1.80482
G1 X119.104 Y184.363 E1.81769
G1 X118.131 Y184.235 E1.90848
G1 X117.222 Y183.859 E1.99938
G1 X116.443 Y183.261 E2.09021
G1 X115.845 Y182.482 E2.18106
G1 X115.470 Y181.575 E2.27189
G1 X115.341 Y180.600 E2.36279
G1 X115.469 Y179.627 E2.45358
G1 X115.846 Y178.719 E2.54449
G1 X116.443 Y177.940 E2.63531
G1 X117.223 Y177.342 E2.72614
G1 X118.131 Y176.966 E2.81704
G1 X119.104 Y176.838 E2.90783
G1 X119.242 Y176.856 E2.92070
G1 X120.078 Y176.966 E2.99874 F540.000
G1 X120.985 Y177.342 E3.08956
G1 X121.717 Y177.904 E3.17487
G1 X121.311 Y178.393 F2400.000
G1 X121.808 Y179.040 E3.25025 F378.000
G1 X122.119 Y179.793 E3.32562
G1 X122.134 Y179.905 E3.33607
G1 X122.226 Y180.601 E3.40099
G1 X122.119 Y181.409 E3.47637
G1 X121.807 Y182.161 E3.55173
G1 X121.311 Y182.808 E3.62710
G1 X120.665 Y183.304 E3.70247
G1 X119.912 Y183.616 E3.77783
G1 X119.159 Y183.715 E3.84810
G1 X119.104 Y183.722 E3.85322
G1 X118.296 Y183.616 E3.92857
G1 X117.543 Y183.304 E4.00396
G1 X116.897 Y182.808 E4.07933
G1 X116.401 Y182.161 E4.15470
G1 X116.089 Y181.409 E4.23006
G1 X115.982 Y180.601 E4.30545
G1 X116.089 Y179.793 E4.38080
G1 X116.401 Y179.040 E4.45619
G1 X116.897 Y178.393 E4.53156
G1 X117.543 Y177.897 E4.60692
G1 X118.296 Y177.585 E4.68231
G1 X118.351 Y177.578 E4.68744
G1 X119.104 Y177.479 E4.75766 F378.000
G1 X119.912 Y177.585 E4.83305
G1 X120.665 Y177.897 E4.90841
G1 X121.264 Y178.357 E4.97824
G1 X118.137 Y177.240 F2400.000
G1 F1800.000 E3.97824
G92 E0
G1 X165.086 Y170.900 F2400.000
G1 E1.00000 F1800.000
G1 X164.916 Y169.609 E1.12044 F540.000
G1 X165.086 Y168.318 E1.24088
G1 X165.584 Y167.115 E1.36132
G1 X166.377 Y166.082 E1.48177
G1 X167.410 Y165.289 E1.60221
G1 X168.613 Y164.791 E1.72265
G1 X169.904 Y164.621 E1.84309
G1 X170.147 Y164.652 E1.86573
G1 X171.195 Y164.791 E1.96353 F540.000
G1 X172.398 Y165.289 E2.08397
G1 X173.431 Y166.082 E2.20441
G1 X174.224 Y167.115 E2.32486
G1 X174.722 Y168.318 E2.44530
G1 X174.892 Y169.609 E2.56574
G1 X174.722 Y170.900 E2.68618
G1 X174.224 Y172.103 E2.80663
G1 X173.431 Y173.136 E2.92707
G1 X172.398 Y173.929 E3.04751
G1 X171.195 Y174.427 E3.16795
G1 X169.904 Y174.597 E3.28839
G1 X168.613 Y174.427 E3.40883
G1 X167.410 Y173.929 E3.52927
G1 X166.377 Y173.136 E3.64971
G1 X165.584 Y172.103 E3.77016
G1 X165.109 Y170.955 E3.88505
G1 X165.705 Y170.734 F2400.000
G1 X165.557 Y169.609 E3.99001 F378.000
G1 X165.705 Y168.484 E4.09497
G1 X166.139 Y167.435 E4.19994
G1 X166.830 Y166.535 E4.30490
G1 X167.730 Y165.844 E4.40986
G1 X168.779 Y165.410 E4.51483
G1 X168.939 Y165.389 E4.52972
G1 X169.904 Y165.262 E4.61979 F378.000
G1 X171.029 Y165.410 E4.72475
G1 X172.078 Y165.844 E4.82971
G1 X172.978 Y166.535 E4.93467
G1 X173.669 Y167.435 E5.03964
G1 X174.103 Y168.484 E5.14460
G1 X174.251 Y169.609 E5.24956
G1 X174.103 Y170.734 E5.35452
G1 X173.669 Y171.782 E5.45949
G1 X172.978 Y172.683 E5.56445
G1 X172.078 Y173.374 E5.66941
G1 X171.029 Y173.808 E5.77437
G1 X169.904 Y173.956 E5.87933
G1 X168.779 Y173.808 E5.98430
G1 X167.730 Y173.374 E6.08926
G1 X166.830 Y172.683 E6.19422
G1 X166.139 Y171.782 E6.29918
G1 X165.728 Y170.789 E6.39860
G1 F1800.000 E5.39860
G92 E0
G1 X168.959 Y164.989 F2400.000
G1 X150.247 Y174.118 F2400.000
G1 E1.00000 F1800.000
G1 X150.458 Y175.219 E1.10365 F540.000
G1 X150.607 Y176.173 E1.19298
G1 X150.727 Y177.131 E1.28228
G1 X150.818 Y178.092 E1.37157
G1 X150.879 Y179.056 E1.46087
G1 X150.911 Y180.021 E1.55021
G1 X150.914 Y180.804 E1.62260
G1 X150.794 Y181.715 E1.70757
G1 X150.418 Y182.622 E1.79839
G1 X149.820 Y183.401 E1.88924
G1 X149.041 Y183.999 E1.98008
G1 X148.133 Y184.375 E2.07092
G1 X147.159 Y184.503 E2.16180
G1 X146.185 Y184.374 E2.25272
G1 X145.278 Y183.999 E2.34346
G1 X144.499 Y183.401 E2.43429
G1 X143.901 Y182.622 E2.52514
G1 X143.533 Y181.732 E2.61417
G1 X143.406 Y180.993 E2.68350
G1 X143.404 Y180.159 E2.76068
G1 X143.332 Y178.686 E2.89706
G1 X143.172 Y177.221 E3.03343
G1 X142.922 Y175.767 E3.16981
G1 X142.585 Y174.329 E3.30642
G1 X142.316 Y173.398 E3.39609
G1 X141.842 Y172.018 E3.53100
G1 X141.413 Y170.961 E3.63653
G1 X141.181 Y170.059 E3.72267
G1 X141.190 Y169.077 E3.81353
G1 X141.454 Y168.130 E3.90441
G1 X141.953 Y167.284 E3.99526
G1 X142.653 Y166.598 E4.08592
G1 X143.517 Y166.111 E4.17771
G1 X144.462 Y165.868 E4.26790
G1 X144.601 Y165.869 E4.28077
G1 X145.444 Y165.877 E4.35875 F540.000
G1 X146.390 Y166.140 E4.44963
G1 X147.236 Y166.640 E4.54049
G1 X147.925 Y167.341 E4.63137
G1 X148.374 Y168.137 E4.71586
G1 X148.635 Y168.771 E4.77937
G1 X149.085 Y169.962 E4.89703
G1 X149.486 Y171.168 E5.01466
G1 X149.669 Y171.778 E5.07348
G1 X150.074 Y173.327 E5.22158
G1 X150.234 Y174.059 E5.29096
G1 X149.626 Y174.254 F2400.000
G1 X149.832 Y175.326 E5.39195 F378.000
G1 X149.977 Y176.261 E5.47947
G1 X150.095 Y177.200 E5.56699
G1 X150.184 Y178.142 E5.65450
G1 X150.244 Y179.087 E5.74202
G1 X150.276 Y180.032 E5.82955
G1 X150.278 Y180.763 E5.89712
G1 X150.175 Y181.548 E5.97040
G1 X149.863 Y182.301 E6.04575
G1 X149.367 Y182.948 E6.12111
G1 X148.720 Y183.444 E6.19648
G1 X147.967 Y183.755 E6.27184
G1 X147.159 Y183.862 E6.34722
G1 X146.351 Y183.755 E6.42261
G1 X145.599 Y183.444 E6.49794
G1 X144.952 Y182.948 E6.57330
G1 X144.456 Y182.301 E6.64866
G1 X144.147 Y181.555 E6.72338
G1 X144.042 Y180.939 E6.78121
G1 X144.014 Y179.391 E6.92434
G1 X143.895 Y177.883 E7.06427
G1 X143.801 Y177.132 E7.13426
G1 X143.545 Y175.641 E7.27420
G1 X143.200 Y174.167 E7.41422
G1 X142.923 Y173.209 E7.50641
G1 X142.437 Y171.794 E7.64483
G1 X142.016 Y170.753 E7.74865
G1 X141.817 Y169.982 E7.82236
G1 X141.825 Y169.167 E7.89775
G1 X142.044 Y168.381 E7.97314
G1 X142.458 Y167.679 E8.04853
G1 X143.039 Y167.109 E8.12385
G1 X143.752 Y166.707 E8.19957
G1 X143.803 Y166.694 E8.20444
G1 X144.539 Y166.504 E8.27472 F378.000
G1 X145.354 Y166.512 E8.35010
G1 X146.139 Y166.730 E8.42550
G1 X146.841 Y167.145 E8.50089
G1 X147.412 Y167.727 E8.57629
G1 X147.801 Y168.415 E8.64941
G1 X148.271 Y169.589 E8.76636
G1 X148.688 Y170.763 E8.88166
G1 X149.225 Y172.555 E9.05465
G1 X149.455 Y173.472 E9.14208
G1 X149.613 Y174.195 E9.21056
G1 F1800.000 E8.21056
G92 E0
G1 X143.648 Y166.325 F2400.000
G1 X145.202 Y164.031 F2400.000
G1 E1.00000 F1800.000
G1 X158.007 Y158.490 E2.29045 F540.000
G1 X158.344 Y158.049 E2.34178
G1 X161.730 Y155.451 E2.73649
G1 X165.673 Y153.818 E3.13121
G1 X166.039 Y153.770 E3.16536
G1 X169.904 Y153.261 E3.52592 F540.000
G1 X174.135 Y153.818 E3.92064
G1 X178.078 Y155.451 E4.31536
G1 X181.464 Y158.049 E4.71007
G1 X181.688 Y158.342 E4.74423
G1 X184.062 Y161.435 E5.10478
G1 X185.695 Y165.378 E5.49950
G1 X186.252 Y169.609 E5.89422
G1 X185.695 Y173.840 E6.28893
G1 X185.553 Y174.181 E6.32309
G1 X184.062 Y177.783 E6.68365
G1 X181.464 Y181.168 E7.07836
G1 X178.078 Y183.766 E7.47308
G1 X174.135 Y185.400 E7.86780
G1 X169.839 Y185.965 E8.26854
G1 X119.169 Y185.965 E12.95513
G1 X117.718 Y185.774 E13.09047
G1 X116.426 Y185.239 E13.21979
G1 X115.317 Y184.388 E13.34911
G1 X114.466 Y183.279 E13.47843
G1 X113.931 Y181.987 E13.60774
G1 X113.748 Y180.601 E13.73706
G1 X113.931 Y179.214 E13.86638
G1 X114.466 Y177.923 E13.99570
G1 X115.317 Y176.814 E14.12501
G1 X116.426 Y175.962 E14.25433
G1 X117.718 Y175.427 E14.38365
G1 X119.369 Y175.210 E14.53770
G1 X145.147 Y164.055 E17.13558
G1 X144.950 Y163.447 F2400.000
G1 X157.603 Y157.972 E18.41077 F378.000
G1 X157.891 Y157.596 E18.45459
G1 X161.410 Y154.896 E18.86478
G1 X165.507 Y153.199 E19.27498
G1 X169.904 Y152.620 E19.68517
G1 X170.353 Y152.679 E19.72707
G1 X174.301 Y153.199 E20.09537 F378.000
G1 X178.398 Y154.896 E20.50556
G1 X181.917 Y157.596 E20.91576
G1 X184.617 Y161.114 E21.32595
G1 X186.314 Y165.212 E21.73614
G1 X186.893 Y169.609 E22.14634
G1 X186.314 Y174.006 E22.55654
G1 X186.141 Y174.424 E22.59843
G1 X184.617 Y178.103 E22.96673
G1 X181.917 Y181.622 E23.37693
G1 X178.398 Y184.322 E23.78712
G1 X174.301 Y186.019 E24.19732
G1 X169.881 Y186.601 E24.60965
G1 X119.127 Y186.601 E29.30395
G1 X117.552 Y186.393 E29.45088
G1 X116.106 Y185.794 E29.59568
G1 X114.864 Y184.841 E29.74048
G1 X113.911 Y183.599 E29.88528
G1 X113.311 Y182.153 E30.03007
G1 X113.107 Y180.601 E30.17487
G1 X113.311 Y179.049 E30.31967
G1 X113.911 Y177.602 E30.46447
G1 X114.864 Y176.360 E30.60926
G1 X116.106 Y175.407 E30.75406
G1 X117.552 Y174.808 E30.89885
G1 X119.198 Y174.591 E31.05243
G1 X144.895 Y163.471 E33.64211
G1 X170.569 Y153.016 F2400.000
G1 X176.018 Y155.075 F2400.000
G1 X184.438 Y163.495 E34.74344 F720.000
G1 X185.079 Y165.044 F2400.000
G1 X174.469 Y154.434 E36.13124 F720.000
G1 X173.278 Y154.150 E36.24446
G1 X185.363 Y166.234 E37.82514
G1 X185.500 Y167.279 E37.92259
G1 X172.234 Y154.012 E39.65790
G1 X171.189 Y153.875 E39.75536
G1 X185.638 Y168.324 E41.64531
G1 X185.776 Y169.368 E41.74277
G1 X170.144 Y153.737 E43.78735
G1 X169.287 Y153.787 E43.86680
G1 X185.726 Y170.226 E46.01706
G1 X185.620 Y171.028 E46.09184
G1 X168.485 Y153.892 E48.33315
G1 X167.684 Y153.998 E48.40794
G1 X185.515 Y171.829 E50.74030
G1 X185.409 Y172.631 E50.81508
G1 X166.882 Y154.104 E53.23849
G1 X166.080 Y154.209 E53.31327
G1 X185.304 Y173.432 E55.82773
G1 X185.097 Y174.132 E55.89524
G1 X165.381 Y154.416 E58.47413
G1 X164.739 Y154.682 E58.53834
G1 X184.831 Y174.774 E61.16638
G1 X184.565 Y175.415 E61.23060
G1 X164.098 Y154.948 E63.90778
G1 X163.456 Y155.213 E63.97200
G1 X184.299 Y176.057 E66.69834
G1 X184.034 Y176.698 E66.76255
G1 X174.879 Y167.543 E67.96006
G1 X175.231 Y168.802 E68.08101
G1 X183.768 Y177.340 E69.19769
G1 X183.418 Y177.897 E69.25856
G1 X175.313 Y169.792 E70.31876
G1 X175.207 Y170.593 E70.39354
G1 X183.024 Y178.410 E71.41603
G1 X182.631 Y178.924 E71.47587
G1 X175.026 Y171.319 E72.47057
G1 X174.760 Y171.960 E72.53478
G1 X182.237 Y179.437 E73.51272
G1 X181.843 Y179.950 E73.57256
G1 X174.439 Y172.547 E74.54096
G1 X174.045 Y173.060 E74.60080
G1 X181.449 Y180.463 E75.56921
G1 X181.027 Y180.948 E75.62867
G1 X173.623 Y173.545 E76.59708
G1 X173.110 Y173.938 E76.65692
G1 X180.513 Y181.342 E77.62532
G1 X180.000 Y181.736 E77.68516
G1 X172.590 Y174.326 E78.65435
G1 X171.949 Y174.592 E78.71857
G1 X179.487 Y182.130 E79.70452
G1 X178.973 Y182.524 E79.76436
G1 X171.307 Y174.857 E80.76717
G1 X170.505 Y174.963 E80.84195
G1 X178.460 Y182.917 E81.88247
G1 X177.947 Y183.311 E81.94231
G1 X169.643 Y175.007 E83.02850
G1 X168.598 Y174.870 E83.12596
G1 X177.328 Y183.600 E84.26787
G1 X176.687 Y183.866 E84.33209
G1 X166.961 Y174.140 E85.60419
G1 X165.373 Y172.552 F2400.000
G1 X153.668 Y160.847 E87.13515 F720.000
G1 X154.302 Y160.573 E87.19896
G1 X164.643 Y170.915 E88.55166
G1 X164.506 Y169.870 E88.64912
G1 X154.935 Y160.299 E89.90101
G1 X155.568 Y160.025 E89.96482
G1 X164.550 Y169.008 E91.13975
G1 X164.656 Y168.206 E91.21454
G1 X156.201 Y159.751 E92.32045
G1 X156.834 Y159.477 E92.38426
G1 X164.921 Y167.564 E93.44202
G1 X165.187 Y166.923 E93.50624
G1 X157.467 Y159.203 E94.51594
G1 X158.100 Y158.929 E94.57974
G1 X165.574 Y166.403 E95.55735
G1 X165.968 Y165.890 E95.61720
G1 X158.565 Y158.486 E96.58560
G1 X159.049 Y158.064 E96.64507
G1 X166.453 Y165.467 E97.61347
G1 X166.966 Y165.074 E97.67331
G1 X159.563 Y157.670 E98.64171
G1 X160.076 Y157.276 E98.70155
G1 X167.552 Y164.753 E99.67949
G1 X168.194 Y164.487 E99.74371
G1 X160.589 Y156.882 E100.73841
G1 X161.103 Y156.488 E100.79825
G1 X168.920 Y164.306 E101.82073
G1 X169.721 Y164.200 E101.89552
G1 X161.616 Y156.095 E102.95572
G1 X162.173 Y155.745 E103.01658
G1 X170.711 Y164.282 E104.13327
G1 X171.970 Y164.634 E104.25421
G1 X162.815 Y155.479 E105.45172
G1 X153.035 Y161.121 F2400.000
G1 X176.045 Y184.131 E108.46147 F720.000
G1 X175.404 Y184.397 E108.52569
G1 X152.402 Y161.395 E111.53436
G1 X151.769 Y161.669 E111.59817
G1 X174.762 Y184.663 E114.60575
G1 X174.121 Y184.928 E114.66997
G1 X151.136 Y161.943 E117.67646
G1 X150.503 Y162.217 E117.74027
G1 X173.344 Y185.059 E120.72803
G1 X172.543 Y185.165 E120.80281
G1 X149.869 Y162.491 E123.76852
G1 X149.236 Y162.765 E123.83233
G1 X171.741 Y185.270 E126.77602
G1 X170.940 Y185.376 E126.85080
G1 X148.603 Y163.039 E129.77245
G1 X147.970 Y163.313 E129.83625
G1 X170.138 Y185.481 E132.73587
G1 X169.274 Y185.524 E132.81588
G1 X147.337 Y163.587 E135.68529
G1 X146.704 Y163.861 E135.74910
G1 X168.367 Y185.524 E138.58267
G1 X167.460 Y185.524 E138.66658
G1 X146.071 Y164.135 E141.46431
G1 X145.437 Y164.409 E141.52812
G1 X147.040 Y166.012 E141.73778
G1 X145.578 Y165.457 F2400.000
G1 X144.804 Y164.683 E141.83898 F720.000
G1 X144.171 Y164.957 E141.90279
G1 X144.642 Y165.429 E141.96444
G1 X143.871 Y165.565 E142.03687
G1 X143.538 Y165.231 E142.08048
G1 X143.189 Y165.790 E142.14137
G1 X142.905 Y165.505 E142.17860
G1 X142.609 Y166.117 E142.24142
G1 X142.272 Y165.779 E142.28554
G1 X141.638 Y166.053 E142.34935
G1 X142.104 Y166.519 E142.41023
G1 X141.646 Y166.968 E142.46956
G1 X141.005 Y166.327 E142.55337
G1 X140.372 Y166.601 E142.61718
G1 X141.298 Y167.527 E142.73827
G1 X140.996 Y168.132 E142.80082
G1 X139.739 Y166.875 E142.96520
G1 X139.106 Y167.149 E143.02901
G1 X140.798 Y168.842 E143.25038
G1 X140.744 Y169.694 E143.32939
G1 X138.473 Y167.423 E143.62643
G1 X137.840 Y167.697 E143.69024
G1 X140.908 Y170.765 E144.09157
G1 X141.440 Y172.205 F2400.000
G1 X137.206 Y167.971 E144.64538 F720.000
G1 X136.573 Y168.245 E144.70919
G1 X141.911 Y173.583 E145.40734
G1 X142.249 Y174.828 E145.52675
