( Made using CamBam - http://www.cambam.co.uk )
( table 10/16/2014 11:35:55 AM )
( T0 : 0.125 )
G20 G90 G64 G40
G0 Z0.125
( T0 : 0.125 )
T0 M6
( holes )
G17
M3 S1000
G0 X1.2436 Y0.2264
G0 Z0.0625
G1 F10.0 Z-0.01
G2 X1.1897 Y0.1953 I-0.0359 J0.0
G2 Y0.2575 I0.018 J0.0311
G2 X1.2436 Y0.2264 I0.018 J-0.0311
G1 Z-0.02
G2 X1.1897 Y0.1953 I-0.0359 J0.0
G2 Y0.2575 I0.018 J0.0311
G2 X1.2436 Y0.2264 I0.018 J-0.0311
G1 Z-0.03
G2 X1.1897 Y0.1953 I-0.0359 J0.0
G2 Y0.2575 I0.018 J0.0311
G2 X1.2436 Y0.2264 I0.018 J-0.0311
G1 Z-0.04
G2 X1.1897 Y0.1953 I-0.0359 J0.0
G2 Y0.2575 I0.018 J0.0311
G2 X1.2436 Y0.2264 I0.018 J-0.0311
G1 Z-0.05
G2 X1.1897 Y0.1953 I-0.0359 J0.0
G2 Y0.2575 I0.018 J0.0311
G2 X1.2436 Y0.2264 I0.018 J-0.0311
G1 Z-0.06
G2 X1.1897 Y0.1953 I-0.0359 J0.0
G2 Y0.2575 I0.018 J0.0311
G2 X1.2436 Y0.2264 I0.018 J-0.0311
G1 Z-0.07
G2 X1.1897 Y0.1953 I-0.0359 J0.0
G2 Y0.2575 I0.018 J0.0311
G2 X1.2436 Y0.2264 I0.018 J-0.0311
G1 Z-0.08
G2 X1.1897 Y0.1953 I-0.0359 J0.0
G2 Y0.2575 I0.018 J0.0311
G2 X1.2436 Y0.2264 I0.018 J-0.0311
G1 Z-0.09
G2 X1.1897 Y0.1953 I-0.0359 J0.0
G2 Y0.2575 I0.018 J0.0311
G2 X1.2436 Y0.2264 I0.018 J-0.0311
G1 Z-0.1
G2 X1.1897 Y0.1953 I-0.0359 J0.0
G2 Y0.2575 I0.018 J0.0311
G2 X1.2436 Y0.2264 I0.018 J-0.0311
G1 Z-0.11
G2 X1.1897 Y0.1953 I-0.0359 J0.0
G2 Y0.2575 I0.018 J0.0311
G2 X1.2436 Y0.2264 I0.018 J-0.0311
G1 Z-0.12
G2 X1.1897 Y0.1953 I-0.0359 J0.0
G2 Y0.2575 I0.018 J0.0311
G2 X1.2436 Y0.2264 I0.018 J-0.0311
G1 Z-0.13
G2 X1.1897 Y0.1953 I-0.0359 J0.0
G2 Y0.2575 I0.018 J0.0311
G2 X1.2436 Y0.2264 I0.018 J-0.0311
G1 Z-0.135
G2 X1.1897 Y0.1953 I-0.0359 J0.0
G2 Y0.2575 I0.018 J0.0311
G2 X1.2436 Y0.2264 I0.018 J-0.0311
G0 Z0.125
G0 X2.1954
G0 Z0.0625
G1 Z-0.01
G2 X2.2133 Y0.2575 I0.0359 J0.0
G2 X2.2672 Y0.2264 I0.018 J-0.0311
G2 X2.2133 Y0.1953 I-0.0359 J0.0
G2 X2.1954 Y0.2264 I0.018 J0.0311
G1 Z-0.02
G2 X2.2133 Y0.2575 I0.0359 J0.0
G2 X2.2672 Y0.2264 I0.018 J-0.0311
G2 X2.2133 Y0.1953 I-0.0359 J0.0
G2 X2.1954 Y0.2264 I0.018 J0.0311
G1 Z-0.03
G2 X2.2133 Y0.2575 I0.0359 J0.0
G2 X2.2672 Y0.2264 I0.018 J-0.0311
G2 X2.2133 Y0.1953 I-0.0359 J0.0
G2 X2.1954 Y0.2264 I0.018 J0.0311
G1 Z-0.04
G2 X2.2133 Y0.2575 I0.0359 J0.0
G2 X2.2672 Y0.2264 I0.018 J-0.0311
G2 X2.2133 Y0.1953 I-0.0359 J0.0
G2 X2.1954 Y0.2264 I0.018 J0.0311
G1 Z-0.05
G2 X2.2133 Y0.2575 I0.0359 J0.0
G2 X2.2672 Y0.2264 I0.018 J-0.0311
G2 X2.2133 Y0.1953 I-0.0359 J0.0
G2 X2.1954 Y0.2264 I0.018 J0.0311
G1 Z-0.06
G2 X2.2133 Y0.2575 I0.0359 J0.0
G2 X2.2672 Y0.2264 I0.018 J-0.0311
G2 X2.2133 Y0.1953 I-0.0359 J0.0
G2 X2.1954 Y0.2264 I0.018 J0.0311
G1 Z-0.07
G2 X2.2133 Y0.2575 I0.0359 J0.0
G2 X2.2672 Y0.2264 I0.018 J-0.0311
G2 X2.2133 Y0.1953 I-0.0359 J0.0
G2 X2.1954 Y0.2264 I0.018 J0.0311
G1 Z-0.08
G2 X2.2133 Y0.2575 I0.0359 J0.0
G2 X2.2672 Y0.2264 I0.018 J-0.0311
G2 X2.2133 Y0.1953 I-0.0359 J0.0
G2 X2.1954 Y0.2264 I0.018 J0.0311
G1 Z-0.09
G2 X2.2133 Y0.2575 I0.0359 J0.0
G2 X2.2672 Y0.2264 I0.018 J-0.0311
G2 X2.2133 Y0.1953 I-0.0359 J0.0
G2 X2.1954 Y0.2264 I0.018 J0.0311
G1 Z-0.1
G2 X2.2133 Y0.2575 I0.0359 J0.0
G2 X2.2672 Y0.2264 I0.018 J-0.0311
G2 X2.2133 Y0.1953 I-0.0359 J0.0
G2 X2.1954 Y0.2264 I0.018 J0.0311
G1 Z-0.11
G2 X2.2133 Y0.2575 I0.0359 J0.0
G2 X2.2672 Y0.2264 I0.018 J-0.0311
G2 X2.2133 Y0.1953 I-0.0359 J0.0
G2 X2.1954 Y0.2264 I0.018 J0.0311
G1 Z-0.12
G2 X2.2133 Y0.2575 I0.0359 J0.0
G2 X2.2672 Y0.2264 I0.018 J-0.0311
G2 X2.2133 Y0.1953 I-0.0359 J0.0
G2 X2.1954 Y0.2264 I0.018 J0.0311
G1 Z-0.13
G2 X2.2133 Y0.2575 I0.0359 J0.0
G2 X2.2672 Y0.2264 I0.018 J-0.0311
G2 X2.2133 Y0.1953 I-0.0359 J0.0
G2 X2.1954 Y0.2264 I0.018 J0.0311
G1 Z-0.135
G2 X2.2133 Y0.2575 I0.0359 J0.0
G2 X2.2672 Y0.2264 I0.018 J-0.0311
G2 X2.2133 Y0.1953 I-0.0359 J0.0
G2 X2.1954 Y0.2264 I0.018 J0.0311
G0 Z0.125
G0 X2.2302 Y1.3913
G0 Z0.0625
G1 Z-0.01
G2 X2.2133 Y1.3961 I0.0011 J0.0359
G2 Y1.4583 I0.018 J0.0311
G2 X2.2672 Y1.4272 I0.018 J-0.0311
G2 X2.2302 Y1.3913 I-0.0359 J0.0
G1 Z-0.02
G2 X2.2133 Y1.3961 I0.0011 J0.0359
G2 Y1.4583 I0.018 J0.0311
G2 X2.2672 Y1.4272 I0.018 J-0.0311
G2 X2.2302 Y1.3913 I-0.0359 J0.0
G1 Z-0.03
G2 X2.2133 Y1.3961 I0.0011 J0.0359
G2 Y1.4583 I0.018 J0.0311
G2 X2.2672 Y1.4272 I0.018 J-0.0311
G2 X2.2302 Y1.3913 I-0.0359 J0.0
G1 Z-0.04
G2 X2.2133 Y1.3961 I0.0011 J0.0359
G2 Y1.4583 I0.018 J0.0311
G2 X2.2672 Y1.4272 I0.018 J-0.0311
G2 X2.2302 Y1.3913 I-0.0359 J0.0
G1 Z-0.05
G2 X2.2133 Y1.3961 I0.0011 J0.0359
G2 Y1.4583 I0.018 J0.0311
G2 X2.2672 Y1.4272 I0.018 J-0.0311
G2 X2.2302 Y1.3913 I-0.0359 J0.0
G1 Z-0.06
G2 X2.2133 Y1.3961 I0.0011 J0.0359
G2 Y1.4583 I0.018 J0.0311
G2 X2.2672 Y1.4272 I0.018 J-0.0311
G2 X2.2302 Y1.3913 I-0.0359 J0.0
G1 Z-0.07
G2 X2.2133 Y1.3961 I0.0011 J0.0359
G2 Y1.4583 I0.018 J0.0311
G2 X2.2672 Y1.4272 I0.018 J-0.0311
G2 X2.2302 Y1.3913 I-0.0359 J0.0
G1 Z-0.08
G2 X2.2133 Y1.3961 I0.0011 J0.0359
G2 Y1.4583 I0.018 J0.0311
G2 X2.2672 Y1.4272 I0.018 J-0.0311
G2 X2.2302 Y1.3913 I-0.0359 J0.0
G1 Z-0.09
G2 X2.2133 Y1.3961 I0.0011 J0.0359
G2 Y1.4583 I0.018 J0.0311
G2 X2.2672 Y1.4272 I0.018 J-0.0311
G2 X2.2302 Y1.3913 I-0.0359 J0.0
G1 Z-0.1
G2 X2.2133 Y1.3961 I0.0011 J0.0359
G2 Y1.4583 I0.018 J0.0311
G2 X2.2672 Y1.4272 I0.018 J-0.0311
G2 X2.2302 Y1.3913 I-0.0359 J0.0
G1 Z-0.11
G2 X2.2133 Y1.3961 I0.0011 J0.0359
G2 Y1.4583 I0.018 J0.0311
G2 X2.2672 Y1.4272 I0.018 J-0.0311
G2 X2.2302 Y1.3913 I-0.0359 J0.0
G1 Z-0.12
G2 X2.2133 Y1.3961 I0.0011 J0.0359
G2 Y1.4583 I0.018 J0.0311
G2 X2.2672 Y1.4272 I0.018 J-0.0311
G2 X2.2302 Y1.3913 I-0.0359 J0.0
G1 Z-0.13
G2 X2.2133 Y1.3961 I0.0011 J0.0359
G2 Y1.4583 I0.018 J0.0311
G2 X2.2672 Y1.4272 I0.018 J-0.0311
G2 X2.2302 Y1.3913 I-0.0359 J0.0
G1 Z-0.135
G2 X2.2133 Y1.3961 I0.0011 J0.0359
G2 Y1.4583 I0.018 J0.0311
G2 X2.2672 Y1.4272 I0.018 J-0.0311
G2 X2.2302 Y1.3913 I-0.0359 J0.0
G0 Z0.125
G0 X1.2436 Y1.4259
G0 Z0.0625
G1 Z-0.01
G2 X1.1897 Y1.3961 I-0.0359 J0.0013
G2 Y1.4583 I0.018 J0.0311
G2 X1.2436 Y1.4272 I0.018 J-0.0311
G2 Y1.4259 I-0.0359 J0.0
G1 Z-0.02
G2 X1.1897 Y1.3961 I-0.0359 J0.0013
G2 Y1.4583 I0.018 J0.0311
G2 X1.2436 Y1.4272 I0.018 J-0.0311
G2 Y1.4259 I-0.0359 J0.0
G1 Z-0.03
G2 X1.1897 Y1.3961 I-0.0359 J0.0013
G2 Y1.4583 I0.018 J0.0311
G2 X1.2436 Y1.4272 I0.018 J-0.0311
G2 Y1.4259 I-0.0359 J0.0
G1 Z-0.04
G2 X1.1897 Y1.3961 I-0.0359 J0.0013
G2 Y1.4583 I0.018 J0.0311
G2 X1.2436 Y1.4272 I0.018 J-0.0311
G2 Y1.4259 I-0.0359 J0.0
G1 Z-0.05
G2 X1.1897 Y1.3961 I-0.0359 J0.0013
G2 Y1.4583 I0.018 J0.0311
G2 X1.2436 Y1.4272 I0.018 J-0.0311
G2 Y1.4259 I-0.0359 J0.0
G1 Z-0.06
G2 X1.1897 Y1.3961 I-0.0359 J0.0013
G2 Y1.4583 I0.018 J0.0311
G2 X1.2436 Y1.4272 I0.018 J-0.0311
G2 Y1.4259 I-0.0359 J0.0
G1 Z-0.07
G2 X1.1897 Y1.3961 I-0.0359 J0.0013
G2 Y1.4583 I0.018 J0.0311
G2 X1.2436 Y1.4272 I0.018 J-0.0311
G2 Y1.4259 I-0.0359 J0.0
G1 Z-0.08
G2 X1.1897 Y1.3961 I-0.0359 J0.0013
G2 Y1.4583 I0.018 J0.0311
G2 X1.2436 Y1.4272 I0.018 J-0.0311
G2 Y1.4259 I-0.0359 J0.0
G1 Z-0.09
G2 X1.1897 Y1.3961 I-0.0359 J0.0013
G2 Y1.4583 I0.018 J0.0311
G2 X1.2436 Y1.4272 I0.018 J-0.0311
G2 Y1.4259 I-0.0359 J0.0
G1 Z-0.1
G2 X1.1897 Y1.3961 I-0.0359 J0.0013
G2 Y1.4583 I0.018 J0.0311
G2 X1.2436 Y1.4272 I0.018 J-0.0311
G2 Y1.4259 I-0.0359 J0.0
G1 Z-0.11
G2 X1.1897 Y1.3961 I-0.0359 J0.0013
G2 Y1.4583 I0.018 J0.0311
G2 X1.2436 Y1.4272 I0.018 J-0.0311
G2 Y1.4259 I-0.0359 J0.0
G1 Z-0.12
G2 X1.1897 Y1.3961 I-0.0359 J0.0013
G2 Y1.4583 I0.018 J0.0311
G2 X1.2436 Y1.4272 I0.018 J-0.0311
G2 Y1.4259 I-0.0359 J0.0
G1 Z-0.13
G2 X1.1897 Y1.3961 I-0.0359 J0.0013
G2 Y1.4583 I0.018 J0.0311
G2 X1.2436 Y1.4272 I0.018 J-0.0311
G2 Y1.4259 I-0.0359 J0.0
G1 Z-0.135
G2 X1.1897 Y1.3961 I-0.0359 J0.0013
G2 Y1.4583 I0.018 J0.0311
G2 X1.2436 Y1.4272 I0.018 J-0.0311
G2 Y1.4259 I-0.0359 J0.0
G0 Z0.125
G0 X5.4691 Y5.5051
G0 Z0.0625
G1 Z-0.01
G2 X5.4785 Y5.5719 I0.0308 J0.0297
G2 X5.5427 Y5.5348 I0.0214 J-0.0371
G2 X5.4785 Y5.4978 I-0.0428 J0.0
G2 X5.4691 Y5.5051 I0.0214 J0.0371
G1 Z-0.02
G2 X5.4785 Y5.5719 I0.0308 J0.0297
G2 X5.5427 Y5.5348 I0.0214 J-0.0371
G2 X5.4785 Y5.4978 I-0.0428 J0.0
G2 X5.4691 Y5.5051 I0.0214 J0.0371
G1 Z-0.03
G2 X5.4785 Y5.5719 I0.0308 J0.0297
G2 X5.5427 Y5.5348 I0.0214 J-0.0371
G2 X5.4785 Y5.4978 I-0.0428 J0.0
G2 X5.4691 Y5.5051 I0.0214 J0.0371
G1 Z-0.04
G2 X5.4785 Y5.5719 I0.0308 J0.0297
G2 X5.5427 Y5.5348 I0.0214 J-0.0371
G2 X5.4785 Y5.4978 I-0.0428 J0.0
G2 X5.4691 Y5.5051 I0.0214 J0.0371
G1 Z-0.05
G2 X5.4785 Y5.5719 I0.0308 J0.0297
G2 X5.5427 Y5.5348 I0.0214 J-0.0371
G2 X5.4785 Y5.4978 I-0.0428 J0.0
G2 X5.4691 Y5.5051 I0.0214 J0.0371
G1 Z-0.06
G2 X5.4785 Y5.5719 I0.0308 J0.0297
G2 X5.5427 Y5.5348 I0.0214 J-0.0371
G2 X5.4785 Y5.4978 I-0.0428 J0.0
G2 X5.4691 Y5.5051 I0.0214 J0.0371
G1 Z-0.07
G2 X5.4785 Y5.5719 I0.0308 J0.0297
G2 X5.5427 Y5.5348 I0.0214 J-0.0371
G2 X5.4785 Y5.4978 I-0.0428 J0.0
G2 X5.4691 Y5.5051 I0.0214 J0.0371
G1 Z-0.08
G2 X5.4785 Y5.5719 I0.0308 J0.0297
G2 X5.5427 Y5.5348 I0.0214 J-0.0371
G2 X5.4785 Y5.4978 I-0.0428 J0.0
G2 X5.4691 Y5.5051 I0.0214 J0.0371
G1 Z-0.09
G2 X5.4785 Y5.5719 I0.0308 J0.0297
G2 X5.5427 Y5.5348 I0.0214 J-0.0371
G2 X5.4785 Y5.4978 I-0.0428 J0.0
G2 X5.4691 Y5.5051 I0.0214 J0.0371
G1 Z-0.1
G2 X5.4785 Y5.5719 I0.0308 J0.0297
G2 X5.5427 Y5.5348 I0.0214 J-0.0371
G2 X5.4785 Y5.4978 I-0.0428 J0.0
G2 X5.4691 Y5.5051 I0.0214 J0.0371
G1 Z-0.11
G2 X5.4785 Y5.5719 I0.0308 J0.0297
G2 X5.5427 Y5.5348 I0.0214 J-0.0371
G2 X5.4785 Y5.4978 I-0.0428 J0.0
G2 X5.4691 Y5.5051 I0.0214 J0.0371
G1 Z-0.12
G2 X5.4785 Y5.5719 I0.0308 J0.0297
G2 X5.5427 Y5.5348 I0.0214 J-0.0371
G2 X5.4785 Y5.4978 I-0.0428 J0.0
G2 X5.4691 Y5.5051 I0.0214 J0.0371
G1 Z-0.13
G2 X5.4785 Y5.5719 I0.0308 J0.0297
G2 X5.5427 Y5.5348 I0.0214 J-0.0371
G2 X5.4785 Y5.4978 I-0.0428 J0.0
G2 X5.4691 Y5.5051 I0.0214 J0.0371
G1 Z-0.135
G2 X5.4785 Y5.5719 I0.0308 J0.0297
G2 X5.5427 Y5.5348 I0.0214 J-0.0371
G2 X5.4785 Y5.4978 I-0.0428 J0.0
G2 X5.4691 Y5.5051 I0.0214 J0.0371
G0 Z0.125
G0 X5.4984 Y6.4257
G0 Z0.0625
G1 Z-0.01
G2 X5.4766 Y6.4319 I0.0015 J0.0465
G2 Y6.5125 I0.0232 J0.0403
G2 X5.5464 Y6.4722 I0.0232 J-0.0403
G2 X5.4984 Y6.4257 I-0.0465 J0.0
G1 Z-0.02
G2 X5.4766 Y6.4319 I0.0015 J0.0465
G2 Y6.5125 I0.0232 J0.0403
G2 X5.5464 Y6.4722 I0.0232 J-0.0403
G2 X5.4984 Y6.4257 I-0.0465 J0.0
G1 Z-0.03
G2 X5.4766 Y6.4319 I0.0015 J0.0465
G2 Y6.5125 I0.0232 J0.0403
G2 X5.5464 Y6.4722 I0.0232 J-0.0403
G2 X5.4984 Y6.4257 I-0.0465 J0.0
G1 Z-0.04
G2 X5.4766 Y6.4319 I0.0015 J0.0465
G2 Y6.5125 I0.0232 J0.0403
G2 X5.5464 Y6.4722 I0.0232 J-0.0403
G2 X5.4984 Y6.4257 I-0.0465 J0.0
G1 Z-0.05
G2 X5.4766 Y6.4319 I0.0015 J0.0465
G2 Y6.5125 I0.0232 J0.0403
G2 X5.5464 Y6.4722 I0.0232 J-0.0403
G2 X5.4984 Y6.4257 I-0.0465 J0.0
G1 Z-0.06
G2 X5.4766 Y6.4319 I0.0015 J0.0465
G2 Y6.5125 I0.0232 J0.0403
G2 X5.5464 Y6.4722 I0.0232 J-0.0403
G2 X5.4984 Y6.4257 I-0.0465 J0.0
G1 Z-0.07
G2 X5.4766 Y6.4319 I0.0015 J0.0465
G2 Y6.5125 I0.0232 J0.0403
G2 X5.5464 Y6.4722 I0.0232 J-0.0403
G2 X5.4984 Y6.4257 I-0.0465 J0.0
G1 Z-0.08
G2 X5.4766 Y6.4319 I0.0015 J0.0465
G2 Y6.5125 I0.0232 J0.0403
G2 X5.5464 Y6.4722 I0.0232 J-0.0403
G2 X5.4984 Y6.4257 I-0.0465 J0.0
G1 Z-0.09
G2 X5.4766 Y6.4319 I0.0015 J0.0465
G2 Y6.5125 I0.0232 J0.0403
G2 X5.5464 Y6.4722 I0.0232 J-0.0403
G2 X5.4984 Y6.4257 I-0.0465 J0.0
G1 Z-0.1
G2 X5.4766 Y6.4319 I0.0015 J0.0465
G2 Y6.5125 I0.0232 J0.0403
G2 X5.5464 Y6.4722 I0.0232 J-0.0403
G2 X5.4984 Y6.4257 I-0.0465 J0.0
G1 Z-0.11
G2 X5.4766 Y6.4319 I0.0015 J0.0465
G2 Y6.5125 I0.0232 J0.0403
G2 X5.5464 Y6.4722 I0.0232 J-0.0403
G2 X5.4984 Y6.4257 I-0.0465 J0.0
G1 Z-0.12
G2 X5.4766 Y6.4319 I0.0015 J0.0465
G2 Y6.5125 I0.0232 J0.0403
G2 X5.5464 Y6.4722 I0.0232 J-0.0403
G2 X5.4984 Y6.4257 I-0.0465 J0.0
G1 Z-0.13
G2 X5.4766 Y6.4319 I0.0015 J0.0465
G2 Y6.5125 I0.0232 J0.0403
G2 X5.5464 Y6.4722 I0.0232 J-0.0403
G2 X5.4984 Y6.4257 I-0.0465 J0.0
G1 Z-0.135
G2 X5.4766 Y6.4319 I0.0015 J0.0465
G2 Y6.5125 I0.0232 J0.0403
G2 X5.5464 Y6.4722 I0.0232 J-0.0403
G2 X5.4984 Y6.4257 I-0.0465 J0.0
G0 Z0.125
G0 X6.4534 Y6.47
G0 Z0.0625
G1 Z-0.01
G2 X6.4766 Y6.5125 I0.0465 J0.0022
G2 X6.5464 Y6.4722 I0.0232 J-0.0403
G2 X6.4766 Y6.4319 I-0.0465 J0.0
G2 X6.4534 Y6.47 I0.0232 J0.0403
G1 Z-0.02
G2 X6.4766 Y6.5125 I0.0465 J0.0022
G2 X6.5464 Y6.4722 I0.0232 J-0.0403
G2 X6.4766 Y6.4319 I-0.0465 J0.0
G2 X6.4534 Y6.47 I0.0232 J0.0403
G1 Z-0.03
G2 X6.4766 Y6.5125 I0.0465 J0.0022
G2 X6.5464 Y6.4722 I0.0232 J-0.0403
G2 X6.4766 Y6.4319 I-0.0465 J0.0
G2 X6.4534 Y6.47 I0.0232 J0.0403
G1 Z-0.04
G2 X6.4766 Y6.5125 I0.0465 J0.0022
G2 X6.5464 Y6.4722 I0.0232 J-0.0403
G2 X6.4766 Y6.4319 I-0.0465 J0.0
G2 X6.4534 Y6.47 I0.0232 J0.0403
G1 Z-0.05
G2 X6.4766 Y6.5125 I0.0465 J0.0022
G2 X6.5464 Y6.4722 I0.0232 J-0.0403
G2 X6.4766 Y6.4319 I-0.0465 J0.0
G2 X6.4534 Y6.47 I0.0232 J0.0403
G1 Z-0.06
G2 X6.4766 Y6.5125 I0.0465 J0.0022
G2 X6.5464 Y6.4722 I0.0232 J-0.0403
G2 X6.4766 Y6.4319 I-0.0465 J0.0
G2 X6.4534 Y6.47 I0.0232 J0.0403
G1 Z-0.07
G2 X6.4766 Y6.5125 I0.0465 J0.0022
G2 X6.5464 Y6.4722 I0.0232 J-0.0403
G2 X6.4766 Y6.4319 I-0.0465 J0.0
G2 X6.4534 Y6.47 I0.0232 J0.0403
G1 Z-0.08
G2 X6.4766 Y6.5125 I0.0465 J0.0022
G2 X6.5464 Y6.4722 I0.0232 J-0.0403
G2 X6.4766 Y6.4319 I-0.0465 J0.0
G2 X6.4534 Y6.47 I0.0232 J0.0403
G1 Z-0.09
G2 X6.4766 Y6.5125 I0.0465 J0.0022
G2 X6.5464 Y6.4722 I0.0232 J-0.0403
G2 X6.4766 Y6.4319 I-0.0465 J0.0
G2 X6.4534 Y6.47 I0.0232 J0.0403
G1 Z-0.1
G2 X6.4766 Y6.5125 I0.0465 J0.0022
G2 X6.5464 Y6.4722 I0.0232 J-0.0403
G2 X6.4766 Y6.4319 I-0.0465 J0.0
G2 X6.4534 Y6.47 I0.0232 J0.0403
G1 Z-0.11
G2 X6.4766 Y6.5125 I0.0465 J0.0022
G2 X6.5464 Y6.4722 I0.0232 J-0.0403
G2 X6.4766 Y6.4319 I-0.0465 J0.0
G2 X6.4534 Y6.47 I0.0232 J0.0403
G1 Z-0.12
G2 X6.4766 Y6.5125 I0.0465 J0.0022
G2 X6.5464 Y6.4722 I0.0232 J-0.0403
G2 X6.4766 Y6.4319 I-0.0465 J0.0
G2 X6.4534 Y6.47 I0.0232 J0.0403
G1 Z-0.13
G2 X6.4766 Y6.5125 I0.0465 J0.0022
G2 X6.5464 Y6.4722 I0.0232 J-0.0403
G2 X6.4766 Y6.4319 I-0.0465 J0.0
G2 X6.4534 Y6.47 I0.0232 J0.0403
G1 Z-0.135
G2 X6.4766 Y6.5125 I0.0465 J0.0022
G2 X6.5464 Y6.4722 I0.0232 J-0.0403
G2 X6.4766 Y6.4319 I-0.0465 J0.0
G2 X6.4534 Y6.47 I0.0232 J0.0403
G0 Z0.125
G0 X6.4976 Y5.5813
G0 Z0.0625
G1 Z-0.01
G2 X6.5464 Y5.5348 I0.0023 J-0.0464
G2 X6.4766 Y5.4946 I-0.0465 J0.0
G2 Y5.5751 I0.0233 J0.0403
G2 X6.4976 Y5.5813 I0.0233 J-0.0403
G1 Z-0.02
G2 X6.5464 Y5.5348 I0.0023 J-0.0464
G2 X6.4766 Y5.4946 I-0.0465 J0.0
G2 Y5.5751 I0.0233 J0.0403
G2 X6.4976 Y5.5813 I0.0233 J-0.0403
G1 Z-0.03
G2 X6.5464 Y5.5348 I0.0023 J-0.0464
G2 X6.4766 Y5.4946 I-0.0465 J0.0
G2 Y5.5751 I0.0233 J0.0403
G2 X6.4976 Y5.5813 I0.0233 J-0.0403
G1 Z-0.04
G2 X6.5464 Y5.5348 I0.0023 J-0.0464
G2 X6.4766 Y5.4946 I-0.0465 J0.0
G2 Y5.5751 I0.0233 J0.0403
G2 X6.4976 Y5.5813 I0.0233 J-0.0403
G1 Z-0.05
G2 X6.5464 Y5.5348 I0.0023 J-0.0464
G2 X6.4766 Y5.4946 I-0.0465 J0.0
G2 Y5.5751 I0.0233 J0.0403
G2 X6.4976 Y5.5813 I0.0233 J-0.0403
G1 Z-0.06
G2 X6.5464 Y5.5348 I0.0023 J-0.0464
G2 X6.4766 Y5.4946 I-0.0465 J0.0
G2 Y5.5751 I0.0233 J0.0403
G2 X6.4976 Y5.5813 I0.0233 J-0.0403
G1 Z-0.07
G2 X6.5464 Y5.5348 I0.0023 J-0.0464
G2 X6.4766 Y5.4946 I-0.0465 J0.0
G2 Y5.5751 I0.0233 J0.0403
G2 X6.4976 Y5.5813 I0.0233 J-0.0403
G1 Z-0.08
G2 X6.5464 Y5.5348 I0.0023 J-0.0464
G2 X6.4766 Y5.4946 I-0.0465 J0.0
G2 Y5.5751 I0.0233 J0.0403
G2 X6.4976 Y5.5813 I0.0233 J-0.0403
G1 Z-0.09
G2 X6.5464 Y5.5348 I0.0023 J-0.0464
G2 X6.4766 Y5.4946 I-0.0465 J0.0
G2 Y5.5751 I0.0233 J0.0403
G2 X6.4976 Y5.5813 I0.0233 J-0.0403
G1 Z-0.1
G2 X6.5464 Y5.5348 I0.0023 J-0.0464
G2 X6.4766 Y5.4946 I-0.0465 J0.0
G2 Y5.5751 I0.0233 J0.0403
G2 X6.4976 Y5.5813 I0.0233 J-0.0403
G1 Z-0.11
G2 X6.5464 Y5.5348 I0.0023 J-0.0464
G2 X6.4766 Y5.4946 I-0.0465 J0.0
G2 Y5.5751 I0.0233 J0.0403
G2 X6.4976 Y5.5813 I0.0233 J-0.0403
G1 Z-0.12
G2 X6.5464 Y5.5348 I0.0023 J-0.0464
G2 X6.4766 Y5.4946 I-0.0465 J0.0
G2 Y5.5751 I0.0233 J0.0403
G2 X6.4976 Y5.5813 I0.0233 J-0.0403
G1 Z-0.13
G2 X6.5464 Y5.5348 I0.0023 J-0.0464
G2 X6.4766 Y5.4946 I-0.0465 J0.0
G2 Y5.5751 I0.0233 J0.0403
G2 X6.4976 Y5.5813 I0.0233 J-0.0403
G1 Z-0.135
G2 X6.5464 Y5.5348 I0.0023 J-0.0464
G2 X6.4766 Y5.4946 I-0.0465 J0.0
G2 Y5.5751 I0.0233 J0.0403
G2 X6.4976 Y5.5813 I0.0233 J-0.0403
G0 Z0.125
G0 X9.7344 Y1.4554
G0 Z0.0625
G1 Z-0.01
G2 X9.7387 Y1.4583 I0.0222 J-0.0283
G2 X9.7925 Y1.4272 I0.018 J-0.0311
G2 X9.7387 Y1.3961 I-0.0359 J0.0
G2 X9.7344 Y1.4554 I0.018 J0.0311
G1 Z-0.02
G2 X9.7387 Y1.4583 I0.0222 J-0.0283
G2 X9.7925 Y1.4272 I0.018 J-0.0311
G2 X9.7387 Y1.3961 I-0.0359 J0.0
G2 X9.7344 Y1.4554 I0.018 J0.0311
G1 Z-0.03
G2 X9.7387 Y1.4583 I0.0222 J-0.0283
G2 X9.7925 Y1.4272 I0.018 J-0.0311
G2 X9.7387 Y1.3961 I-0.0359 J0.0
G2 X9.7344 Y1.4554 I0.018 J0.0311
G1 Z-0.04
G2 X9.7387 Y1.4583 I0.0222 J-0.0283
G2 X9.7925 Y1.4272 I0.018 J-0.0311
G2 X9.7387 Y1.3961 I-0.0359 J0.0
G2 X9.7344 Y1.4554 I0.018 J0.0311
G1 Z-0.05
G2 X9.7387 Y1.4583 I0.0222 J-0.0283
G2 X9.7925 Y1.4272 I0.018 J-0.0311
G2 X9.7387 Y1.3961 I-0.0359 J0.0
G2 X9.7344 Y1.4554 I0.018 J0.0311
G1 Z-0.06
G2 X9.7387 Y1.4583 I0.0222 J-0.0283
G2 X9.7925 Y1.4272 I0.018 J-0.0311
G2 X9.7387 Y1.3961 I-0.0359 J0.0
G2 X9.7344 Y1.4554 I0.018 J0.0311
G1 Z-0.07
G2 X9.7387 Y1.4583 I0.0222 J-0.0283
G2 X9.7925 Y1.4272 I0.018 J-0.0311
G2 X9.7387 Y1.3961 I-0.0359 J0.0
G2 X9.7344 Y1.4554 I0.018 J0.0311
G1 Z-0.08
G2 X9.7387 Y1.4583 I0.0222 J-0.0283
G2 X9.7925 Y1.4272 I0.018 J-0.0311
G2 X9.7387 Y1.3961 I-0.0359 J0.0
G2 X9.7344 Y1.4554 I0.018 J0.0311
G1 Z-0.09
G2 X9.7387 Y1.4583 I0.0222 J-0.0283
G2 X9.7925 Y1.4272 I0.018 J-0.0311
G2 X9.7387 Y1.3961 I-0.0359 J0.0
G2 X9.7344 Y1.4554 I0.018 J0.0311
G1 Z-0.1
G2 X9.7387 Y1.4583 I0.0222 J-0.0283
G2 X9.7925 Y1.4272 I0.018 J-0.0311
G2 X9.7387 Y1.3961 I-0.0359 J0.0
G2 X9.7344 Y1.4554 I0.018 J0.0311
G1 Z-0.11
G2 X9.7387 Y1.4583 I0.0222 J-0.0283
G2 X9.7925 Y1.4272 I0.018 J-0.0311
G2 X9.7387 Y1.3961 I-0.0359 J0.0
G2 X9.7344 Y1.4554 I0.018 J0.0311
G1 Z-0.12
G2 X9.7387 Y1.4583 I0.0222 J-0.0283
G2 X9.7925 Y1.4272 I0.018 J-0.0311
G2 X9.7387 Y1.3961 I-0.0359 J0.0
G2 X9.7344 Y1.4554 I0.018 J0.0311
G1 Z-0.13
G2 X9.7387 Y1.4583 I0.0222 J-0.0283
G2 X9.7925 Y1.4272 I0.018 J-0.0311
G2 X9.7387 Y1.3961 I-0.0359 J0.0
G2 X9.7344 Y1.4554 I0.018 J0.0311
G1 Z-0.135
G2 X9.7387 Y1.4583 I0.0222 J-0.0283
G2 X9.7925 Y1.4272 I0.018 J-0.0311
G2 X9.7387 Y1.3961 I-0.0359 J0.0
G2 X9.7344 Y1.4554 I0.018 J0.0311
G0 Z0.125
G0 X10.7443 Y1.4281
G0 Z0.0625
G1 Z-0.01
G2 X10.7623 Y1.4583 I0.0359 J-0.001
G2 X10.8162 Y1.4272 I0.018 J-0.0311
G2 X10.7623 Y1.3961 I-0.0359 J0.0
G2 X10.7443 Y1.4281 I0.018 J0.0311
G1 Z-0.02
G2 X10.7623 Y1.4583 I0.0359 J-0.001
G2 X10.8162 Y1.4272 I0.018 J-0.0311
G2 X10.7623 Y1.3961 I-0.0359 J0.0
G2 X10.7443 Y1.4281 I0.018 J0.0311
G1 Z-0.03
G2 X10.7623 Y1.4583 I0.0359 J-0.001
G2 X10.8162 Y1.4272 I0.018 J-0.0311
G2 X10.7623 Y1.3961 I-0.0359 J0.0
G2 X10.7443 Y1.4281 I0.018 J0.0311
G1 Z-0.04
G2 X10.7623 Y1.4583 I0.0359 J-0.001
G2 X10.8162 Y1.4272 I0.018 J-0.0311
G2 X10.7623 Y1.3961 I-0.0359 J0.0
G2 X10.7443 Y1.4281 I0.018 J0.0311
G1 Z-0.05
G2 X10.7623 Y1.4583 I0.0359 J-0.001
G2 X10.8162 Y1.4272 I0.018 J-0.0311
G2 X10.7623 Y1.3961 I-0.0359 J0.0
G2 X10.7443 Y1.4281 I0.018 J0.0311
G1 Z-0.06
G2 X10.7623 Y1.4583 I0.0359 J-0.001
G2 X10.8162 Y1.4272 I0.018 J-0.0311
G2 X10.7623 Y1.3961 I-0.0359 J0.0
G2 X10.7443 Y1.4281 I0.018 J0.0311
G1 Z-0.07
G2 X10.7623 Y1.4583 I0.0359 J-0.001
G2 X10.8162 Y1.4272 I0.018 J-0.0311
G2 X10.7623 Y1.3961 I-0.0359 J0.0
G2 X10.7443 Y1.4281 I0.018 J0.0311
G1 Z-0.08
G2 X10.7623 Y1.4583 I0.0359 J-0.001
G2 X10.8162 Y1.4272 I0.018 J-0.0311
G2 X10.7623 Y1.3961 I-0.0359 J0.0
G2 X10.7443 Y1.4281 I0.018 J0.0311
G1 Z-0.09
G2 X10.7623 Y1.4583 I0.0359 J-0.001
G2 X10.8162 Y1.4272 I0.018 J-0.0311
G2 X10.7623 Y1.3961 I-0.0359 J0.0
G2 X10.7443 Y1.4281 I0.018 J0.0311
G1 Z-0.1
G2 X10.7623 Y1.4583 I0.0359 J-0.001
G2 X10.8162 Y1.4272 I0.018 J-0.0311
G2 X10.7623 Y1.3961 I-0.0359 J0.0
G2 X10.7443 Y1.4281 I0.018 J0.0311
G1 Z-0.11
G2 X10.7623 Y1.4583 I0.0359 J-0.001
G2 X10.8162 Y1.4272 I0.018 J-0.0311
G2 X10.7623 Y1.3961 I-0.0359 J0.0
G2 X10.7443 Y1.4281 I0.018 J0.0311
G1 Z-0.12
G2 X10.7623 Y1.4583 I0.0359 J-0.001
G2 X10.8162 Y1.4272 I0.018 J-0.0311
G2 X10.7623 Y1.3961 I-0.0359 J0.0
G2 X10.7443 Y1.4281 I0.018 J0.0311
G1 Z-0.13
G2 X10.7623 Y1.4583 I0.0359 J-0.001
G2 X10.8162 Y1.4272 I0.018 J-0.0311
G2 X10.7623 Y1.3961 I-0.0359 J0.0
G2 X10.7443 Y1.4281 I0.018 J0.0311
G1 Z-0.135
G2 X10.7623 Y1.4583 I0.0359 J-0.001
G2 X10.8162 Y1.4272 I0.018 J-0.0311
G2 X10.7623 Y1.3961 I-0.0359 J0.0
G2 X10.7443 Y1.4281 I0.018 J0.0311
G0 Z0.125
G0 X10.7792 Y0.2623
G0 Z0.0625
G1 Z-0.01
G2 X10.8162 Y0.2264 I0.0011 J-0.0359
G2 X10.7623 Y0.1953 I-0.0359 J0.0
G2 Y0.2575 I0.018 J0.0311
G2 X10.7792 Y0.2623 I0.018 J-0.0311
G1 Z-0.02
G2 X10.8162 Y0.2264 I0.0011 J-0.0359
G2 X10.7623 Y0.1953 I-0.0359 J0.0
G2 Y0.2575 I0.018 J0.0311
G2 X10.7792 Y0.2623 I0.018 J-0.0311
G1 Z-0.03
G2 X10.8162 Y0.2264 I0.0011 J-0.0359
G2 X10.7623 Y0.1953 I-0.0359 J0.0
G2 Y0.2575 I0.018 J0.0311
G2 X10.7792 Y0.2623 I0.018 J-0.0311
G1 Z-0.04
G2 X10.8162 Y0.2264 I0.0011 J-0.0359
G2 X10.7623 Y0.1953 I-0.0359 J0.0
G2 Y0.2575 I0.018 J0.0311
G2 X10.7792 Y0.2623 I0.018 J-0.0311
G1 Z-0.05
G2 X10.8162 Y0.2264 I0.0011 J-0.0359
G2 X10.7623 Y0.1953 I-0.0359 J0.0
G2 Y0.2575 I0.018 J0.0311
G2 X10.7792 Y0.2623 I0.018 J-0.0311
G1 Z-0.06
G2 X10.8162 Y0.2264 I0.0011 J-0.0359
G2 X10.7623 Y0.1953 I-0.0359 J0.0
G2 Y0.2575 I0.018 J0.0311
G2 X10.7792 Y0.2623 I0.018 J-0.0311
G1 Z-0.07
G2 X10.8162 Y0.2264 I0.0011 J-0.0359
G2 X10.7623 Y0.1953 I-0.0359 J0.0
G2 Y0.2575 I0.018 J0.0311
G2 X10.7792 Y0.2623 I0.018 J-0.0311
G1 Z-0.08
G2 X10.8162 Y0.2264 I0.0011 J-0.0359
G2 X10.7623 Y0.1953 I-0.0359 J0.0
G2 Y0.2575 I0.018 J0.0311
G2 X10.7792 Y0.2623 I0.018 J-0.0311
G1 Z-0.09
G2 X10.8162 Y0.2264 I0.0011 J-0.0359
G2 X10.7623 Y0.1953 I-0.0359 J0.0
G2 Y0.2575 I0.018 J0.0311
G2 X10.7792 Y0.2623 I0.018 J-0.0311
G1 Z-0.1
G2 X10.8162 Y0.2264 I0.0011 J-0.0359
G2 X10.7623 Y0.1953 I-0.0359 J0.0
G2 Y0.2575 I0.018 J0.0311
G2 X10.7792 Y0.2623 I0.018 J-0.0311
G1 Z-0.11
G2 X10.8162 Y0.2264 I0.0011 J-0.0359
G2 X10.7623 Y0.1953 I-0.0359 J0.0
G2 Y0.2575 I0.018 J0.0311
G2 X10.7792 Y0.2623 I0.018 J-0.0311
G1 Z-0.12
G2 X10.8162 Y0.2264 I0.0011 J-0.0359
G2 X10.7623 Y0.1953 I-0.0359 J0.0
G2 Y0.2575 I0.018 J0.0311
G2 X10.7792 Y0.2623 I0.018 J-0.0311
G1 Z-0.13
G2 X10.8162 Y0.2264 I0.0011 J-0.0359
G2 X10.7623 Y0.1953 I-0.0359 J0.0
G2 Y0.2575 I0.018 J0.0311
G2 X10.7792 Y0.2623 I0.018 J-0.0311
G1 Z-0.135
G2 X10.8162 Y0.2264 I0.0011 J-0.0359
G2 X10.7623 Y0.1953 I-0.0359 J0.0
G2 Y0.2575 I0.018 J0.0311
G2 X10.7792 Y0.2623 I0.018 J-0.0311
G0 Z0.125
G0 X9.7925 Y0.2276
G0 Z0.0625
G1 Z-0.01
G2 Y0.2264 I-0.0359 J-0.0013
G2 X9.7387 Y0.1953 I-0.0359 J0.0
G2 Y0.2575 I0.018 J0.0311
G2 X9.7925 Y0.2276 I0.018 J-0.0311
G1 Z-0.02
G2 Y0.2264 I-0.0359 J-0.0013
G2 X9.7387 Y0.1953 I-0.0359 J0.0
G2 Y0.2575 I0.018 J0.0311
G2 X9.7925 Y0.2276 I0.018 J-0.0311
G1 Z-0.03
G2 Y0.2264 I-0.0359 J-0.0013
G2 X9.7387 Y0.1953 I-0.0359 J0.0
G2 Y0.2575 I0.018 J0.0311
G2 X9.7925 Y0.2276 I0.018 J-0.0311
G1 Z-0.04
G2 Y0.2264 I-0.0359 J-0.0013
G2 X9.7387 Y0.1953 I-0.0359 J0.0
G2 Y0.2575 I0.018 J0.0311
G2 X9.7925 Y0.2276 I0.018 J-0.0311
G1 Z-0.05
G2 Y0.2264 I-0.0359 J-0.0013
G2 X9.7387 Y0.1953 I-0.0359 J0.0
G2 Y0.2575 I0.018 J0.0311
G2 X9.7925 Y0.2276 I0.018 J-0.0311
G1 Z-0.06
G2 Y0.2264 I-0.0359 J-0.0013
G2 X9.7387 Y0.1953 I-0.0359 J0.0
G2 Y0.2575 I0.018 J0.0311
G2 X9.7925 Y0.2276 I0.018 J-0.0311
G1 Z-0.07
G2 Y0.2264 I-0.0359 J-0.0013
G2 X9.7387 Y0.1953 I-0.0359 J0.0
G2 Y0.2575 I0.018 J0.0311
G2 X9.7925 Y0.2276 I0.018 J-0.0311
G1 Z-0.08
G2 Y0.2264 I-0.0359 J-0.0013
G2 X9.7387 Y0.1953 I-0.0359 J0.0
G2 Y0.2575 I0.018 J0.0311
G2 X9.7925 Y0.2276 I0.018 J-0.0311
G1 Z-0.09
G2 Y0.2264 I-0.0359 J-0.0013
G2 X9.7387 Y0.1953 I-0.0359 J0.0
G2 Y0.2575 I0.018 J0.0311
G2 X9.7925 Y0.2276 I0.018 J-0.0311
G1 Z-0.1
G2 Y0.2264 I-0.0359 J-0.0013
G2 X9.7387 Y0.1953 I-0.0359 J0.0
G2 Y0.2575 I0.018 J0.0311
G2 X9.7925 Y0.2276 I0.018 J-0.0311
G1 Z-0.11
G2 Y0.2264 I-0.0359 J-0.0013
G2 X9.7387 Y0.1953 I-0.0359 J0.0
G2 Y0.2575 I0.018 J0.0311
G2 X9.7925 Y0.2276 I0.018 J-0.0311
G1 Z-0.12
G2 Y0.2264 I-0.0359 J-0.0013
G2 X9.7387 Y0.1953 I-0.0359 J0.0
G2 Y0.2575 I0.018 J0.0311
G2 X9.7925 Y0.2276 I0.018 J-0.0311
G1 Z-0.13
G2 Y0.2264 I-0.0359 J-0.0013
G2 X9.7387 Y0.1953 I-0.0359 J0.0
G2 Y0.2575 I0.018 J0.0311
G2 X9.7925 Y0.2276 I0.018 J-0.0311
G1 Z-0.135
G2 Y0.2264 I-0.0359 J-0.0013
G2 X9.7387 Y0.1953 I-0.0359 J0.0
G2 Y0.2575 I0.018 J0.0311
G2 X9.7925 Y0.2276 I0.018 J-0.0311
G0 Z0.125
G0 X9.7626 Y10.5472
G0 Z0.0625
G1 Z-0.01
G2 X9.7462 Y10.5516 I-0.0001 J0.0326
G2 Y10.608 I0.0163 J0.0282
G2 X9.7951 Y10.5798 I0.0163 J-0.0282
G2 X9.7626 Y10.5472 I-0.0326 J0.0
G1 Z-0.02
G2 X9.7462 Y10.5516 I-0.0001 J0.0326
G2 Y10.608 I0.0163 J0.0282
G2 X9.7951 Y10.5798 I0.0163 J-0.0282
G2 X9.7626 Y10.5472 I-0.0326 J0.0
G1 Z-0.03
G2 X9.7462 Y10.5516 I-0.0001 J0.0326
G2 Y10.608 I0.0163 J0.0282
G2 X9.7951 Y10.5798 I0.0163 J-0.0282
G2 X9.7626 Y10.5472 I-0.0326 J0.0
G1 Z-0.04
G2 X9.7462 Y10.5516 I-0.0001 J0.0326
G2 Y10.608 I0.0163 J0.0282
G2 X9.7951 Y10.5798 I0.0163 J-0.0282
G2 X9.7626 Y10.5472 I-0.0326 J0.0
G1 Z-0.05
G2 X9.7462 Y10.5516 I-0.0001 J0.0326
G2 Y10.608 I0.0163 J0.0282
G2 X9.7951 Y10.5798 I0.0163 J-0.0282
G2 X9.7626 Y10.5472 I-0.0326 J0.0
G1 Z-0.06
G2 X9.7462 Y10.5516 I-0.0001 J0.0326
G2 Y10.608 I0.0163 J0.0282
G2 X9.7951 Y10.5798 I0.0163 J-0.0282
G2 X9.7626 Y10.5472 I-0.0326 J0.0
G1 Z-0.07
G2 X9.7462 Y10.5516 I-0.0001 J0.0326
G2 Y10.608 I0.0163 J0.0282
G2 X9.7951 Y10.5798 I0.0163 J-0.0282
G2 X9.7626 Y10.5472 I-0.0326 J0.0
G1 Z-0.08
G2 X9.7462 Y10.5516 I-0.0001 J0.0326
G2 Y10.608 I0.0163 J0.0282
G2 X9.7951 Y10.5798 I0.0163 J-0.0282
G2 X9.7626 Y10.5472 I-0.0326 J0.0
G1 Z-0.09
G2 X9.7462 Y10.5516 I-0.0001 J0.0326
G2 Y10.608 I0.0163 J0.0282
G2 X9.7951 Y10.5798 I0.0163 J-0.0282
G2 X9.7626 Y10.5472 I-0.0326 J0.0
G1 Z-0.1
G2 X9.7462 Y10.5516 I-0.0001 J0.0326
G2 Y10.608 I0.0163 J0.0282
G2 X9.7951 Y10.5798 I0.0163 J-0.0282
G2 X9.7626 Y10.5472 I-0.0326 J0.0
G1 Z-0.11
G2 X9.7462 Y10.5516 I-0.0001 J0.0326
G2 Y10.608 I0.0163 J0.0282
G2 X9.7951 Y10.5798 I0.0163 J-0.0282
G2 X9.7626 Y10.5472 I-0.0326 J0.0
G1 Z-0.12
G2 X9.7462 Y10.5516 I-0.0001 J0.0326
G2 Y10.608 I0.0163 J0.0282
G2 X9.7951 Y10.5798 I0.0163 J-0.0282
G2 X9.7626 Y10.5472 I-0.0326 J0.0
G1 Z-0.13
G2 X9.7462 Y10.5516 I-0.0001 J0.0326
G2 Y10.608 I0.0163 J0.0282
G2 X9.7951 Y10.5798 I0.0163 J-0.0282
G2 X9.7626 Y10.5472 I-0.0326 J0.0
G1 Z-0.135
G2 X9.7462 Y10.5516 I-0.0001 J0.0326
G2 Y10.608 I0.0163 J0.0282
G2 X9.7951 Y10.5798 I0.0163 J-0.0282
G2 X9.7626 Y10.5472 I-0.0326 J0.0
G0 Z0.125
G0 X10.7502 Y10.5786
G0 Z0.0625
G1 Z-0.01
G2 X10.7682 Y10.6109 I0.0359 J0.0011
G2 X10.8221 Y10.5798 I0.018 J-0.0311
G2 X10.7682 Y10.5487 I-0.0359 J0.0
G2 X10.7502 Y10.5786 I0.018 J0.0311
G1 Z-0.02
G2 X10.7682 Y10.6109 I0.0359 J0.0011
G2 X10.8221 Y10.5798 I0.018 J-0.0311
G2 X10.7682 Y10.5487 I-0.0359 J0.0
G2 X10.7502 Y10.5786 I0.018 J0.0311
G1 Z-0.03
G2 X10.7682 Y10.6109 I0.0359 J0.0011
G2 X10.8221 Y10.5798 I0.018 J-0.0311
G2 X10.7682 Y10.5487 I-0.0359 J0.0
G2 X10.7502 Y10.5786 I0.018 J0.0311
G1 Z-0.04
G2 X10.7682 Y10.6109 I0.0359 J0.0011
G2 X10.8221 Y10.5798 I0.018 J-0.0311
G2 X10.7682 Y10.5487 I-0.0359 J0.0
G2 X10.7502 Y10.5786 I0.018 J0.0311
G1 Z-0.05
G2 X10.7682 Y10.6109 I0.0359 J0.0011
G2 X10.8221 Y10.5798 I0.018 J-0.0311
G2 X10.7682 Y10.5487 I-0.0359 J0.0
G2 X10.7502 Y10.5786 I0.018 J0.0311
G1 Z-0.06
G2 X10.7682 Y10.6109 I0.0359 J0.0011
G2 X10.8221 Y10.5798 I0.018 J-0.0311
G2 X10.7682 Y10.5487 I-0.0359 J0.0
G2 X10.7502 Y10.5786 I0.018 J0.0311
G1 Z-0.07
G2 X10.7682 Y10.6109 I0.0359 J0.0011
G2 X10.8221 Y10.5798 I0.018 J-0.0311
G2 X10.7682 Y10.5487 I-0.0359 J0.0
G2 X10.7502 Y10.5786 I0.018 J0.0311
G1 Z-0.08
G2 X10.7682 Y10.6109 I0.0359 J0.0011
G2 X10.8221 Y10.5798 I0.018 J-0.0311
G2 X10.7682 Y10.5487 I-0.0359 J0.0
G2 X10.7502 Y10.5786 I0.018 J0.0311
G1 Z-0.09
G2 X10.7682 Y10.6109 I0.0359 J0.0011
G2 X10.8221 Y10.5798 I0.018 J-0.0311
G2 X10.7682 Y10.5487 I-0.0359 J0.0
G2 X10.7502 Y10.5786 I0.018 J0.0311
G1 Z-0.1
G2 X10.7682 Y10.6109 I0.0359 J0.0011
G2 X10.8221 Y10.5798 I0.018 J-0.0311
G2 X10.7682 Y10.5487 I-0.0359 J0.0
G2 X10.7502 Y10.5786 I0.018 J0.0311
G1 Z-0.11
G2 X10.7682 Y10.6109 I0.0359 J0.0011
G2 X10.8221 Y10.5798 I0.018 J-0.0311
G2 X10.7682 Y10.5487 I-0.0359 J0.0
G2 X10.7502 Y10.5786 I0.018 J0.0311
G1 Z-0.12
G2 X10.7682 Y10.6109 I0.0359 J0.0011
G2 X10.8221 Y10.5798 I0.018 J-0.0311
G2 X10.7682 Y10.5487 I-0.0359 J0.0
G2 X10.7502 Y10.5786 I0.018 J0.0311
G1 Z-0.13
G2 X10.7682 Y10.6109 I0.0359 J0.0011
G2 X10.8221 Y10.5798 I0.018 J-0.0311
G2 X10.7682 Y10.5487 I-0.0359 J0.0
G2 X10.7502 Y10.5786 I0.018 J0.0311
G1 Z-0.135
G2 X10.7682 Y10.6109 I0.0359 J0.0011
G2 X10.8221 Y10.5798 I0.018 J-0.0311
G2 X10.7682 Y10.5487 I-0.0359 J0.0
G2 X10.7502 Y10.5786 I0.018 J0.0311
G0 Z0.125
G0 X10.7851 Y11.7447
G0 Z0.0625
G1 Z-0.01
G2 X10.7682 Y11.7495 I0.0011 J0.0359
G2 Y11.8117 I0.018 J0.0311
G2 X10.8221 Y11.7806 I0.018 J-0.0311
G2 X10.7851 Y11.7447 I-0.0359 J0.0
G1 Z-0.02
G2 X10.7682 Y11.7495 I0.0011 J0.0359
G2 Y11.8117 I0.018 J0.0311
G2 X10.8221 Y11.7806 I0.018 J-0.0311
G2 X10.7851 Y11.7447 I-0.0359 J0.0
G1 Z-0.03
G2 X10.7682 Y11.7495 I0.0011 J0.0359
G2 Y11.8117 I0.018 J0.0311
G2 X10.8221 Y11.7806 I0.018 J-0.0311
G2 X10.7851 Y11.7447 I-0.0359 J0.0
G1 Z-0.04
G2 X10.7682 Y11.7495 I0.0011 J0.0359
G2 Y11.8117 I0.018 J0.0311
G2 X10.8221 Y11.7806 I0.018 J-0.0311
G2 X10.7851 Y11.7447 I-0.0359 J0.0
G1 Z-0.05
G2 X10.7682 Y11.7495 I0.0011 J0.0359
G2 Y11.8117 I0.018 J0.0311
G2 X10.8221 Y11.7806 I0.018 J-0.0311
G2 X10.7851 Y11.7447 I-0.0359 J0.0
G1 Z-0.06
G2 X10.7682 Y11.7495 I0.0011 J0.0359
G2 Y11.8117 I0.018 J0.0311
G2 X10.8221 Y11.7806 I0.018 J-0.0311
G2 X10.7851 Y11.7447 I-0.0359 J0.0
G1 Z-0.07
G2 X10.7682 Y11.7495 I0.0011 J0.0359
G2 Y11.8117 I0.018 J0.0311
G2 X10.8221 Y11.7806 I0.018 J-0.0311
G2 X10.7851 Y11.7447 I-0.0359 J0.0
G1 Z-0.08
G2 X10.7682 Y11.7495 I0.0011 J0.0359
G2 Y11.8117 I0.018 J0.0311
G2 X10.8221 Y11.7806 I0.018 J-0.0311
G2 X10.7851 Y11.7447 I-0.0359 J0.0
G1 Z-0.09
G2 X10.7682 Y11.7495 I0.0011 J0.0359
G2 Y11.8117 I0.018 J0.0311
G2 X10.8221 Y11.7806 I0.018 J-0.0311
G2 X10.7851 Y11.7447 I-0.0359 J0.0
G1 Z-0.1
G2 X10.7682 Y11.7495 I0.0011 J0.0359
G2 Y11.8117 I0.018 J0.0311
G2 X10.8221 Y11.7806 I0.018 J-0.0311
G2 X10.7851 Y11.7447 I-0.0359 J0.0
G1 Z-0.11
G2 X10.7682 Y11.7495 I0.0011 J0.0359
G2 Y11.8117 I0.018 J0.0311
G2 X10.8221 Y11.7806 I0.018 J-0.0311
G2 X10.7851 Y11.7447 I-0.0359 J0.0
G1 Z-0.12
G2 X10.7682 Y11.7495 I0.0011 J0.0359
G2 Y11.8117 I0.018 J0.0311
G2 X10.8221 Y11.7806 I0.018 J-0.0311
G2 X10.7851 Y11.7447 I-0.0359 J0.0
G1 Z-0.13
G2 X10.7682 Y11.7495 I0.0011 J0.0359
G2 Y11.8117 I0.018 J0.0311
G2 X10.8221 Y11.7806 I0.018 J-0.0311
G2 X10.7851 Y11.7447 I-0.0359 J0.0
G1 Z-0.135
G2 X10.7682 Y11.7495 I0.0011 J0.0359
G2 Y11.8117 I0.018 J0.0311
G2 X10.8221 Y11.7806 I0.018 J-0.0311
G2 X10.7851 Y11.7447 I-0.0359 J0.0
G0 Z0.125
G0 X9.7953 Y11.7794
G0 Z0.0625
G1 Z-0.01
G2 X9.7461 Y11.7522 I-0.0328 J0.0012
G2 Y11.809 I0.0164 J0.0284
G2 X9.7953 Y11.7806 I0.0164 J-0.0284
G2 Y11.7794 I-0.0328 J0.0
G1 Z-0.02
G2 X9.7461 Y11.7522 I-0.0328 J0.0012
G2 Y11.809 I0.0164 J0.0284
G2 X9.7953 Y11.7806 I0.0164 J-0.0284
G2 Y11.7794 I-0.0328 J0.0
G1 Z-0.03
G2 X9.7461 Y11.7522 I-0.0328 J0.0012
G2 Y11.809 I0.0164 J0.0284
G2 X9.7953 Y11.7806 I0.0164 J-0.0284
G2 Y11.7794 I-0.0328 J0.0
G1 Z-0.04
G2 X9.7461 Y11.7522 I-0.0328 J0.0012
G2 Y11.809 I0.0164 J0.0284
G2 X9.7953 Y11.7806 I0.0164 J-0.0284
G2 Y11.7794 I-0.0328 J0.0
G1 Z-0.05
G2 X9.7461 Y11.7522 I-0.0328 J0.0012
G2 Y11.809 I0.0164 J0.0284
G2 X9.7953 Y11.7806 I0.0164 J-0.0284
G2 Y11.7794 I-0.0328 J0.0
G1 Z-0.06
G2 X9.7461 Y11.7522 I-0.0328 J0.0012
G2 Y11.809 I0.0164 J0.0284
G2 X9.7953 Y11.7806 I0.0164 J-0.0284
G2 Y11.7794 I-0.0328 J0.0
G1 Z-0.07
G2 X9.7461 Y11.7522 I-0.0328 J0.0012
G2 Y11.809 I0.0164 J0.0284
G2 X9.7953 Y11.7806 I0.0164 J-0.0284
G2 Y11.7794 I-0.0328 J0.0
G1 Z-0.08
G2 X9.7461 Y11.7522 I-0.0328 J0.0012
G2 Y11.809 I0.0164 J0.0284
G2 X9.7953 Y11.7806 I0.0164 J-0.0284
G2 Y11.7794 I-0.0328 J0.0
G1 Z-0.09
G2 X9.7461 Y11.7522 I-0.0328 J0.0012
G2 Y11.809 I0.0164 J0.0284
G2 X9.7953 Y11.7806 I0.0164 J-0.0284
G2 Y11.7794 I-0.0328 J0.0
G1 Z-0.1
G2 X9.7461 Y11.7522 I-0.0328 J0.0012
G2 Y11.809 I0.0164 J0.0284
G2 X9.7953 Y11.7806 I0.0164 J-0.0284
G2 Y11.7794 I-0.0328 J0.0
G1 Z-0.11
G2 X9.7461 Y11.7522 I-0.0328 J0.0012
G2 Y11.809 I0.0164 J0.0284
G2 X9.7953 Y11.7806 I0.0164 J-0.0284
G2 Y11.7794 I-0.0328 J0.0
G1 Z-0.12
G2 X9.7461 Y11.7522 I-0.0328 J0.0012
G2 Y11.809 I0.0164 J0.0284
G2 X9.7953 Y11.7806 I0.0164 J-0.0284
G2 Y11.7794 I-0.0328 J0.0
G1 Z-0.13
G2 X9.7461 Y11.7522 I-0.0328 J0.0012
G2 Y11.809 I0.0164 J0.0284
G2 X9.7953 Y11.7806 I0.0164 J-0.0284
G2 Y11.7794 I-0.0328 J0.0
G1 Z-0.135
G2 X9.7461 Y11.7522 I-0.0328 J0.0012
G2 Y11.809 I0.0164 J0.0284
G2 X9.7953 Y11.7806 I0.0164 J-0.0284
G2 Y11.7794 I-0.0328 J0.0
G0 Z0.125
G0 X2.2698 Y11.7806
G0 Z0.0625
G1 Z-0.01
G2 X2.2209 Y11.7524 I-0.0326 J0.0
G2 Y11.8088 I0.0163 J0.0282
G2 X2.2698 Y11.7806 I0.0163 J-0.0282
G1 Z-0.02
G2 X2.2209 Y11.7524 I-0.0326 J0.0
G2 Y11.8088 I0.0163 J0.0282
G2 X2.2698 Y11.7806 I0.0163 J-0.0282
G1 Z-0.03
G2 X2.2209 Y11.7524 I-0.0326 J0.0
G2 Y11.8088 I0.0163 J0.0282
G2 X2.2698 Y11.7806 I0.0163 J-0.0282
G1 Z-0.04
G2 X2.2209 Y11.7524 I-0.0326 J0.0
G2 Y11.8088 I0.0163 J0.0282
G2 X2.2698 Y11.7806 I0.0163 J-0.0282
G1 Z-0.05
G2 X2.2209 Y11.7524 I-0.0326 J0.0
G2 Y11.8088 I0.0163 J0.0282
G2 X2.2698 Y11.7806 I0.0163 J-0.0282
G1 Z-0.06
G2 X2.2209 Y11.7524 I-0.0326 J0.0
G2 Y11.8088 I0.0163 J0.0282
G2 X2.2698 Y11.7806 I0.0163 J-0.0282
G1 Z-0.07
G2 X2.2209 Y11.7524 I-0.0326 J0.0
G2 Y11.8088 I0.0163 J0.0282
G2 X2.2698 Y11.7806 I0.0163 J-0.0282
G1 Z-0.08
G2 X2.2209 Y11.7524 I-0.0326 J0.0
G2 Y11.8088 I0.0163 J0.0282
G2 X2.2698 Y11.7806 I0.0163 J-0.0282
G1 Z-0.09
G2 X2.2209 Y11.7524 I-0.0326 J0.0
G2 Y11.8088 I0.0163 J0.0282
G2 X2.2698 Y11.7806 I0.0163 J-0.0282
G1 Z-0.1
G2 X2.2209 Y11.7524 I-0.0326 J0.0
G2 Y11.8088 I0.0163 J0.0282
G2 X2.2698 Y11.7806 I0.0163 J-0.0282
G1 Z-0.11
G2 X2.2209 Y11.7524 I-0.0326 J0.0
G2 Y11.8088 I0.0163 J0.0282
G2 X2.2698 Y11.7806 I0.0163 J-0.0282
G1 Z-0.12
G2 X2.2209 Y11.7524 I-0.0326 J0.0
G2 Y11.8088 I0.0163 J0.0282
G2 X2.2698 Y11.7806 I0.0163 J-0.0282
G1 Z-0.13
G2 X2.2209 Y11.7524 I-0.0326 J0.0
G2 Y11.8088 I0.0163 J0.0282
G2 X2.2698 Y11.7806 I0.0163 J-0.0282
G1 Z-0.135
G2 X2.2209 Y11.7524 I-0.0326 J0.0
G2 Y11.8088 I0.0163 J0.0282
G2 X2.2698 Y11.7806 I0.0163 J-0.0282
G0 Z0.125
G0 X1.2459
G0 Z0.0625
G1 Z-0.01
G2 X1.1974 Y11.7525 I-0.0324 J0.0
G2 Y11.8086 I0.0162 J0.028
G2 X1.2459 Y11.7806 I0.0162 J-0.028
G1 Z-0.02
G2 X1.1974 Y11.7525 I-0.0324 J0.0
G2 Y11.8086 I0.0162 J0.028
G2 X1.2459 Y11.7806 I0.0162 J-0.028
G1 Z-0.03
G2 X1.1974 Y11.7525 I-0.0324 J0.0
G2 Y11.8086 I0.0162 J0.028
G2 X1.2459 Y11.7806 I0.0162 J-0.028
G1 Z-0.04
G2 X1.1974 Y11.7525 I-0.0324 J0.0
G2 Y11.8086 I0.0162 J0.028
G2 X1.2459 Y11.7806 I0.0162 J-0.028
G1 Z-0.05
G2 X1.1974 Y11.7525 I-0.0324 J0.0
G2 Y11.8086 I0.0162 J0.028
G2 X1.2459 Y11.7806 I0.0162 J-0.028
G1 Z-0.06
G2 X1.1974 Y11.7525 I-0.0324 J0.0
G2 Y11.8086 I0.0162 J0.028
G2 X1.2459 Y11.7806 I0.0162 J-0.028
G1 Z-0.07
G2 X1.1974 Y11.7525 I-0.0324 J0.0
G2 Y11.8086 I0.0162 J0.028
G2 X1.2459 Y11.7806 I0.0162 J-0.028
G1 Z-0.08
G2 X1.1974 Y11.7525 I-0.0324 J0.0
G2 Y11.8086 I0.0162 J0.028
G2 X1.2459 Y11.7806 I0.0162 J-0.028
G1 Z-0.09
G2 X1.1974 Y11.7525 I-0.0324 J0.0
G2 Y11.8086 I0.0162 J0.028
G2 X1.2459 Y11.7806 I0.0162 J-0.028
G1 Z-0.1
G2 X1.1974 Y11.7525 I-0.0324 J0.0
G2 Y11.8086 I0.0162 J0.028
G2 X1.2459 Y11.7806 I0.0162 J-0.028
G1 Z-0.11
G2 X1.1974 Y11.7525 I-0.0324 J0.0
G2 Y11.8086 I0.0162 J0.028
G2 X1.2459 Y11.7806 I0.0162 J-0.028
G1 Z-0.12
G2 X1.1974 Y11.7525 I-0.0324 J0.0
G2 Y11.8086 I0.0162 J0.028
G2 X1.2459 Y11.7806 I0.0162 J-0.028
G1 Z-0.13
G2 X1.1974 Y11.7525 I-0.0324 J0.0
G2 Y11.8086 I0.0162 J0.028
G2 X1.2459 Y11.7806 I0.0162 J-0.028
G1 Z-0.135
G2 X1.1974 Y11.7525 I-0.0324 J0.0
G2 Y11.8086 I0.0162 J0.028
G2 X1.2459 Y11.7806 I0.0162 J-0.028
G0 Z0.125
G0 X1.2145 Y10.6123
G0 Z0.0625
G1 Z-0.01
G2 X1.2462 Y10.5798 I-0.0009 J-0.0326
G2 X1.1973 Y10.5516 I-0.0326 J0.0
G2 Y10.608 I0.0163 J0.0282
G2 X1.2145 Y10.6123 I0.0163 J-0.0282
G1 Z-0.02
G2 X1.2462 Y10.5798 I-0.0009 J-0.0326
G2 X1.1973 Y10.5516 I-0.0326 J0.0
G2 Y10.608 I0.0163 J0.0282
G2 X1.2145 Y10.6123 I0.0163 J-0.0282
G1 Z-0.03
G2 X1.2462 Y10.5798 I-0.0009 J-0.0326
G2 X1.1973 Y10.5516 I-0.0326 J0.0
G2 Y10.608 I0.0163 J0.0282
G2 X1.2145 Y10.6123 I0.0163 J-0.0282
G1 Z-0.04
G2 X1.2462 Y10.5798 I-0.0009 J-0.0326
G2 X1.1973 Y10.5516 I-0.0326 J0.0
G2 Y10.608 I0.0163 J0.0282
G2 X1.2145 Y10.6123 I0.0163 J-0.0282
G1 Z-0.05
G2 X1.2462 Y10.5798 I-0.0009 J-0.0326
G2 X1.1973 Y10.5516 I-0.0326 J0.0
G2 Y10.608 I0.0163 J0.0282
G2 X1.2145 Y10.6123 I0.0163 J-0.0282
G1 Z-0.06
G2 X1.2462 Y10.5798 I-0.0009 J-0.0326
G2 X1.1973 Y10.5516 I-0.0326 J0.0
G2 Y10.608 I0.0163 J0.0282
G2 X1.2145 Y10.6123 I0.0163 J-0.0282
G1 Z-0.07
G2 X1.2462 Y10.5798 I-0.0009 J-0.0326
G2 X1.1973 Y10.5516 I-0.0326 J0.0
G2 Y10.608 I0.0163 J0.0282
G2 X1.2145 Y10.6123 I0.0163 J-0.0282
G1 Z-0.08
G2 X1.2462 Y10.5798 I-0.0009 J-0.0326
G2 X1.1973 Y10.5516 I-0.0326 J0.0
G2 Y10.608 I0.0163 J0.0282
G2 X1.2145 Y10.6123 I0.0163 J-0.0282
G1 Z-0.09
G2 X1.2462 Y10.5798 I-0.0009 J-0.0326
G2 X1.1973 Y10.5516 I-0.0326 J0.0
G2 Y10.608 I0.0163 J0.0282
G2 X1.2145 Y10.6123 I0.0163 J-0.0282
G1 Z-0.1
G2 X1.2462 Y10.5798 I-0.0009 J-0.0326
G2 X1.1973 Y10.5516 I-0.0326 J0.0
G2 Y10.608 I0.0163 J0.0282
G2 X1.2145 Y10.6123 I0.0163 J-0.0282
G1 Z-0.11
G2 X1.2462 Y10.5798 I-0.0009 J-0.0326
G2 X1.1973 Y10.5516 I-0.0326 J0.0
G2 Y10.608 I0.0163 J0.0282
G2 X1.2145 Y10.6123 I0.0163 J-0.0282
G1 Z-0.12
G2 X1.2462 Y10.5798 I-0.0009 J-0.0326
G2 X1.1973 Y10.5516 I-0.0326 J0.0
G2 Y10.608 I0.0163 J0.0282
G2 X1.2145 Y10.6123 I0.0163 J-0.0282
G1 Z-0.13
G2 X1.2462 Y10.5798 I-0.0009 J-0.0326
G2 X1.1973 Y10.5516 I-0.0326 J0.0
G2 Y10.608 I0.0163 J0.0282
G2 X1.2145 Y10.6123 I0.0163 J-0.0282
G1 Z-0.135
G2 X1.2462 Y10.5798 I-0.0009 J-0.0326
G2 X1.1973 Y10.5516 I-0.0326 J0.0
G2 Y10.608 I0.0163 J0.0282
G2 X1.2145 Y10.6123 I0.0163 J-0.0282
G0 Z0.125
G0 X2.2013 Y10.5809
G0 Z0.0625
G1 Z-0.01
G2 X2.2192 Y10.6109 I0.0359 J-0.0011
G2 X2.2731 Y10.5798 I0.018 J-0.0311
G2 X2.2192 Y10.5487 I-0.0359 J0.0
G2 X2.2013 Y10.5809 I0.018 J0.0311
G1 Z-0.02
G2 X2.2192 Y10.6109 I0.0359 J-0.0011
G2 X2.2731 Y10.5798 I0.018 J-0.0311
G2 X2.2192 Y10.5487 I-0.0359 J0.0
G2 X2.2013 Y10.5809 I0.018 J0.0311
G1 Z-0.03
G2 X2.2192 Y10.6109 I0.0359 J-0.0011
G2 X2.2731 Y10.5798 I0.018 J-0.0311
G2 X2.2192 Y10.5487 I-0.0359 J0.0
G2 X2.2013 Y10.5809 I0.018 J0.0311
G1 Z-0.04
G2 X2.2192 Y10.6109 I0.0359 J-0.0011
G2 X2.2731 Y10.5798 I0.018 J-0.0311
G2 X2.2192 Y10.5487 I-0.0359 J0.0
G2 X2.2013 Y10.5809 I0.018 J0.0311
G1 Z-0.05
G2 X2.2192 Y10.6109 I0.0359 J-0.0011
G2 X2.2731 Y10.5798 I0.018 J-0.0311
G2 X2.2192 Y10.5487 I-0.0359 J0.0
G2 X2.2013 Y10.5809 I0.018 J0.0311
G1 Z-0.06
G2 X2.2192 Y10.6109 I0.0359 J-0.0011
G2 X2.2731 Y10.5798 I0.018 J-0.0311
G2 X2.2192 Y10.5487 I-0.0359 J0.0
G2 X2.2013 Y10.5809 I0.018 J0.0311
G1 Z-0.07
G2 X2.2192 Y10.6109 I0.0359 J-0.0011
G2 X2.2731 Y10.5798 I0.018 J-0.0311
G2 X2.2192 Y10.5487 I-0.0359 J0.0
G2 X2.2013 Y10.5809 I0.018 J0.0311
G1 Z-0.08
G2 X2.2192 Y10.6109 I0.0359 J-0.0011
G2 X2.2731 Y10.5798 I0.018 J-0.0311
G2 X2.2192 Y10.5487 I-0.0359 J0.0
G2 X2.2013 Y10.5809 I0.018 J0.0311
G1 Z-0.09
G2 X2.2192 Y10.6109 I0.0359 J-0.0011
G2 X2.2731 Y10.5798 I0.018 J-0.0311
G2 X2.2192 Y10.5487 I-0.0359 J0.0
G2 X2.2013 Y10.5809 I0.018 J0.0311
G1 Z-0.1
G2 X2.2192 Y10.6109 I0.0359 J-0.0011
G2 X2.2731 Y10.5798 I0.018 J-0.0311
G2 X2.2192 Y10.5487 I-0.0359 J0.0
G2 X2.2013 Y10.5809 I0.018 J0.0311
G1 Z-0.11
G2 X2.2192 Y10.6109 I0.0359 J-0.0011
G2 X2.2731 Y10.5798 I0.018 J-0.0311
G2 X2.2192 Y10.5487 I-0.0359 J0.0
G2 X2.2013 Y10.5809 I0.018 J0.0311
G1 Z-0.12
G2 X2.2192 Y10.6109 I0.0359 J-0.0011
G2 X2.2731 Y10.5798 I0.018 J-0.0311
G2 X2.2192 Y10.5487 I-0.0359 J0.0
G2 X2.2013 Y10.5809 I0.018 J0.0311
G1 Z-0.13
G2 X2.2192 Y10.6109 I0.0359 J-0.0011
G2 X2.2731 Y10.5798 I0.018 J-0.0311
G2 X2.2192 Y10.5487 I-0.0359 J0.0
G2 X2.2013 Y10.5809 I0.018 J0.0311
G1 Z-0.135
G2 X2.2192 Y10.6109 I0.0359 J-0.0011
G2 X2.2731 Y10.5798 I0.018 J-0.0311
G2 X2.2192 Y10.5487 I-0.0359 J0.0
G2 X2.2013 Y10.5809 I0.018 J0.0311
( cutout )
S1000
G0 Z0.125
G0 X9.5032 Y1.6238
G0 Z0.0625
G1 Z-0.01
G1 Y0.8125
G1 X2.4966
G1 Y1.6238
G1 X5.9999 Y4.4683
G1 X9.5032 Y1.6238
G1 Z-0.02
G1 Y0.8125
G1 X2.4966
G1 Y1.6238
G1 X5.9999 Y4.4683
G1 X9.5032 Y1.6238
G1 Z-0.03
G1 Y0.8125
G1 X2.4966
G1 Y1.6238
G1 X5.9999 Y4.4683
G1 X9.5032 Y1.6238
G1 Z-0.04
G1 Y0.8125
G1 X2.4966
G1 Y1.6238
G1 X5.9999 Y4.4683
G1 X9.5032 Y1.6238
G1 Z-0.05
G1 Y0.8125
G1 X2.4966
G1 Y1.6238
G1 X5.9999 Y4.4683
G1 X9.5032 Y1.6238
G1 Z-0.06
G1 Y0.8125
G1 X2.4966
G1 Y1.6238
G1 X5.9999 Y4.4683
G1 X9.5032 Y1.6238
G1 Z-0.07
G1 Y0.8125
G1 X2.4966
G1 Y1.6238
G1 X5.9999 Y4.4683
G1 X9.5032 Y1.6238
G1 Z-0.08
G1 Y0.8125
G1 X2.4966
G1 Y1.6238
G1 X5.9999 Y4.4683
G1 X9.5032 Y1.6238
G1 Z-0.09
G1 Y0.8125
G1 X2.4966
G1 Y1.6238
G1 X5.9999 Y4.4683
G1 X9.5032 Y1.6238
G1 Z-0.1
G1 Y0.8125
G1 X2.4966
G1 Y1.6238
G1 X5.9999 Y4.4683
G1 X9.5032 Y1.6238
G1 Z-0.11
G1 Y0.8125
G1 X2.4966
G1 Y1.6238
G1 X5.9999 Y4.4683
G1 X9.5032 Y1.6238
G1 Z-0.12
G1 Y0.8125
G1 X2.4966
G1 Y1.6238
G1 X5.9999 Y4.4683
G1 X9.5032 Y1.6238
G1 Z-0.13
G1 Y0.8125
G1 X2.4966
G1 Y1.6238
G1 X5.9999 Y4.4683
G1 X9.5032 Y1.6238
G1 Z-0.135
G1 Y0.8125
G1 X2.4966
G1 Y1.6238
G1 X5.9999 Y4.4683
G1 X9.5032 Y1.6238
G0 Z0.125
G0 X9.5876 Y3.216
G0 Z0.0625
G1 Z-0.01
G1 X6.8124 Y5.4341
G1 Y6.5728
G1 X9.5876 Y8.7909
G1 X11.1875
G1 Y3.216
G1 X9.5876
G1 Z-0.02
G1 X6.8124 Y5.4341
G1 Y6.5728
G1 X9.5876 Y8.7909
G1 X11.1875
G1 Y3.216
G1 X9.5876
G1 Z-0.03
G1 X6.8124 Y5.4341
G1 Y6.5728
G1 X9.5876 Y8.7909
G1 X11.1875
G1 Y3.216
G1 X9.5876
G1 Z-0.04
G1 X6.8124 Y5.4341
G1 Y6.5728
G1 X9.5876 Y8.7909
G1 X11.1875
G1 Y3.216
G1 X9.5876
G1 Z-0.05
G1 X6.8124 Y5.4341
G1 Y6.5728
G1 X9.5876 Y8.7909
G1 X11.1875
G1 Y3.216
G1 X9.5876
G1 Z-0.06
G1 X6.8124 Y5.4341
G1 Y6.5728
G1 X9.5876 Y8.7909
G1 X11.1875
G1 Y3.216
G1 X9.5876
G1 Z-0.07
G1 X6.8124 Y5.4341
G1 Y6.5728
G1 X9.5876 Y8.7909
G1 X11.1875
G1 Y3.216
G1 X9.5876
G1 Z-0.08
G1 X6.8124 Y5.4341
G1 Y6.5728
G1 X9.5876 Y8.7909
G1 X11.1875
G1 Y3.216
G1 X9.5876
G1 Z-0.09
G1 X6.8124 Y5.4341
G1 Y6.5728
G1 X9.5876 Y8.7909
G1 X11.1875
G1 Y3.216
G1 X9.5876
G1 Z-0.1
G1 X6.8124 Y5.4341
G1 Y6.5728
G1 X9.5876 Y8.7909
G1 X11.1875
G1 Y3.216
G1 X9.5876
G1 Z-0.11
G1 X6.8124 Y5.4341
G1 Y6.5728
G1 X9.5876 Y8.7909
G1 X11.1875
G1 Y3.216
G1 X9.5876
G1 Z-0.12
G1 X6.8124 Y5.4341
G1 Y6.5728
G1 X9.5876 Y8.7909
G1 X11.1875
G1 Y3.216
G1 X9.5876
G1 Z-0.13
G1 X6.8124 Y5.4341
G1 Y6.5728
G1 X9.5876 Y8.7909
G1 X11.1875
G1 Y3.216
G1 X9.5876
G1 Z-0.135
G1 X6.8124 Y5.4341
G1 Y6.5728
G1 X9.5876 Y8.7909
G1 X11.1875
G1 Y3.216
G1 X9.5876
G0 Z0.125
G0 X5.1874 Y5.4341
G0 Z0.0625
G1 Z-0.01
G1 X2.4122 Y3.216
G1 X0.8125
G1 Y8.7909
G1 X2.4122
G1 X5.1874 Y6.5728
G1 Y5.4341
G1 Z-0.02
G1 X2.4122 Y3.216
G1 X0.8125
G1 Y8.7909
G1 X2.4122
G1 X5.1874 Y6.5728
G1 Y5.4341
G1 Z-0.03
G1 X2.4122 Y3.216
G1 X0.8125
G1 Y8.7909
G1 X2.4122
G1 X5.1874 Y6.5728
G1 Y5.4341
G1 Z-0.04
G1 X2.4122 Y3.216
G1 X0.8125
G1 Y8.7909
G1 X2.4122
G1 X5.1874 Y6.5728
G1 Y5.4341
G1 Z-0.05
G1 X2.4122 Y3.216
G1 X0.8125
G1 Y8.7909
G1 X2.4122
G1 X5.1874 Y6.5728
G1 Y5.4341
G1 Z-0.06
G1 X2.4122 Y3.216
G1 X0.8125
G1 Y8.7909
G1 X2.4122
G1 X5.1874 Y6.5728
G1 Y5.4341
G1 Z-0.07
G1 X2.4122 Y3.216
G1 X0.8125
G1 Y8.7909
G1 X2.4122
G1 X5.1874 Y6.5728
G1 Y5.4341
G1 Z-0.08
G1 X2.4122 Y3.216
G1 X0.8125
G1 Y8.7909
G1 X2.4122
G1 X5.1874 Y6.5728
G1 Y5.4341
G1 Z-0.09
G1 X2.4122 Y3.216
G1 X0.8125
G1 Y8.7909
G1 X2.4122
G1 X5.1874 Y6.5728
G1 Y5.4341
G1 Z-0.1
G1 X2.4122 Y3.216
G1 X0.8125
G1 Y8.7909
G1 X2.4122
G1 X5.1874 Y6.5728
G1 Y5.4341
G1 Z-0.11
G1 X2.4122 Y3.216
G1 X0.8125
G1 Y8.7909
G1 X2.4122
G1 X5.1874 Y6.5728
G1 Y5.4341
G1 Z-0.12
G1 X2.4122 Y3.216
G1 X0.8125
G1 Y8.7909
G1 X2.4122
G1 X5.1874 Y6.5728
G1 Y5.4341
G1 Z-0.13
G1 X2.4122 Y3.216
G1 X0.8125
G1 Y8.7909
G1 X2.4122
G1 X5.1874 Y6.5728
G1 Y5.4341
G1 Z-0.135
G1 X2.4122 Y3.216
G1 X0.8125
G1 Y8.7909
G1 X2.4122
G1 X5.1874 Y6.5728
G1 Y5.4341
G0 Z0.125
G0 X5.9999 Y7.4346
G0 Z0.0625
G1 Z-0.01
G1 X2.4966 Y10.3825
G1 Y11.1875
G1 X9.5032
G1 Y10.3825
G1 X5.9999 Y7.4346
G1 Z-0.02
G1 X2.4966 Y10.3825
G1 Y11.1875
G1 X9.5032
G1 Y10.3825
G1 X5.9999 Y7.4346
G1 Z-0.03
G1 X2.4966 Y10.3825
G1 Y11.1875
G1 X9.5032
G1 Y10.3825
G1 X5.9999 Y7.4346
G1 Z-0.04
G1 X2.4966 Y10.3825
G1 Y11.1875
G1 X9.5032
G1 Y10.3825
G1 X5.9999 Y7.4346
G1 Z-0.05
G1 X2.4966 Y10.3825
G1 Y11.1875
G1 X9.5032
G1 Y10.3825
G1 X5.9999 Y7.4346
G1 Z-0.06
G1 X2.4966 Y10.3825
G1 Y11.1875
G1 X9.5032
G1 Y10.3825
G1 X5.9999 Y7.4346
G1 Z-0.07
G1 X2.4966 Y10.3825
G1 Y11.1875
G1 X9.5032
G1 Y10.3825
G1 X5.9999 Y7.4346
G1 Z-0.08
G1 X2.4966 Y10.3825
G1 Y11.1875
G1 X9.5032
G1 Y10.3825
G1 X5.9999 Y7.4346
G1 Z-0.09
G1 X2.4966 Y10.3825
G1 Y11.1875
G1 X9.5032
G1 Y10.3825
G1 X5.9999 Y7.4346
G1 Z-0.1
G1 X2.4966 Y10.3825
G1 Y11.1875
G1 X9.5032
G1 Y10.3825
G1 X5.9999 Y7.4346
G1 Z-0.11
G1 X2.4966 Y10.3825
G1 Y11.1875
G1 X9.5032
G1 Y10.3825
G1 X5.9999 Y7.4346
G1 Z-0.12
G1 X2.4966 Y10.3825
G1 Y11.1875
G1 X9.5032
G1 Y10.3825
G1 X5.9999 Y7.4346
G1 Z-0.13
G1 X2.4966 Y10.3825
G1 Y11.1875
G1 X9.5032
G1 Y10.3825
G1 X5.9999 Y7.4346
G1 Z-0.135
G1 X2.4966 Y10.3825
G1 Y11.1875
G1 X9.5032
G1 Y10.3825
G1 X5.9999 Y7.4346
G0 Z0.125
M5
M30
