( Made using CamBam - http://www.cambam.co.uk )
( tensioner_bracket_b 10/14/2014 12:15:02 AM )
( T0 : 0.0 )
G20 G90 G64 G40
G0 Z0.125
( T0 : 0.0 )
T0 M6
( Drill1 )
G17
M3 S1000
G0 X-0.5327 Y2.5049
G98
G81 X-0.5327 Y2.5049 Z-0.067 R0.125 F10.0
G81 X0.0002 Y0.5301 Z-0.067
G81 X2.0673 Z-0.067
G81 X1.5337 Y2.5049 Z-0.067
G80
( cutout )
S1000
G0 Z0.125
G0 X0.3466 Y1.213
G0 Z0.0625
G1 F10.0 Z-0.015
G2 F12.0 X0.2782 Y1.1735 I-0.0456 J0.0
G2 Y1.2525 I0.0228 J0.0395
G2 X0.3466 Y1.213 I0.0228 J-0.0395
G1 F10.0 Z-0.03
G2 F12.0 X0.2782 Y1.1735 I-0.0456 J0.0
G2 Y1.2525 I0.0228 J0.0395
G2 X0.3466 Y1.213 I0.0228 J-0.0395
G1 F10.0 Z-0.045
G2 F12.0 X0.2782 Y1.1735 I-0.0456 J0.0
G2 Y1.2525 I0.0228 J0.0395
G2 X0.3466 Y1.213 I0.0228 J-0.0395
G1 F10.0 Z-0.06
G2 F12.0 X0.2782 Y1.1735 I-0.0456 J0.0
G2 Y1.2525 I0.0228 J0.0395
G2 X0.3466 Y1.213 I0.0228 J-0.0395
G1 F10.0 Z-0.067
G2 F12.0 X0.2782 Y1.1735 I-0.0456 J0.0
G2 Y1.2525 I0.0228 J0.0395
G2 X0.3466 Y1.213 I0.0228 J-0.0395
G0 Z0.125
G0 X0.2548 Y0.3263
G0 Z0.0625
G1 F10.0 Z-0.015
G2 F12.0 X0.2965 Y0.2801 I-0.0048 J-0.0463
G2 X0.2267 Y0.2398 I-0.0465 J0.0
G2 Y0.3204 I0.0233 J0.0403
G2 X0.2548 Y0.3263 I0.0233 J-0.0403
G1 F10.0 Z-0.03
G2 F12.0 X0.2965 Y0.2801 I-0.0048 J-0.0463
G2 X0.2267 Y0.2398 I-0.0465 J0.0
G2 Y0.3204 I0.0233 J0.0403
G2 X0.2548 Y0.3263 I0.0233 J-0.0403
G1 F10.0 Z-0.045
G2 F12.0 X0.2965 Y0.2801 I-0.0048 J-0.0463
G2 X0.2267 Y0.2398 I-0.0465 J0.0
G2 Y0.3204 I0.0233 J0.0403
G2 X0.2548 Y0.3263 I0.0233 J-0.0403
G1 F10.0 Z-0.06
G2 F12.0 X0.2965 Y0.2801 I-0.0048 J-0.0463
G2 X0.2267 Y0.2398 I-0.0465 J0.0
G2 Y0.3204 I0.0233 J0.0403
G2 X0.2548 Y0.3263 I0.0233 J-0.0403
G1 F10.0 Z-0.067
G2 F12.0 X0.2965 Y0.2801 I-0.0048 J-0.0463
G2 X0.2267 Y0.2398 I-0.0465 J0.0
G2 Y0.3204 I0.0233 J0.0403
G2 X0.2548 Y0.3263 I0.0233 J-0.0403
G0 Z0.125
G0 X1.2745 Y0.7618
G0 Z0.0625
G1 F10.0 Z-0.015
G2 F12.0 X1.294 Y0.8204 I0.0428 J0.0183
G2 X1.3637 Y0.7801 I0.0233 J-0.0403
G2 X1.294 Y0.7398 I-0.0465 J0.0
G2 X1.2745 Y0.7618 I0.0233 J0.0403
G1 F10.0 Z-0.03
G2 F12.0 X1.294 Y0.8204 I0.0428 J0.0183
G2 X1.3637 Y0.7801 I0.0233 J-0.0403
G2 X1.294 Y0.7398 I-0.0465 J0.0
G2 X1.2745 Y0.7618 I0.0233 J0.0403
G1 F10.0 Z-0.045
G2 F12.0 X1.294 Y0.8204 I0.0428 J0.0183
G2 X1.3637 Y0.7801 I0.0233 J-0.0403
G2 X1.294 Y0.7398 I-0.0465 J0.0
G2 X1.2745 Y0.7618 I0.0233 J0.0403
G1 F10.0 Z-0.06
G2 F12.0 X1.294 Y0.8204 I0.0428 J0.0183
G2 X1.3637 Y0.7801 I0.0233 J-0.0403
G2 X1.294 Y0.7398 I-0.0465 J0.0
G2 X1.2745 Y0.7618 I0.0233 J0.0403
G1 F10.0 Z-0.067
G2 F12.0 X1.294 Y0.8204 I0.0428 J0.0183
G2 X1.3637 Y0.7801 I0.0233 J-0.0403
G2 X1.294 Y0.7398 I-0.0465 J0.0
G2 X1.2745 Y0.7618 I0.0233 J0.0403
G0 Z0.125
G0 X1.7832 Y0.3115
G0 Z0.0625
G1 F10.0 Z-0.015
G2 F12.0 X1.7945 Y0.3207 I0.0341 J-0.0302
G2 X1.8628 Y0.2813 I0.0228 J-0.0395
G2 X1.7945 Y0.2418 I-0.0456 J0.0
G2 X1.7832 Y0.3115 I0.0228 J0.0395
G1 F10.0 Z-0.03
G2 F12.0 X1.7945 Y0.3207 I0.0341 J-0.0302
G2 X1.8628 Y0.2813 I0.0228 J-0.0395
G2 X1.7945 Y0.2418 I-0.0456 J0.0
G2 X1.7832 Y0.3115 I0.0228 J0.0395
G1 F10.0 Z-0.045
G2 F12.0 X1.7945 Y0.3207 I0.0341 J-0.0302
G2 X1.8628 Y0.2813 I0.0228 J-0.0395
G2 X1.7945 Y0.2418 I-0.0456 J0.0
G2 X1.7832 Y0.3115 I0.0228 J0.0395
G1 F10.0 Z-0.06
G2 F12.0 X1.7945 Y0.3207 I0.0341 J-0.0302
G2 X1.8628 Y0.2813 I0.0228 J-0.0395
G2 X1.7945 Y0.2418 I-0.0456 J0.0
G2 X1.7832 Y0.3115 I0.0228 J0.0395
G1 F10.0 Z-0.067
G2 F12.0 X1.7945 Y0.3207 I0.0341 J-0.0302
G2 X1.8628 Y0.2813 I0.0228 J-0.0395
G2 X1.7945 Y0.2418 I-0.0456 J0.0
G2 X1.7832 Y0.3115 I0.0228 J0.0395
G0 Z0.125
G0 X1.2492 Y1.7791
G0 Z0.0625
G1 F10.0 Z-0.015
G2 F12.0 X1.2108 Y1.7824 I-0.0156 J0.0429
G2 Y1.8614 I0.0228 J0.0395
G2 X1.2792 Y1.8219 I0.0228 J-0.0395
G2 X1.2492 Y1.7791 I-0.0456 J0.0
G1 F10.0 Z-0.03
G2 F12.0 X1.2108 Y1.7824 I-0.0156 J0.0429
G2 Y1.8614 I0.0228 J0.0395
G2 X1.2792 Y1.8219 I0.0228 J-0.0395
G2 X1.2492 Y1.7791 I-0.0456 J0.0
G1 F10.0 Z-0.045
G2 F12.0 X1.2108 Y1.7824 I-0.0156 J0.0429
G2 Y1.8614 I0.0228 J0.0395
G2 X1.2792 Y1.8219 I0.0228 J-0.0395
G2 X1.2492 Y1.7791 I-0.0456 J0.0
G1 F10.0 Z-0.06
G2 F12.0 X1.2108 Y1.7824 I-0.0156 J0.0429
G2 Y1.8614 I0.0228 J0.0395
G2 X1.2792 Y1.8219 I0.0228 J-0.0395
G2 X1.2492 Y1.7791 I-0.0456 J0.0
G1 F10.0 Z-0.067
G2 F12.0 X1.2108 Y1.7824 I-0.0156 J0.0429
G2 Y1.8614 I0.0228 J0.0395
G2 X1.2792 Y1.8219 I0.0228 J-0.0395
G2 X1.2492 Y1.7791 I-0.0456 J0.0
G0 Z0.125
G0 X1.2829 Y2.7084
G0 Z0.0625
G1 F10.0 Z-0.015
G2 F12.0 X1.2613 Y2.7146 I0.0017 J0.0465
G2 Y2.7951 I0.0233 J0.0403
G2 X1.3311 Y2.7549 I0.0233 J-0.0403
G2 X1.2829 Y2.7084 I-0.0465 J0.0
G1 F10.0 Z-0.03
G2 F12.0 X1.2613 Y2.7146 I0.0017 J0.0465
G2 Y2.7951 I0.0233 J0.0403
G2 X1.3311 Y2.7549 I0.0233 J-0.0403
G2 X1.2829 Y2.7084 I-0.0465 J0.0
G1 F10.0 Z-0.045
G2 F12.0 X1.2613 Y2.7146 I0.0017 J0.0465
G2 Y2.7951 I0.0233 J0.0403
G2 X1.3311 Y2.7549 I0.0233 J-0.0403
G2 X1.2829 Y2.7084 I-0.0465 J0.0
G1 F10.0 Z-0.06
G2 F12.0 X1.2613 Y2.7146 I0.0017 J0.0465
G2 Y2.7951 I0.0233 J0.0403
G2 X1.3311 Y2.7549 I0.0233 J-0.0403
G2 X1.2829 Y2.7084 I-0.0465 J0.0
G1 F10.0 Z-0.067
G2 F12.0 X1.2613 Y2.7146 I0.0017 J0.0465
G2 Y2.7951 I0.0233 J0.0403
G2 X1.3311 Y2.7549 I0.0233 J-0.0403
G2 X1.2829 Y2.7084 I-0.0465 J0.0
G0 Z0.125
G0 X0.2601 Y2.2731
G0 Z0.0625
G1 F10.0 Z-0.015
G2 F12.0 X0.2638 Y2.2549 I-0.0428 J-0.0182
G2 X0.1941 Y2.2146 I-0.0465 J0.0
G2 Y2.2951 I0.0233 J0.0403
G2 X0.2601 Y2.2731 I0.0233 J-0.0403
G1 F10.0 Z-0.03
G2 F12.0 X0.2638 Y2.2549 I-0.0428 J-0.0182
G2 X0.1941 Y2.2146 I-0.0465 J0.0
G2 Y2.2951 I0.0233 J0.0403
G2 X0.2601 Y2.2731 I0.0233 J-0.0403
G1 F10.0 Z-0.045
G2 F12.0 X0.2638 Y2.2549 I-0.0428 J-0.0182
G2 X0.1941 Y2.2146 I-0.0465 J0.0
G2 Y2.2951 I0.0233 J0.0403
G2 X0.2601 Y2.2731 I0.0233 J-0.0403
G1 F10.0 Z-0.06
G2 F12.0 X0.2638 Y2.2549 I-0.0428 J-0.0182
G2 X0.1941 Y2.2146 I-0.0465 J0.0
G2 Y2.2951 I0.0233 J0.0403
G2 X0.2601 Y2.2731 I0.0233 J-0.0403
G1 F10.0 Z-0.067
G2 F12.0 X0.2638 Y2.2549 I-0.0428 J-0.0182
G2 X0.1941 Y2.2146 I-0.0465 J0.0
G2 Y2.2951 I0.0233 J0.0403
G2 X0.2601 Y2.2731 I0.0233 J-0.0403
G0 Z0.125
G0 X-0.2486 Y2.7235
G0 Z0.0625
G1 F10.0 Z-0.015
G2 F12.0 X-0.3055 Y2.7142 I-0.0341 J0.0302
G2 Y2.7932 I0.0228 J0.0395
G2 X-0.2371 Y2.7537 I0.0228 J-0.0395
G2 X-0.2486 Y2.7235 I-0.0456 J0.0
G1 F10.0 Z-0.03
G2 F12.0 X-0.3055 Y2.7142 I-0.0341 J0.0302
G2 Y2.7932 I0.0228 J0.0395
G2 X-0.2371 Y2.7537 I0.0228 J-0.0395
G2 X-0.2486 Y2.7235 I-0.0456 J0.0
G1 F10.0 Z-0.045
G2 F12.0 X-0.3055 Y2.7142 I-0.0341 J0.0302
G2 Y2.7932 I0.0228 J0.0395
G2 X-0.2371 Y2.7537 I0.0228 J-0.0395
G2 X-0.2486 Y2.7235 I-0.0456 J0.0
G1 F10.0 Z-0.06
G2 F12.0 X-0.3055 Y2.7142 I-0.0341 J0.0302
G2 Y2.7932 I0.0228 J0.0395
G2 X-0.2371 Y2.7537 I0.0228 J-0.0395
G2 X-0.2486 Y2.7235 I-0.0456 J0.0
G1 F10.0 Z-0.067
G2 F12.0 X-0.3055 Y2.7142 I-0.0341 J0.0302
G2 Y2.7932 I0.0228 J0.0395
G2 X-0.2371 Y2.7537 I0.0228 J-0.0395
G2 X-0.2486 Y2.7235 I-0.0456 J0.0
( Profile1 )
S1000
G0 Z0.125
G0 X-0.4077 Y2.1924
G0 Z0.0625
G1 F10.0 Z-0.015
G1 F12.0 X-0.0889
G3 X0.2037 Y1.9427 I0.3062 J0.0625
G1 X1.2925 Y1.4727
G3 X1.3694 Y1.4957 I0.0248 J0.0574
G3 X1.5955 Y2.1879 I-1.1521 J0.7592
G3 Y2.1908 I-0.0624 J0.003
G1 X1.5971 Y2.8795
G3 X1.4096 Y3.0674 I-0.1875 J0.0004
G1 X-0.4077
G3 X-0.5952 Y2.8799 I0.0 J-0.1875
G1 Y2.3799
G3 X-0.4077 Y2.1924 I0.1875 J0.0
G1 F10.0 Z-0.03
G1 F12.0 X-0.0889
G3 X0.2037 Y1.9427 I0.3062 J0.0625
G1 X1.2925 Y1.4727
G3 X1.3694 Y1.4957 I0.0248 J0.0574
G3 X1.5955 Y2.1879 I-1.1521 J0.7592
G3 Y2.1908 I-0.0624 J0.003
G1 X1.5971 Y2.8795
G3 X1.4096 Y3.0674 I-0.1875 J0.0004
G1 X-0.4077
G3 X-0.5952 Y2.8799 I0.0 J-0.1875
G1 Y2.3799
G3 X-0.4077 Y2.1924 I0.1875 J0.0
G1 F10.0 Z-0.045
G1 F12.0 X-0.0889
G3 X0.2037 Y1.9427 I0.3062 J0.0625
G1 X1.2925 Y1.4727
G3 X1.3694 Y1.4957 I0.0248 J0.0574
G3 X1.5955 Y2.1879 I-1.1521 J0.7592
G3 Y2.1908 I-0.0624 J0.003
G1 X1.5971 Y2.8795
G3 X1.4096 Y3.0674 I-0.1875 J0.0004
G1 X-0.4077
G3 X-0.5952 Y2.8799 I0.0 J-0.1875
G1 Y2.3799
G3 X-0.4077 Y2.1924 I0.1875 J0.0
G1 F10.0 Z-0.06
G1 F12.0 X-0.0889
G3 X0.2037 Y1.9427 I0.3062 J0.0625
G1 X1.2925 Y1.4727
G3 X1.3694 Y1.4957 I0.0248 J0.0574
G3 X1.5955 Y2.1879 I-1.1521 J0.7592
G3 Y2.1908 I-0.0624 J0.003
G1 X1.5971 Y2.8795
G3 X1.4096 Y3.0674 I-0.1875 J0.0004
G1 X-0.4077
G3 X-0.5952 Y2.8799 I0.0 J-0.1875
G1 Y2.3799
G3 X-0.4077 Y2.1924 I0.1875 J0.0
G1 F10.0 Z-0.067
G1 F12.0 X-0.0889
G3 X0.2037 Y1.9427 I0.3062 J0.0625
G1 X1.2925 Y1.4727
G3 X1.3694 Y1.4957 I0.0248 J0.0574
G3 X1.5955 Y2.1879 I-1.1521 J0.7592
G3 Y2.1908 I-0.0624 J0.003
G1 X1.5971 Y2.8795
G3 X1.4096 Y3.0674 I-0.1875 J0.0004
G1 X-0.4077
G3 X-0.5952 Y2.8799 I0.0 J-0.1875
G1 Y2.3799
G3 X-0.4077 Y2.1924 I0.1875 J0.0
G0 Z0.125
G0 X0.1753 Y1.5511
G0 Z0.0625
G1 F10.0 Z-0.015
G3 F12.0 X0.1651 Y1.5393 I0.042 J-0.0462
G3 X-0.0609 Y0.847 I1.1521 J-0.7592
G3 Y0.8442 I0.0624 J-0.003
G1 X-0.0625 Y0.1555
G3 X0.125 Y-0.0324 I0.1875 J-0.0004
G1 X1.9422
G3 X2.1297 Y0.1551 I0.0 J0.1875
G1 X2.1298 Y0.6551
G3 X1.9423 Y0.8426 I-0.1875 J0.0
G1 X1.6234
G3 X1.3308 Y1.0923 I-0.3062 J-0.0625
G1 X0.2421 Y1.5623
G3 X0.1753 Y1.5511 I-0.0248 J-0.0574
G1 F10.0 Z-0.03
G3 F12.0 X0.1651 Y1.5393 I0.042 J-0.0462
G3 X-0.0609 Y0.847 I1.1521 J-0.7592
G3 Y0.8442 I0.0624 J-0.003
G1 X-0.0625 Y0.1555
G3 X0.125 Y-0.0324 I0.1875 J-0.0004
G1 X1.9422
G3 X2.1297 Y0.1551 I0.0 J0.1875
G1 X2.1298 Y0.6551
G3 X1.9423 Y0.8426 I-0.1875 J0.0
G1 X1.6234
G3 X1.3308 Y1.0923 I-0.3062 J-0.0625
G1 X0.2421 Y1.5623
G3 X0.1753 Y1.5511 I-0.0248 J-0.0574
G1 F10.0 Z-0.045
G3 F12.0 X0.1651 Y1.5393 I0.042 J-0.0462
G3 X-0.0609 Y0.847 I1.1521 J-0.7592
G3 Y0.8442 I0.0624 J-0.003
G1 X-0.0625 Y0.1555
G3 X0.125 Y-0.0324 I0.1875 J-0.0004
G1 X1.9422
G3 X2.1297 Y0.1551 I0.0 J0.1875
G1 X2.1298 Y0.6551
G3 X1.9423 Y0.8426 I-0.1875 J0.0
G1 X1.6234
G3 X1.3308 Y1.0923 I-0.3062 J-0.0625
G1 X0.2421 Y1.5623
G3 X0.1753 Y1.5511 I-0.0248 J-0.0574
G1 F10.0 Z-0.06
G3 F12.0 X0.1651 Y1.5393 I0.042 J-0.0462
G3 X-0.0609 Y0.847 I1.1521 J-0.7592
G3 Y0.8442 I0.0624 J-0.003
G1 X-0.0625 Y0.1555
G3 X0.125 Y-0.0324 I0.1875 J-0.0004
G1 X1.9422
G3 X2.1297 Y0.1551 I0.0 J0.1875
G1 X2.1298 Y0.6551
G3 X1.9423 Y0.8426 I-0.1875 J0.0
G1 X1.6234
G3 X1.3308 Y1.0923 I-0.3062 J-0.0625
G1 X0.2421 Y1.5623
G3 X0.1753 Y1.5511 I-0.0248 J-0.0574
G1 F10.0 Z-0.067
G3 F12.0 X0.1651 Y1.5393 I0.042 J-0.0462
G3 X-0.0609 Y0.847 I1.1521 J-0.7592
G3 Y0.8442 I0.0624 J-0.003
G1 X-0.0625 Y0.1555
G3 X0.125 Y-0.0324 I0.1875 J-0.0004
G1 X1.9422
G3 X2.1297 Y0.1551 I0.0 J0.1875
G1 X2.1298 Y0.6551
G3 X1.9423 Y0.8426 I-0.1875 J0.0
G1 X1.6234
G3 X1.3308 Y1.0923 I-0.3062 J-0.0625
G1 X0.2421 Y1.5623
G3 X0.1753 Y1.5511 I-0.0248 J-0.0574
G0 Z0.125
M5
M30
