( Made using CamBam - http://www.cambam.co.uk )
( tensioner 9/27/2014 3:07:43 PM )
( T0 : 0.125 )
G20 G90 G64 G40
G0 Z0.125
( T0 : 0.125 )
T0 M6
( Drill1 )
G17
M3 S1000
G0 X0.2334 Y0.6109
G98
G81 X0.2334 Y0.6109 Z-0.26 R0.125 F10.0
G80
( cutout )
S1000
G0 Z0.125
G0 X0.912
G0 Z0.0625
G1 F10.0 Z-0.065
G2 F30.0 X0.7719 Y0.5299 I-0.0935 J0.0
G2 Y0.6918 I0.0467 J0.0809
G2 X0.912 Y0.6109 I0.0467 J-0.0809
G1 F10.0 Z-0.13
G2 F30.0 X0.7719 Y0.5299 I-0.0935 J0.0
G2 Y0.6918 I0.0467 J0.0809
G2 X0.912 Y0.6109 I0.0467 J-0.0809
G1 F10.0 Z-0.195
G2 F30.0 X0.7719 Y0.5299 I-0.0935 J0.0
G2 Y0.6918 I0.0467 J0.0809
G2 X0.912 Y0.6109 I0.0467 J-0.0809
G1 F10.0 Z-0.26
G2 F30.0 X0.7719 Y0.5299 I-0.0935 J0.0
G2 Y0.6918 I0.0467 J0.0809
G2 X0.912 Y0.6109 I0.0467 J-0.0809
G0 Z0.125
G0 X1.3804
G0 Z0.0625
G1 F10.0 Z-0.065
G3 F30.0 X1.3475 Y0.8833 I-1.1469 J0.0
G3 X1.3435 Y0.8948 I-0.0607 J-0.0148
G2 X1.4292 Y0.939 I0.0438 J0.0203
G2 X1.4311 Y0.29 I-1.1957 J-0.3281
G2 X1.3413 Y0.3142 I-0.0449 J0.0121
G1 Y0.3143
G3 X1.3804 Y0.6109 I-1.1079 J0.2966
G1 F10.0 Z-0.13
G3 F30.0 X1.3475 Y0.8833 I-1.1469 J0.0
G3 X1.3435 Y0.8948 I-0.0607 J-0.0148
G2 X1.4292 Y0.939 I0.0438 J0.0203
G2 X1.4311 Y0.29 I-1.1957 J-0.3281
G2 X1.3413 Y0.3142 I-0.0449 J0.0121
G1 Y0.3143
G3 X1.3804 Y0.6109 I-1.1079 J0.2966
G1 F10.0 Z-0.195
G3 F30.0 X1.3475 Y0.8833 I-1.1469 J0.0
G3 X1.3435 Y0.8948 I-0.0607 J-0.0148
G2 X1.4292 Y0.939 I0.0438 J0.0203
G2 X1.4311 Y0.29 I-1.1957 J-0.3281
G2 X1.3413 Y0.3142 I-0.0449 J0.0121
G1 Y0.3143
G3 X1.3804 Y0.6109 I-1.1079 J0.2966
G1 F10.0 Z-0.26
G3 F30.0 X1.3475 Y0.8833 I-1.1469 J0.0
G3 X1.3435 Y0.8948 I-0.0607 J-0.0148
G2 X1.4292 Y0.939 I0.0438 J0.0203
G2 X1.4311 Y0.29 I-1.1957 J-0.3281
G2 X1.3413 Y0.3142 I-0.0449 J0.0121
G1 Y0.3143
G3 X1.3804 Y0.6109 I-1.1079 J0.2966
( Profile2 )
S1000
G0 Z0.125
G0 X0.4192 Y0.8509
G0 Z0.0625
G1 F10.0 Z-0.065
G3 F30.0 X0.4193 Y0.3708 I-0.1858 J-0.2401
G1 X1.4802 Y-0.058
G3 X1.56 Y-0.0271 I0.0234 J0.0579
G3 Y1.2488 I-1.3266 J0.638
G3 X1.4803 Y1.2797 I-0.0563 J-0.0271
G1 X0.4192 Y0.8509
G1 F10.0 Z-0.13
G3 F30.0 X0.4193 Y0.3708 I-0.1858 J-0.2401
G1 X1.4802 Y-0.058
G3 X1.56 Y-0.0271 I0.0234 J0.0579
G3 Y1.2488 I-1.3266 J0.638
G3 X1.4803 Y1.2797 I-0.0563 J-0.0271
G1 X0.4192 Y0.8509
G1 F10.0 Z-0.195
G3 F30.0 X0.4193 Y0.3708 I-0.1858 J-0.2401
G1 X1.4802 Y-0.058
G3 X1.56 Y-0.0271 I0.0234 J0.0579
G3 Y1.2488 I-1.3266 J0.638
G3 X1.4803 Y1.2797 I-0.0563 J-0.0271
G1 X0.4192 Y0.8509
G1 F10.0 Z-0.26
G3 F30.0 X0.4193 Y0.3708 I-0.1858 J-0.2401
G1 X1.4802 Y-0.058
G3 X1.56 Y-0.0271 I0.0234 J0.0579
G3 Y1.2488 I-1.3266 J0.638
G3 X1.4803 Y1.2797 I-0.0563 J-0.0271
G1 X0.4192 Y0.8509
G0 Z0.125
M5
M30
