( Made using CamBam - http://www.cambam.co.uk )
( tensioner_bracket 10/13/2014 6:29:55 PM )
( T0 : 0.0 )
G20 G90 G64 G40
G0 Z0.125
( T0 : 0.0 )
T0 M6
( Drill1 )
G17
M3 S1000
G0 X2.1535 Y0.6239
G98
G81 X2.1535 Y0.6239 Z-0.067 R0.125 F10.0
G81 X3.4708 Z-0.067
G81 X3.1285 Y2.3152 Z-0.067
G81 X1.8112 Z-0.067
G80
( cutout )
S1000
G0 Z0.125
G0 X2.45 Y0.3752
G0 Z0.0625
G1 F10.0 Z-0.015
G2 F12.0 X2.3805 Y0.3351 I-0.0463 J0.0
G2 Y0.4154 I0.0232 J0.0401
G2 X2.45 Y0.3752 I0.0232 J-0.0401
G1 F10.0 Z-0.03
G2 F12.0 X2.3805 Y0.3351 I-0.0463 J0.0
G2 Y0.4154 I0.0232 J0.0401
G2 X2.45 Y0.3752 I0.0232 J-0.0401
G1 F10.0 Z-0.045
G2 F12.0 X2.3805 Y0.3351 I-0.0463 J0.0
G2 Y0.4154 I0.0232 J0.0401
G2 X2.45 Y0.3752 I0.0232 J-0.0401
G1 F10.0 Z-0.06
G2 F12.0 X2.3805 Y0.3351 I-0.0463 J0.0
G2 Y0.4154 I0.0232 J0.0401
G2 X2.45 Y0.3752 I0.0232 J-0.0401
G1 F10.0 Z-0.067
G2 F12.0 X2.3805 Y0.3351 I-0.0463 J0.0
G2 Y0.4154 I0.0232 J0.0401
G2 X2.45 Y0.3752 I0.0232 J-0.0401
G0 Z0.125
G0 X2.1773 Y0.834
G0 Z0.0625
G1 F10.0 Z-0.015
G2 F12.0 X2.1303 Y0.8337 I-0.0238 J0.04
G2 Y0.9142 I0.0233 J0.0403
G2 X2.2 Y0.8739 I0.0233 J-0.0403
G2 X2.1773 Y0.834 I-0.0465 J0.0
G1 F10.0 Z-0.03
G2 F12.0 X2.1303 Y0.8337 I-0.0238 J0.04
G2 Y0.9142 I0.0233 J0.0403
G2 X2.2 Y0.8739 I0.0233 J-0.0403
G2 X2.1773 Y0.834 I-0.0465 J0.0
G1 F10.0 Z-0.045
G2 F12.0 X2.1303 Y0.8337 I-0.0238 J0.04
G2 Y0.9142 I0.0233 J0.0403
G2 X2.2 Y0.8739 I0.0233 J-0.0403
G2 X2.1773 Y0.834 I-0.0465 J0.0
G1 F10.0 Z-0.06
G2 F12.0 X2.1303 Y0.8337 I-0.0238 J0.04
G2 Y0.9142 I0.0233 J0.0403
G2 X2.2 Y0.8739 I0.0233 J-0.0403
G2 X2.1773 Y0.834 I-0.0465 J0.0
G1 F10.0 Z-0.067
G2 F12.0 X2.1303 Y0.8337 I-0.0238 J0.04
G2 Y0.9142 I0.0233 J0.0403
G2 X2.2 Y0.8739 I0.0233 J-0.0403
G2 X2.1773 Y0.834 I-0.0465 J0.0
G0 Z0.125
G0 X2.116 Y1.5859
G0 Z0.0625
G1 F10.0 Z-0.015
G2 F12.0 X2.0889 Y1.592 I-0.0038 J0.0464
G2 Y1.6726 I0.0233 J0.0403
G2 X2.1587 Y1.6323 I0.0233 J-0.0403
G2 X2.116 Y1.5859 I-0.0465 J0.0
G1 F10.0 Z-0.03
G2 F12.0 X2.0889 Y1.592 I-0.0038 J0.0464
G2 Y1.6726 I0.0233 J0.0403
G2 X2.1587 Y1.6323 I0.0233 J-0.0403
G2 X2.116 Y1.5859 I-0.0465 J0.0
G1 F10.0 Z-0.045
G2 F12.0 X2.0889 Y1.592 I-0.0038 J0.0464
G2 Y1.6726 I0.0233 J0.0403
G2 X2.1587 Y1.6323 I0.0233 J-0.0403
G2 X2.116 Y1.5859 I-0.0465 J0.0
G1 F10.0 Z-0.06
G2 F12.0 X2.0889 Y1.592 I-0.0038 J0.0464
G2 Y1.6726 I0.0233 J0.0403
G2 X2.1587 Y1.6323 I0.0233 J-0.0403
G2 X2.116 Y1.5859 I-0.0465 J0.0
G1 F10.0 Z-0.067
G2 F12.0 X2.0889 Y1.592 I-0.0038 J0.0464
G2 Y1.6726 I0.0233 J0.0403
G2 X2.1587 Y1.6323 I0.0233 J-0.0403
G2 X2.116 Y1.5859 I-0.0465 J0.0
G0 Z0.125
G0 X2.0638 Y2.5188
G0 Z0.0625
G1 F10.0 Z-0.015
G2 F12.0 X2.038 Y2.525 I-0.0026 J0.0464
G2 Y2.6055 I0.0233 J0.0403
G2 X2.1077 Y2.5652 I0.0233 J-0.0403
G2 X2.0638 Y2.5188 I-0.0465 J0.0
G1 F10.0 Z-0.03
G2 F12.0 X2.038 Y2.525 I-0.0026 J0.0464
G2 Y2.6055 I0.0233 J0.0403
G2 X2.1077 Y2.5652 I0.0233 J-0.0403
G2 X2.0638 Y2.5188 I-0.0465 J0.0
G1 F10.0 Z-0.045
G2 F12.0 X2.038 Y2.525 I-0.0026 J0.0464
G2 Y2.6055 I0.0233 J0.0403
G2 X2.1077 Y2.5652 I0.0233 J-0.0403
G2 X2.0638 Y2.5188 I-0.0465 J0.0
G1 F10.0 Z-0.06
G2 F12.0 X2.038 Y2.525 I-0.0026 J0.0464
G2 Y2.6055 I0.0233 J0.0403
G2 X2.1077 Y2.5652 I0.0233 J-0.0403
G2 X2.0638 Y2.5188 I-0.0465 J0.0
G1 F10.0 Z-0.067
G2 F12.0 X2.038 Y2.525 I-0.0026 J0.0464
G2 Y2.6055 I0.0233 J0.0403
G2 X2.1077 Y2.5652 I0.0233 J-0.0403
G2 X2.0638 Y2.5188 I-0.0465 J0.0
G0 Z0.125
G0 X2.8321 Y2.5614
G0 Z0.0625
G1 F10.0 Z-0.015
G2 F12.0 X2.8552 Y2.6041 I0.0463 J0.0026
G2 X2.9247 Y2.5639 I0.0232 J-0.0401
G2 X2.8552 Y2.5238 I-0.0463 J0.0
G2 X2.8321 Y2.5614 I0.0232 J0.0401
G1 F10.0 Z-0.03
G2 F12.0 X2.8552 Y2.6041 I0.0463 J0.0026
G2 X2.9247 Y2.5639 I0.0232 J-0.0401
G2 X2.8552 Y2.5238 I-0.0463 J0.0
G2 X2.8321 Y2.5614 I0.0232 J0.0401
G1 F10.0 Z-0.045
G2 F12.0 X2.8552 Y2.6041 I0.0463 J0.0026
G2 X2.9247 Y2.5639 I0.0232 J-0.0401
G2 X2.8552 Y2.5238 I-0.0463 J0.0
G2 X2.8321 Y2.5614 I0.0232 J0.0401
G1 F10.0 Z-0.06
G2 F12.0 X2.8552 Y2.6041 I0.0463 J0.0026
G2 X2.9247 Y2.5639 I0.0232 J-0.0401
G2 X2.8552 Y2.5238 I-0.0463 J0.0
G2 X2.8321 Y2.5614 I0.0232 J0.0401
G1 F10.0 Z-0.067
G2 F12.0 X2.8552 Y2.6041 I0.0463 J0.0026
G2 X2.9247 Y2.5639 I0.0232 J-0.0401
G2 X2.8552 Y2.5238 I-0.0463 J0.0
G2 X2.8321 Y2.5614 I0.0232 J0.0401
G0 Z0.125
G0 X3.1046 Y2.1052
G0 Z0.0625
G1 F10.0 Z-0.015
G2 F12.0 X3.1052 Y2.1055 I0.0238 J-0.0399
G2 X3.175 Y2.0652 I0.0233 J-0.0403
G2 X3.1052 Y2.025 I-0.0465 J0.0
G2 X3.1046 Y2.1052 I0.0233 J0.0403
G1 F10.0 Z-0.03
G2 F12.0 X3.1052 Y2.1055 I0.0238 J-0.0399
G2 X3.175 Y2.0652 I0.0233 J-0.0403
G2 X3.1052 Y2.025 I-0.0465 J0.0
G2 X3.1046 Y2.1052 I0.0233 J0.0403
G1 F10.0 Z-0.045
G2 F12.0 X3.1052 Y2.1055 I0.0238 J-0.0399
G2 X3.175 Y2.0652 I0.0233 J-0.0403
G2 X3.1052 Y2.025 I-0.0465 J0.0
G2 X3.1046 Y2.1052 I0.0233 J0.0403
G1 F10.0 Z-0.06
G2 F12.0 X3.1052 Y2.1055 I0.0238 J-0.0399
G2 X3.175 Y2.0652 I0.0233 J-0.0403
G2 X3.1052 Y2.025 I-0.0465 J0.0
G2 X3.1046 Y2.1052 I0.0233 J0.0403
G1 F10.0 Z-0.067
G2 F12.0 X3.1052 Y2.1055 I0.0238 J-0.0399
G2 X3.175 Y2.0652 I0.0233 J-0.0403
G2 X3.1052 Y2.025 I-0.0465 J0.0
G2 X3.1046 Y2.1052 I0.0233 J0.0403
G0 Z0.125
G0 X3.166 Y1.3533
G0 Z0.0625
G1 F10.0 Z-0.015
G2 F12.0 X3.2163 Y1.3069 I0.0038 J-0.0464
G2 X3.1465 Y1.2666 I-0.0465 J0.0
G2 Y1.3472 I0.0233 J0.0403
G2 X3.166 Y1.3533 I0.0233 J-0.0403
G1 F10.0 Z-0.03
G2 F12.0 X3.2163 Y1.3069 I0.0038 J-0.0464
G2 X3.1465 Y1.2666 I-0.0465 J0.0
G2 Y1.3472 I0.0233 J0.0403
G2 X3.166 Y1.3533 I0.0233 J-0.0403
G1 F10.0 Z-0.045
G2 F12.0 X3.2163 Y1.3069 I0.0038 J-0.0464
G2 X3.1465 Y1.2666 I-0.0465 J0.0
G2 Y1.3472 I0.0233 J0.0403
G2 X3.166 Y1.3533 I0.0233 J-0.0403
G1 F10.0 Z-0.06
G2 F12.0 X3.2163 Y1.3069 I0.0038 J-0.0464
G2 X3.1465 Y1.2666 I-0.0465 J0.0
G2 Y1.3472 I0.0233 J0.0403
G2 X3.166 Y1.3533 I0.0233 J-0.0403
G1 F10.0 Z-0.067
G2 F12.0 X3.2163 Y1.3069 I0.0038 J-0.0464
G2 X3.1465 Y1.2666 I-0.0465 J0.0
G2 Y1.3472 I0.0233 J0.0403
G2 X3.166 Y1.3533 I0.0233 J-0.0403
G0 Z0.125
G0 X3.2182 Y0.4204
G0 Z0.0625
G1 F10.0 Z-0.015
G2 F12.0 X3.2673 Y0.3739 I0.0026 J-0.0464
G2 X3.1975 Y0.3337 I-0.0465 J0.0
G2 Y0.4142 I0.0233 J0.0403
G2 X3.2182 Y0.4204 I0.0233 J-0.0403
G1 F10.0 Z-0.03
G2 F12.0 X3.2673 Y0.3739 I0.0026 J-0.0464
G2 X3.1975 Y0.3337 I-0.0465 J0.0
G2 Y0.4142 I0.0233 J0.0403
G2 X3.2182 Y0.4204 I0.0233 J-0.0403
G1 F10.0 Z-0.045
G2 F12.0 X3.2673 Y0.3739 I0.0026 J-0.0464
G2 X3.1975 Y0.3337 I-0.0465 J0.0
G2 Y0.4142 I0.0233 J0.0403
G2 X3.2182 Y0.4204 I0.0233 J-0.0403
G1 F10.0 Z-0.06
G2 F12.0 X3.2673 Y0.3739 I0.0026 J-0.0464
G2 X3.1975 Y0.3337 I-0.0465 J0.0
G2 Y0.4142 I0.0233 J0.0403
G2 X3.2182 Y0.4204 I0.0233 J-0.0403
G1 F10.0 Z-0.067
G2 F12.0 X3.2673 Y0.3739 I0.0026 J-0.0464
G2 X3.1975 Y0.3337 I-0.0465 J0.0
G2 Y0.4142 I0.0233 J0.0403
G2 X3.2182 Y0.4204 I0.0233 J-0.0403
( outline )
S1000
G0 Z0.125
G0 X1.841 Y0.6889
G0 Z0.0625
G1 F10.0 Z-0.015
G3 F12.0 X1.9685 Y0.5614 I0.1275 J0.0
G1 X2.091
G1 Y0.2489
G3 X2.2785 Y0.0614 I0.1875 J0.0
G1 X3.3447
G3 X3.5322 Y0.2491 I0.0 J0.1875
G1 X3.5317 Y0.9379
G3 Y0.9409 I-0.0625 J0.0
G3 X3.3375 Y1.5824 I-1.3781 J-0.067
G3 X3.1775 Y1.634 I-0.1094 J-0.0655
G1 X2.1399 Y1.1861
G3 X1.841 Y0.8739 I0.0136 J-0.3122
G1 Y0.6889
G1 F10.0 Z-0.03
G3 F12.0 X1.9685 Y0.5614 I0.1275 J0.0
G1 X2.091
G1 Y0.2489
G3 X2.2785 Y0.0614 I0.1875 J0.0
G1 X3.3447
G3 X3.5322 Y0.2491 I0.0 J0.1875
G1 X3.5317 Y0.9379
G3 Y0.9409 I-0.0625 J0.0
G3 X3.3375 Y1.5824 I-1.3781 J-0.067
G3 X3.1775 Y1.634 I-0.1094 J-0.0655
G1 X2.1399 Y1.1861
G3 X1.841 Y0.8739 I0.0136 J-0.3122
G1 Y0.6889
G1 F10.0 Z-0.045
G3 F12.0 X1.9685 Y0.5614 I0.1275 J0.0
G1 X2.091
G1 Y0.2489
G3 X2.2785 Y0.0614 I0.1875 J0.0
G1 X3.3447
G3 X3.5322 Y0.2491 I0.0 J0.1875
G1 X3.5317 Y0.9379
G3 Y0.9409 I-0.0625 J0.0
G3 X3.3375 Y1.5824 I-1.3781 J-0.067
G3 X3.1775 Y1.634 I-0.1094 J-0.0655
G1 X2.1399 Y1.1861
G3 X1.841 Y0.8739 I0.0136 J-0.3122
G1 Y0.6889
G1 F10.0 Z-0.06
G3 F12.0 X1.9685 Y0.5614 I0.1275 J0.0
G1 X2.091
G1 Y0.2489
G3 X2.2785 Y0.0614 I0.1875 J0.0
G1 X3.3447
G3 X3.5322 Y0.2491 I0.0 J0.1875
G1 X3.5317 Y0.9379
G3 Y0.9409 I-0.0625 J0.0
G3 X3.3375 Y1.5824 I-1.3781 J-0.067
G3 X3.1775 Y1.634 I-0.1094 J-0.0655
G1 X2.1399 Y1.1861
G3 X1.841 Y0.8739 I0.0136 J-0.3122
G1 Y0.6889
G1 F10.0 Z-0.067
G3 F12.0 X1.9685 Y0.5614 I0.1275 J0.0
G1 X2.091
G1 Y0.2489
G3 X2.2785 Y0.0614 I0.1875 J0.0
G1 X3.3447
G3 X3.5322 Y0.2491 I0.0 J0.1875
G1 X3.5317 Y0.9379
G3 Y0.9409 I-0.0625 J0.0
G3 X3.3375 Y1.5824 I-1.3781 J-0.067
G3 X3.1775 Y1.634 I-0.1094 J-0.0655
G1 X2.1399 Y1.1861
G3 X1.841 Y0.8739 I0.0136 J-0.3122
G1 Y0.6889
G0 Z0.125
G0 X2.0184 Y1.2997
G0 Z0.0625
G1 F10.0 Z-0.015
G3 F12.0 X2.1045 Y1.3051 I0.0355 J0.1224
G1 X3.1421 Y1.753
G3 X3.441 Y2.0652 I-0.0136 J0.3122
G1 Y2.2502
G3 X3.3135 Y2.3777 I-0.1275 J0.0
G1 X3.191
G1 Y2.6902
G3 X3.0035 Y2.8777 I-0.1875 J0.0
G1 X1.9362
G3 X1.7487 Y2.6902 I0.0 J-0.1875
G1 Y2.0652
G3 X1.9445 Y1.3567 I1.3798 J0.0
G3 X2.0184 Y1.2997 I0.1094 J0.0655
G1 F10.0 Z-0.03
G3 F12.0 X2.1045 Y1.3051 I0.0355 J0.1224
G1 X3.1421 Y1.753
G3 X3.441 Y2.0652 I-0.0136 J0.3122
G1 Y2.2502
G3 X3.3135 Y2.3777 I-0.1275 J0.0
G1 X3.191
G1 Y2.6902
G3 X3.0035 Y2.8777 I-0.1875 J0.0
G1 X1.9362
G3 X1.7487 Y2.6902 I0.0 J-0.1875
G1 Y2.0652
G3 X1.9445 Y1.3567 I1.3798 J0.0
G3 X2.0184 Y1.2997 I0.1094 J0.0655
G1 F10.0 Z-0.045
G3 F12.0 X2.1045 Y1.3051 I0.0355 J0.1224
G1 X3.1421 Y1.753
G3 X3.441 Y2.0652 I-0.0136 J0.3122
G1 Y2.2502
G3 X3.3135 Y2.3777 I-0.1275 J0.0
G1 X3.191
G1 Y2.6902
G3 X3.0035 Y2.8777 I-0.1875 J0.0
G1 X1.9362
G3 X1.7487 Y2.6902 I0.0 J-0.1875
G1 Y2.0652
G3 X1.9445 Y1.3567 I1.3798 J0.0
G3 X2.0184 Y1.2997 I0.1094 J0.0655
G1 F10.0 Z-0.06
G3 F12.0 X2.1045 Y1.3051 I0.0355 J0.1224
G1 X3.1421 Y1.753
G3 X3.441 Y2.0652 I-0.0136 J0.3122
G1 Y2.2502
G3 X3.3135 Y2.3777 I-0.1275 J0.0
G1 X3.191
G1 Y2.6902
G3 X3.0035 Y2.8777 I-0.1875 J0.0
G1 X1.9362
G3 X1.7487 Y2.6902 I0.0 J-0.1875
G1 Y2.0652
G3 X1.9445 Y1.3567 I1.3798 J0.0
G3 X2.0184 Y1.2997 I0.1094 J0.0655
G1 F10.0 Z-0.067
G3 F12.0 X2.1045 Y1.3051 I0.0355 J0.1224
G1 X3.1421 Y1.753
G3 X3.441 Y2.0652 I-0.0136 J0.3122
G1 Y2.2502
G3 X3.3135 Y2.3777 I-0.1275 J0.0
G1 X3.191
G1 Y2.6902
G3 X3.0035 Y2.8777 I-0.1875 J0.0
G1 X1.9362
G3 X1.7487 Y2.6902 I0.0 J-0.1875
G1 Y2.0652
G3 X1.9445 Y1.3567 I1.3798 J0.0
G3 X2.0184 Y1.2997 I0.1094 J0.0655
G0 Z0.125
M5
M30
