( Made using CamBam - http://www.cambam.co.uk )
( x_carriage_left 10/9/2014 11:58:18 PM )
( T0 : 0.0 )
G20 G90 G64 G40
G0 Z0.125
( T0 : 0.0 )
T0 M6
( Drill1 )
G17
M3 S1000
G0 X2.6386 Y1.8297
G98
G81 X2.6386 Y1.8297 Z-0.26 R0.125 F10.0
G81 X3.0736 Z-0.26
G81 Y1.3297 Z-0.26
G81 X2.6386 Z-0.26
G81 X0.7503 Y5.1024 Z-0.26
G80
( cutout )
S1000
G0 Z0.125
G0 X2.4171 Y3.8694
G0 Z0.0625
G1 F10.0 Z-0.065
G2 F30.0 X2.3837 Y3.8501 I-0.0223 J0.0
G2 Y3.8886 I0.0111 J0.0193
G2 X2.4171 Y3.8694 I0.0111 J-0.0193
G1 F10.0 Z-0.13
G2 F30.0 X2.3837 Y3.8501 I-0.0223 J0.0
G2 Y3.8886 I0.0111 J0.0193
G2 X2.4171 Y3.8694 I0.0111 J-0.0193
G1 F10.0 Z-0.195
G2 F30.0 X2.3837 Y3.8501 I-0.0223 J0.0
G2 Y3.8886 I0.0111 J0.0193
G2 X2.4171 Y3.8694 I0.0111 J-0.0193
G1 F10.0 Z-0.26
G2 F30.0 X2.3837 Y3.8501 I-0.0223 J0.0
G2 Y3.8886 I0.0111 J0.0193
G2 X2.4171 Y3.8694 I0.0111 J-0.0193
G0 Z0.125
G0 X1.9245 Y3.8418
G0 Z0.0625
G1 F10.0 Z-0.065
G2 F30.0 X1.9247 Y3.8317 I-0.1811 J-0.0101
G1 Y1.1701
G2 X1.562 I-0.1814 J0.0
G1 X1.5619 Y3.8317
G2 X1.9245 Y3.8418 I0.1814 J0.0
G1 F10.0 Z-0.13
G2 F30.0 X1.9247 Y3.8317 I-0.1811 J-0.0101
G1 Y1.1701
G2 X1.562 I-0.1814 J0.0
G1 X1.5619 Y3.8317
G2 X1.9245 Y3.8418 I0.1814 J0.0
G1 F10.0 Z-0.195
G2 F30.0 X1.9247 Y3.8317 I-0.1811 J-0.0101
G1 Y1.1701
G2 X1.562 I-0.1814 J0.0
G1 X1.5619 Y3.8317
G2 X1.9245 Y3.8418 I0.1814 J0.0
G1 F10.0 Z-0.26
G2 F30.0 X1.9247 Y3.8317 I-0.1811 J-0.0101
G1 Y1.1701
G2 X1.562 I-0.1814 J0.0
G1 X1.5619 Y3.8317
G2 X1.9245 Y3.8418 I0.1814 J0.0
G0 Z0.125
G0 X1.7453 Y4.6249
G0 Z0.0625
G1 F10.0 Z-0.065
G2 F30.0 X1.1443 Y5.0713 I-0.1098 J0.4799
G3 X1.1225 Y5.2577 I-1.933 J-0.1321
G2 X1.1224 Y5.2582 I0.0616 J0.0103
G1 X1.1211 Y5.2661
G2 X1.121 Y5.2667 I0.0617 J0.0097
G2 X2.0923 Y5.4127 I0.4858 J0.0717
G2 X2.1278 Y5.105 I-1.3419 J-0.3107
G2 Y5.1046 I-0.0625 J-0.0001
G1 X2.1277 Y5.1021
G2 Y5.102 I-0.0625 J0.0002
G2 X1.7453 Y4.6249 I-0.4923 J0.0028
G1 F10.0 Z-0.13
G2 F30.0 X1.1443 Y5.0713 I-0.1098 J0.4799
G3 X1.1225 Y5.2577 I-1.933 J-0.1321
G2 X1.1224 Y5.2582 I0.0616 J0.0103
G1 X1.1211 Y5.2661
G2 X1.121 Y5.2667 I0.0617 J0.0097
G2 X2.0923 Y5.4127 I0.4858 J0.0717
G2 X2.1278 Y5.105 I-1.3419 J-0.3107
G2 Y5.1046 I-0.0625 J-0.0001
G1 X2.1277 Y5.1021
G2 Y5.102 I-0.0625 J0.0002
G2 X1.7453 Y4.6249 I-0.4923 J0.0028
G1 F10.0 Z-0.195
G2 F30.0 X1.1443 Y5.0713 I-0.1098 J0.4799
G3 X1.1225 Y5.2577 I-1.933 J-0.1321
G2 X1.1224 Y5.2582 I0.0616 J0.0103
G1 X1.1211 Y5.2661
G2 X1.121 Y5.2667 I0.0617 J0.0097
G2 X2.0923 Y5.4127 I0.4858 J0.0717
G2 X2.1278 Y5.105 I-1.3419 J-0.3107
G2 Y5.1046 I-0.0625 J-0.0001
G1 X2.1277 Y5.1021
G2 Y5.102 I-0.0625 J0.0002
G2 X1.7453 Y4.6249 I-0.4923 J0.0028
G1 F10.0 Z-0.26
G2 F30.0 X1.1443 Y5.0713 I-0.1098 J0.4799
G3 X1.1225 Y5.2577 I-1.933 J-0.1321
G2 X1.1224 Y5.2582 I0.0616 J0.0103
G1 X1.1211 Y5.2661
G2 X1.121 Y5.2667 I0.0617 J0.0097
G2 X2.0923 Y5.4127 I0.4858 J0.0717
G2 X2.1278 Y5.105 I-1.3419 J-0.3107
G2 Y5.1046 I-0.0625 J-0.0001
G1 X2.1277 Y5.1021
G2 Y5.102 I-0.0625 J0.0002
G2 X1.7453 Y4.6249 I-0.4923 J0.0028
G0 Z0.125
G0 X2.8258 Y5.0842
G0 Z0.0625
G1 F10.0 Z-0.065
G2 F30.0 X2.8454 Y5.1426 I0.0428 J0.0182
G2 X2.9151 Y5.1024 I0.0232 J-0.0403
G2 X2.8454 Y5.0621 I-0.0465 J0.0
G2 X2.8258 Y5.0842 I0.0233 J0.0403
G1 F10.0 Z-0.13
G2 F30.0 X2.8454 Y5.1426 I0.0428 J0.0182
G2 X2.9151 Y5.1024 I0.0232 J-0.0403
G2 X2.8454 Y5.0621 I-0.0465 J0.0
G2 X2.8258 Y5.0842 I0.0233 J0.0403
G1 F10.0 Z-0.195
G2 F30.0 X2.8454 Y5.1426 I0.0428 J0.0182
G2 X2.9151 Y5.1024 I0.0232 J-0.0403
G2 X2.8454 Y5.0621 I-0.0465 J0.0
G2 X2.8258 Y5.0842 I0.0233 J0.0403
G1 F10.0 Z-0.26
G2 F30.0 X2.8454 Y5.1426 I0.0428 J0.0182
G2 X2.9151 Y5.1024 I0.0232 J-0.0403
G2 X2.8454 Y5.0621 I-0.0465 J0.0
G2 X2.8258 Y5.0842 I0.0233 J0.0403
G0 Z0.125
G0 X3.3903 Y3.8919
G0 Z0.0625
G1 F10.0 Z-0.065
G2 F30.0 X3.422 Y3.8718 I0.0095 J-0.0201
G2 X3.3887 Y3.8526 I-0.0222 J0.0
G2 Y3.8911 I0.0111 J0.0193
G2 X3.3903 Y3.8919 I0.0111 J-0.0193
G1 F10.0 Z-0.13
G2 F30.0 X3.422 Y3.8718 I0.0095 J-0.0201
G2 X3.3887 Y3.8526 I-0.0222 J0.0
G2 Y3.8911 I0.0111 J0.0193
G2 X3.3903 Y3.8919 I0.0111 J-0.0193
G1 F10.0 Z-0.195
G2 F30.0 X3.422 Y3.8718 I0.0095 J-0.0201
G2 X3.3887 Y3.8526 I-0.0222 J0.0
G2 Y3.8911 I0.0111 J0.0193
G2 X3.3903 Y3.8919 I0.0111 J-0.0193
G1 F10.0 Z-0.26
G2 F30.0 X3.422 Y3.8718 I0.0095 J-0.0201
G2 X3.3887 Y3.8526 I-0.0222 J0.0
G2 Y3.8911 I0.0111 J0.0193
G2 X3.3903 Y3.8919 I0.0111 J-0.0193
G0 Z0.125
G0 X4.4056 Y4.3379
G0 Z0.0625
G1 F10.0 Z-0.065
G1 F30.0 X4.3717 Y4.415
G2 X5.2136 I0.4209 J-1.6438
G1 X5.0733 Y4.0955
G3 X4.5121 I-0.2806 J-1.3243
G1 X4.4056 Y4.3379
G1 F10.0 Z-0.13
G1 F30.0 X4.3717 Y4.415
G2 X5.2136 I0.4209 J-1.6438
G1 X5.0733 Y4.0955
G3 X4.5121 I-0.2806 J-1.3243
G1 X4.4056 Y4.3379
G1 F10.0 Z-0.195
G1 F30.0 X4.3717 Y4.415
G2 X5.2136 I0.4209 J-1.6438
G1 X5.0733 Y4.0955
G3 X4.5121 I-0.2806 J-1.3243
G1 X4.4056 Y4.3379
G1 F10.0 Z-0.26
G1 F30.0 X4.3717 Y4.415
G2 X5.2136 I0.4209 J-1.6438
G1 X5.0733 Y4.0955
G3 X4.5121 I-0.2806 J-1.3243
G1 X4.4056 Y4.3379
G0 Z0.125
G0 X4.2957 Y4.7826
G0 Z0.0625
G1 F10.0 Z-0.065
G3 F30.0 X4.2564 Y4.7725 I0.4969 J-2.0113
G2 X4.2324 Y4.8623 I-0.012 J0.0449
G2 X5.353 I0.5603 J-2.0911
G2 X5.3289 Y4.7725 I-0.012 J-0.0449
G3 X4.2957 Y4.7826 I-0.5362 J-2.0012
G1 F10.0 Z-0.13
G3 F30.0 X4.2564 Y4.7725 I0.4969 J-2.0113
G2 X4.2324 Y4.8623 I-0.012 J0.0449
G2 X5.353 I0.5603 J-2.0911
G2 X5.3289 Y4.7725 I-0.012 J-0.0449
G3 X4.2957 Y4.7826 I-0.5362 J-2.0012
G1 F10.0 Z-0.195
G3 F30.0 X4.2564 Y4.7725 I0.4969 J-2.0113
G2 X4.2324 Y4.8623 I-0.012 J0.0449
G2 X5.353 I0.5603 J-2.0911
G2 X5.3289 Y4.7725 I-0.012 J-0.0449
G3 X4.2957 Y4.7826 I-0.5362 J-2.0012
G1 F10.0 Z-0.26
G3 F30.0 X4.2564 Y4.7725 I0.4969 J-2.0113
G2 X4.2324 Y4.8623 I-0.012 J0.0449
G2 X5.353 I0.5603 J-2.0911
G2 X5.3289 Y4.7725 I-0.012 J-0.0449
G3 X4.2957 Y4.7826 I-0.5362 J-2.0012
G0 Z0.125
G0 X4.7549 Y3.742
G0 Z0.0625
G1 F10.0 Z-0.065
G2 F30.0 X4.8862 Y3.6564 I0.0377 J-0.0855
G2 X4.7459 Y3.5755 I-0.0935 J0.0
G2 Y3.7374 I0.0468 J0.081
G2 X4.7549 Y3.742 I0.0467 J-0.081
G1 F10.0 Z-0.13
G2 F30.0 X4.8862 Y3.6564 I0.0377 J-0.0855
G2 X4.7459 Y3.5755 I-0.0935 J0.0
G2 Y3.7374 I0.0468 J0.081
G2 X4.7549 Y3.742 I0.0467 J-0.081
G1 F10.0 Z-0.195
G2 F30.0 X4.8862 Y3.6564 I0.0377 J-0.0855
G2 X4.7459 Y3.5755 I-0.0935 J0.0
G2 Y3.7374 I0.0468 J0.081
G2 X4.7549 Y3.742 I0.0467 J-0.081
G1 F10.0 Z-0.26
G2 F30.0 X4.8862 Y3.6564 I0.0377 J-0.0855
G2 X4.7459 Y3.5755 I-0.0935 J0.0
G2 Y3.7374 I0.0468 J0.081
G2 X4.7549 Y3.742 I0.0467 J-0.081
G0 Z0.125
G0 X4.7716 Y3.3125
G0 Z0.0625
G1 F10.0 Z-0.065
G2 F30.0 X4.9008 Y3.302 I0.021 J-0.5413
G1 X4.8437 Y3.0186
G3 X4.7416 I-0.051 J-0.2473
G1 X4.6846 Y3.302
G2 X4.7716 Y3.3125 I0.1081 J-0.5308
G1 F10.0 Z-0.13
G2 F30.0 X4.9008 Y3.302 I0.021 J-0.5413
G1 X4.8437 Y3.0186
G3 X4.7416 I-0.051 J-0.2473
G1 X4.6846 Y3.302
G2 X4.7716 Y3.3125 I0.1081 J-0.5308
G1 F10.0 Z-0.195
G2 F30.0 X4.9008 Y3.302 I0.021 J-0.5413
G1 X4.8437 Y3.0186
G3 X4.7416 I-0.051 J-0.2473
G1 X4.6846 Y3.302
G2 X4.7716 Y3.3125 I0.1081 J-0.5308
G1 F10.0 Z-0.26
G2 F30.0 X4.9008 Y3.302 I0.021 J-0.5413
G1 X4.8437 Y3.0186
G3 X4.7416 I-0.051 J-0.2473
G1 X4.6846 Y3.302
G2 X4.7716 Y3.3125 I0.1081 J-0.5308
G0 Z0.125
G0 X3.4176 Y2.7419
G0 Z0.0625
G1 F10.0 Z-0.065
G2 F30.0 X3.4191 Y2.7343 I-0.0178 J-0.0075
G2 X3.3901 Y2.7176 I-0.0194 J0.0
G2 Y2.7511 I0.0097 J0.0168
G2 X3.4176 Y2.7419 I0.0097 J-0.0168
G1 F10.0 Z-0.13
G2 F30.0 X3.4191 Y2.7343 I-0.0178 J-0.0075
G2 X3.3901 Y2.7176 I-0.0194 J0.0
G2 Y2.7511 I0.0097 J0.0168
G2 X3.4176 Y2.7419 I0.0097 J-0.0168
G1 F10.0 Z-0.195
G2 F30.0 X3.4191 Y2.7343 I-0.0178 J-0.0075
G2 X3.3901 Y2.7176 I-0.0194 J0.0
G2 Y2.7511 I0.0097 J0.0168
G2 X3.4176 Y2.7419 I0.0097 J-0.0168
G1 F10.0 Z-0.26
G2 F30.0 X3.4191 Y2.7343 I-0.0178 J-0.0075
G2 X3.3901 Y2.7176 I-0.0194 J0.0
G2 Y2.7511 I0.0097 J0.0168
G2 X3.4176 Y2.7419 I0.0097 J-0.0168
G0 Z0.125
G0 X3.5791 Y2.0384
G0 Z0.0625
G1 F10.0 Z-0.065
G2 F30.0 X3.662 Y2.0146 I0.0199 J-0.0869
G1 X4.4238 Y0.9277
G3 X4.426 Y0.9247 I0.0512 J0.0359
G2 X4.3637 Y0.8124 I-0.0625 J-0.0387
G1 X3.5736 Y0.8125
G2 X3.5111 Y0.875 I0.0 J0.0625
G1 Y1.9639
G3 Y1.9662 I-0.0625 J0.0
G2 X3.5791 Y2.0384 I0.0879 J-0.0147
G1 F10.0 Z-0.13
G2 F30.0 X3.662 Y2.0146 I0.0199 J-0.0869
G1 X4.4238 Y0.9277
G3 X4.426 Y0.9247 I0.0512 J0.0359
G2 X4.3637 Y0.8124 I-0.0625 J-0.0387
G1 X3.5736 Y0.8125
G2 X3.5111 Y0.875 I0.0 J0.0625
G1 Y1.9639
G3 Y1.9662 I-0.0625 J0.0
G2 X3.5791 Y2.0384 I0.0879 J-0.0147
G1 F10.0 Z-0.195
G2 F30.0 X3.662 Y2.0146 I0.0199 J-0.0869
G1 X4.4238 Y0.9277
G3 X4.426 Y0.9247 I0.0512 J0.0359
G2 X4.3637 Y0.8124 I-0.0625 J-0.0387
G1 X3.5736 Y0.8125
G2 X3.5111 Y0.875 I0.0 J0.0625
G1 Y1.9639
G3 Y1.9662 I-0.0625 J0.0
G2 X3.5791 Y2.0384 I0.0879 J-0.0147
G1 F10.0 Z-0.26
G2 F30.0 X3.662 Y2.0146 I0.0199 J-0.0869
G1 X4.4238 Y0.9277
G3 X4.426 Y0.9247 I0.0512 J0.0359
G2 X4.3637 Y0.8124 I-0.0625 J-0.0387
G1 X3.5736 Y0.8125
G2 X3.5111 Y0.875 I0.0 J0.0625
G1 Y1.9639
G3 Y1.9662 I-0.0625 J0.0
G2 X3.5791 Y2.0384 I0.0879 J-0.0147
G0 Z0.125
G0 X2.4115 Y2.7221
G0 Z0.0625
G1 F10.0 Z-0.065
G2 F30.0 X2.3852 Y2.7151 I-0.0167 J0.0098
G2 Y2.7486 I0.0097 J0.0168
G2 X2.4142 Y2.7319 I0.0097 J-0.0168
G2 X2.4115 Y2.7221 I-0.0194 J0.0
G1 F10.0 Z-0.13
G2 F30.0 X2.3852 Y2.7151 I-0.0167 J0.0098
G2 Y2.7486 I0.0097 J0.0168
G2 X2.4142 Y2.7319 I0.0097 J-0.0168
G2 X2.4115 Y2.7221 I-0.0194 J0.0
G1 F10.0 Z-0.195
G2 F30.0 X2.3852 Y2.7151 I-0.0167 J0.0098
G2 Y2.7486 I0.0097 J0.0168
G2 X2.4142 Y2.7319 I0.0097 J-0.0168
G2 X2.4115 Y2.7221 I-0.0194 J0.0
G1 F10.0 Z-0.26
G2 F30.0 X2.3852 Y2.7151 I-0.0167 J0.0098
G2 Y2.7486 I0.0097 J0.0168
G2 X2.4142 Y2.7319 I0.0097 J-0.0168
G2 X2.4115 Y2.7221 I-0.0194 J0.0
G0 Z0.125
G0 X2.7018 Y0.3113
G0 Z0.0625
G1 F10.0 Z-0.065
G2 F30.0 X2.7421 Y0.2757 I0.0043 J-0.0357
G2 X2.6882 Y0.2446 I-0.0359 J0.0
G2 Y0.3068 I0.018 J0.0311
G2 X2.7018 Y0.3113 I0.018 J-0.0311
G1 F10.0 Z-0.13
G2 F30.0 X2.7421 Y0.2757 I0.0043 J-0.0357
G2 X2.6882 Y0.2446 I-0.0359 J0.0
G2 Y0.3068 I0.018 J0.0311
G2 X2.7018 Y0.3113 I0.018 J-0.0311
G1 F10.0 Z-0.195
G2 F30.0 X2.7421 Y0.2757 I0.0043 J-0.0357
G2 X2.6882 Y0.2446 I-0.0359 J0.0
G2 Y0.3068 I0.018 J0.0311
G2 X2.7018 Y0.3113 I0.018 J-0.0311
G1 F10.0 Z-0.26
G2 F30.0 X2.7421 Y0.2757 I0.0043 J-0.0357
G2 X2.6882 Y0.2446 I-0.0359 J0.0
G2 Y0.3068 I0.018 J0.0311
G2 X2.7018 Y0.3113 I0.018 J-0.0311
G0 Z0.125
G0 X3.314 Y0.2775
G0 Z0.0625
G1 F10.0 Z-0.065
G2 F30.0 X3.3319 Y0.3067 I0.0359 J-0.002
G2 X3.3858 Y0.2756 I0.018 J-0.0311
G2 X3.3319 Y0.2445 I-0.0359 J0.0
G2 X3.314 Y0.2775 I0.018 J0.0311
G1 F10.0 Z-0.13
G2 F30.0 X3.3319 Y0.3067 I0.0359 J-0.002
G2 X3.3858 Y0.2756 I0.018 J-0.0311
G2 X3.3319 Y0.2445 I-0.0359 J0.0
G2 X3.314 Y0.2775 I0.018 J0.0311
G1 F10.0 Z-0.195
G2 F30.0 X3.3319 Y0.3067 I0.0359 J-0.002
G2 X3.3858 Y0.2756 I0.018 J-0.0311
G2 X3.3319 Y0.2445 I-0.0359 J0.0
G2 X3.314 Y0.2775 I0.018 J0.0311
G1 F10.0 Z-0.26
G2 F30.0 X3.3319 Y0.3067 I0.0359 J-0.002
G2 X3.3858 Y0.2756 I0.018 J-0.0311
G2 X3.3319 Y0.2445 I-0.0359 J0.0
G2 X3.314 Y0.2775 I0.018 J0.0311
G0 Z0.125
G0 X4.5738 Y0.2756
G0 Z0.0625
G1 F10.0 Z-0.065
G2 F30.0 X4.5917 Y0.3067 I0.0359 J-0.0001
G2 X4.6456 Y0.2756 I0.018 J-0.0311
G2 X4.5917 Y0.2445 I-0.0359 J0.0
G2 X4.5738 Y0.2756 I0.018 J0.0311
G1 F10.0 Z-0.13
G2 F30.0 X4.5917 Y0.3067 I0.0359 J-0.0001
G2 X4.6456 Y0.2756 I0.018 J-0.0311
G2 X4.5917 Y0.2445 I-0.0359 J0.0
G2 X4.5738 Y0.2756 I0.018 J0.0311
G1 F10.0 Z-0.195
G2 F30.0 X4.5917 Y0.3067 I0.0359 J-0.0001
G2 X4.6456 Y0.2756 I0.018 J-0.0311
G2 X4.5917 Y0.2445 I-0.0359 J0.0
G2 X4.5738 Y0.2756 I0.018 J0.0311
G1 F10.0 Z-0.26
G2 F30.0 X4.5917 Y0.3067 I0.0359 J-0.0001
G2 X4.6456 Y0.2756 I0.018 J-0.0311
G2 X4.5917 Y0.2445 I-0.0359 J0.0
G2 X4.5738 Y0.2756 I0.018 J0.0311
G0 Z0.125
G0 X1.4822 Y0.2757
G0 Z0.0625
G1 F10.0 Z-0.065
G2 F30.0 X1.4283 Y0.2446 I-0.0359 J0.0
G2 Y0.3068 I0.018 J0.0311
G2 X1.4822 Y0.2757 I0.018 J-0.0311
G1 F10.0 Z-0.13
G2 F30.0 X1.4283 Y0.2446 I-0.0359 J0.0
G2 Y0.3068 I0.018 J0.0311
G2 X1.4822 Y0.2757 I0.018 J-0.0311
G1 F10.0 Z-0.195
G2 F30.0 X1.4283 Y0.2446 I-0.0359 J0.0
G2 Y0.3068 I0.018 J0.0311
G2 X1.4822 Y0.2757 I0.018 J-0.0311
G1 F10.0 Z-0.26
G2 F30.0 X1.4283 Y0.2446 I-0.0359 J0.0
G2 Y0.3068 I0.018 J0.0311
G2 X1.4822 Y0.2757 I0.018 J-0.0311
( outline )
S1000
G0 Z0.125
G0 X4.9802 Y5.3065
G0 Z0.0625
G1 F10.0 Z-0.065
G1 F30.0 Y5.4986
G3 X4.6052 I-0.1875 J0.0
G1 Y5.3065
G2 X4.6029 Y5.304 I-0.0025 J0.0
G3 X3.8967 Y5.1478 I0.1898 J-2.5327
G3 X3.8584 Y5.0731 I0.022 J-0.0585
G1 X4.4803 Y2.7625
G3 X5.1051 Y2.7626 I0.3124 J0.0087
G1 X5.7242 Y5.0742
G3 X5.6858 Y5.1489 I-0.0604 J0.0162
G3 X4.9825 Y5.304 I-0.8931 J-2.3776
G2 X4.9802 Y5.3065 I0.0002 J0.0025
G1 F10.0 Z-0.13
G1 F30.0 Y5.4986
G3 X4.6052 I-0.1875 J0.0
G1 Y5.3065
G2 X4.6029 Y5.304 I-0.0025 J0.0
G3 X3.8967 Y5.1478 I0.1898 J-2.5327
G3 X3.8584 Y5.0731 I0.022 J-0.0585
G1 X4.4803 Y2.7625
G3 X5.1051 Y2.7626 I0.3124 J0.0087
G1 X5.7242 Y5.0742
G3 X5.6858 Y5.1489 I-0.0604 J0.0162
G3 X4.9825 Y5.304 I-0.8931 J-2.3776
G2 X4.9802 Y5.3065 I0.0002 J0.0025
G1 F10.0 Z-0.195
G1 F30.0 Y5.4986
G3 X4.6052 I-0.1875 J0.0
G1 Y5.3065
G2 X4.6029 Y5.304 I-0.0025 J0.0
G3 X3.8967 Y5.1478 I0.1898 J-2.5327
G3 X3.8584 Y5.0731 I0.022 J-0.0585
G1 X4.4803 Y2.7625
G3 X5.1051 Y2.7626 I0.3124 J0.0087
G1 X5.7242 Y5.0742
G3 X5.6858 Y5.1489 I-0.0604 J0.0162
G3 X4.9825 Y5.304 I-0.8931 J-2.3776
G2 X4.9802 Y5.3065 I0.0002 J0.0025
G1 F10.0 Z-0.26
G1 F30.0 Y5.4986
G3 X4.6052 I-0.1875 J0.0
G1 Y5.3065
G2 X4.6029 Y5.304 I-0.0025 J0.0
G3 X3.8967 Y5.1478 I0.1898 J-2.5327
G3 X3.8584 Y5.0731 I0.022 J-0.0585
G1 X4.4803 Y2.7625
G3 X5.1051 Y2.7626 I0.3124 J0.0087
G1 X5.7242 Y5.0742
G3 X5.6858 Y5.1489 I-0.0604 J0.0162
G3 X4.9825 Y5.304 I-0.8931 J-2.3776
G2 X4.9802 Y5.3065 I0.0002 J0.0025
G0 Z0.125
G0 X3.4688 Y5.1637
G0 Z0.0625
G1 F10.0 Z-0.065
G3 F30.0 X3.4577 Y5.1937 I-0.0622 J-0.0059
G1 X2.8501 Y6.0614
G3 X2.7989 Y6.0881 I-0.0512 J-0.0358
G1 X1.6355
G3 X1.1429 Y5.9562 I-0.0001 J-0.9854
G3 X0.7676 Y5.5581 I0.4553 J-0.8051
G3 X0.4962 Y5.2483 I0.0411 J-0.3098
G1 Y4.8783
G3 X0.7585 Y4.5698 I0.3125 J0.0
G3 X1.0514 Y4.3735 I0.2725 J0.09
G1 X1.0975 Y4.3515
G3 X1.1244 Y4.3454 I0.027 J0.0564
G2 X1.1869 Y4.2829 I0.0 J-0.0625
G1 Y0.0
G3 X1.2494 Y-0.0625 I0.0625 J0.0
G1 X4.8064
G3 X4.8689 Y0.0 I0.0 J0.0625
G1 Y0.9261
G3 X4.8576 Y0.962 I-0.0625 J0.0
G1 X3.7447 Y2.5503
G1 X3.7448 Y4.0756
G3 X3.7304 Y4.1155 I-0.0625 J0.0
G1 X3.469 Y4.4304
G1 Y5.1578
G3 X3.4688 Y5.1637 I-0.0625 J0.0
G1 F10.0 Z-0.13
G3 F30.0 X3.4577 Y5.1937 I-0.0622 J-0.0059
G1 X2.8501 Y6.0614
G3 X2.7989 Y6.0881 I-0.0512 J-0.0358
G1 X1.6355
G3 X1.1429 Y5.9562 I-0.0001 J-0.9854
G3 X0.7676 Y5.5581 I0.4553 J-0.8051
G3 X0.4962 Y5.2483 I0.0411 J-0.3098
G1 Y4.8783
G3 X0.7585 Y4.5698 I0.3125 J0.0
G3 X1.0514 Y4.3735 I0.2725 J0.09
G1 X1.0975 Y4.3515
G3 X1.1244 Y4.3454 I0.027 J0.0564
G2 X1.1869 Y4.2829 I0.0 J-0.0625
G1 Y0.0
G3 X1.2494 Y-0.0625 I0.0625 J0.0
G1 X4.8064
G3 X4.8689 Y0.0 I0.0 J0.0625
G1 Y0.9261
G3 X4.8576 Y0.962 I-0.0625 J0.0
G1 X3.7447 Y2.5503
G1 X3.7448 Y4.0756
G3 X3.7304 Y4.1155 I-0.0625 J0.0
G1 X3.469 Y4.4304
G1 Y5.1578
G3 X3.4688 Y5.1637 I-0.0625 J0.0
G1 F10.0 Z-0.195
G3 F30.0 X3.4577 Y5.1937 I-0.0622 J-0.0059
G1 X2.8501 Y6.0614
G3 X2.7989 Y6.0881 I-0.0512 J-0.0358
G1 X1.6355
G3 X1.1429 Y5.9562 I-0.0001 J-0.9854
G3 X0.7676 Y5.5581 I0.4553 J-0.8051
G3 X0.4962 Y5.2483 I0.0411 J-0.3098
G1 Y4.8783
G3 X0.7585 Y4.5698 I0.3125 J0.0
G3 X1.0514 Y4.3735 I0.2725 J0.09
G1 X1.0975 Y4.3515
G3 X1.1244 Y4.3454 I0.027 J0.0564
G2 X1.1869 Y4.2829 I0.0 J-0.0625
G1 Y0.0
G3 X1.2494 Y-0.0625 I0.0625 J0.0
G1 X4.8064
G3 X4.8689 Y0.0 I0.0 J0.0625
G1 Y0.9261
G3 X4.8576 Y0.962 I-0.0625 J0.0
G1 X3.7447 Y2.5503
G1 X3.7448 Y4.0756
G3 X3.7304 Y4.1155 I-0.0625 J0.0
G1 X3.469 Y4.4304
G1 Y5.1578
G3 X3.4688 Y5.1637 I-0.0625 J0.0
G1 F10.0 Z-0.26
G3 F30.0 X3.4577 Y5.1937 I-0.0622 J-0.0059
G1 X2.8501 Y6.0614
G3 X2.7989 Y6.0881 I-0.0512 J-0.0358
G1 X1.6355
G3 X1.1429 Y5.9562 I-0.0001 J-0.9854
G3 X0.7676 Y5.5581 I0.4553 J-0.8051
G3 X0.4962 Y5.2483 I0.0411 J-0.3098
G1 Y4.8783
G3 X0.7585 Y4.5698 I0.3125 J0.0
G3 X1.0514 Y4.3735 I0.2725 J0.09
G1 X1.0975 Y4.3515
G3 X1.1244 Y4.3454 I0.027 J0.0564
G2 X1.1869 Y4.2829 I0.0 J-0.0625
G1 Y0.0
G3 X1.2494 Y-0.0625 I0.0625 J0.0
G1 X4.8064
G3 X4.8689 Y0.0 I0.0 J0.0625
G1 Y0.9261
G3 X4.8576 Y0.962 I-0.0625 J0.0
G1 X3.7447 Y2.5503
G1 X3.7448 Y4.0756
G3 X3.7304 Y4.1155 I-0.0625 J0.0
G1 X3.469 Y4.4304
G1 Y5.1578
G3 X3.4688 Y5.1637 I-0.0625 J0.0
G0 Z0.125
M5
M30
