( Made using CamBam - http://www.cambam.co.uk )
( xcablecarrier_brackets 11/16/2014 12:01:13 AM )
( T0 : 0.0 )
G20 G90 G64 G40
G0 Z0.125
( T0 : 0.0 )
T0 M6
( Drill1 )
G17
M3 S1000
G0 X4.5016 Y1.2525
G98
G81 X4.5016 Y1.2525 Z-0.076 R0.125 F10.0
G81 X4.5009 Y1.6462 Z-0.076
G81 X4.7919 Y2.158 Z-0.076
G81 X5.4836 Y1.6463 Z-0.076
G81 Y1.2526 Z-0.076
G81 X4.7919 Y0.7198 Z-0.076
G81 X3.3517 Y0.5965 Z-0.076
G81 Y0.2028 Z-0.076
G81 X0.5058 Y0.0001 Z-0.076
G81 X0.5057 Y1.7001 Z-0.076
G80
( cutout )
S1000
G0 Z0.125
G0 X4.3134 Y0.2245
G0 Z0.0625
G1 F10.0 Z-0.007
G2 F15.0 X4.2595 Y0.1933 I-0.0359 J0.0
G2 Y0.2556 I0.018 J0.0311
G2 X4.3134 Y0.2245 I0.018 J-0.0311
G1 F10.0 Z-0.014
G2 F15.0 X4.2595 Y0.1933 I-0.0359 J0.0
G2 Y0.2556 I0.018 J0.0311
G2 X4.3134 Y0.2245 I0.018 J-0.0311
G1 F10.0 Z-0.021
G2 F15.0 X4.2595 Y0.1933 I-0.0359 J0.0
G2 Y0.2556 I0.018 J0.0311
G2 X4.3134 Y0.2245 I0.018 J-0.0311
G1 F10.0 Z-0.028
G2 F15.0 X4.2595 Y0.1933 I-0.0359 J0.0
G2 Y0.2556 I0.018 J0.0311
G2 X4.3134 Y0.2245 I0.018 J-0.0311
G1 F10.0 Z-0.035
G2 F15.0 X4.2595 Y0.1933 I-0.0359 J0.0
G2 Y0.2556 I0.018 J0.0311
G2 X4.3134 Y0.2245 I0.018 J-0.0311
G1 F10.0 Z-0.042
G2 F15.0 X4.2595 Y0.1933 I-0.0359 J0.0
G2 Y0.2556 I0.018 J0.0311
G2 X4.3134 Y0.2245 I0.018 J-0.0311
G1 F10.0 Z-0.049
G2 F15.0 X4.2595 Y0.1933 I-0.0359 J0.0
G2 Y0.2556 I0.018 J0.0311
G2 X4.3134 Y0.2245 I0.018 J-0.0311
G1 F10.0 Z-0.056
G2 F15.0 X4.2595 Y0.1933 I-0.0359 J0.0
G2 Y0.2556 I0.018 J0.0311
G2 X4.3134 Y0.2245 I0.018 J-0.0311
G1 F10.0 Z-0.063
G2 F15.0 X4.2595 Y0.1933 I-0.0359 J0.0
G2 Y0.2556 I0.018 J0.0311
G2 X4.3134 Y0.2245 I0.018 J-0.0311
G1 F10.0 Z-0.07
G2 F15.0 X4.2595 Y0.1933 I-0.0359 J0.0
G2 Y0.2556 I0.018 J0.0311
G2 X4.3134 Y0.2245 I0.018 J-0.0311
G1 F10.0 Z-0.075
G2 F15.0 X4.2595 Y0.1933 I-0.0359 J0.0
G2 Y0.2556 I0.018 J0.0311
G2 X4.3134 Y0.2245 I0.018 J-0.0311
G0 Z0.125
G0 X4.8853 Y0.2244
G0 Z0.0625
G1 F10.0 Z-0.007
G2 F15.0 X4.9032 Y0.2555 I0.0359 J0.0
G2 X4.9571 Y0.2244 I0.018 J-0.0311
G2 X4.9032 Y0.1932 I-0.0359 J0.0
G2 X4.8853 Y0.2244 I0.018 J0.0311
G1 F10.0 Z-0.014
G2 F15.0 X4.9032 Y0.2555 I0.0359 J0.0
G2 X4.9571 Y0.2244 I0.018 J-0.0311
G2 X4.9032 Y0.1932 I-0.0359 J0.0
G2 X4.8853 Y0.2244 I0.018 J0.0311
G1 F10.0 Z-0.021
G2 F15.0 X4.9032 Y0.2555 I0.0359 J0.0
G2 X4.9571 Y0.2244 I0.018 J-0.0311
G2 X4.9032 Y0.1932 I-0.0359 J0.0
G2 X4.8853 Y0.2244 I0.018 J0.0311
G1 F10.0 Z-0.028
G2 F15.0 X4.9032 Y0.2555 I0.0359 J0.0
G2 X4.9571 Y0.2244 I0.018 J-0.0311
G2 X4.9032 Y0.1932 I-0.0359 J0.0
G2 X4.8853 Y0.2244 I0.018 J0.0311
G1 F10.0 Z-0.035
G2 F15.0 X4.9032 Y0.2555 I0.0359 J0.0
G2 X4.9571 Y0.2244 I0.018 J-0.0311
G2 X4.9032 Y0.1932 I-0.0359 J0.0
G2 X4.8853 Y0.2244 I0.018 J0.0311
G1 F10.0 Z-0.042
G2 F15.0 X4.9032 Y0.2555 I0.0359 J0.0
G2 X4.9571 Y0.2244 I0.018 J-0.0311
G2 X4.9032 Y0.1932 I-0.0359 J0.0
G2 X4.8853 Y0.2244 I0.018 J0.0311
G1 F10.0 Z-0.049
G2 F15.0 X4.9032 Y0.2555 I0.0359 J0.0
G2 X4.9571 Y0.2244 I0.018 J-0.0311
G2 X4.9032 Y0.1932 I-0.0359 J0.0
G2 X4.8853 Y0.2244 I0.018 J0.0311
G1 F10.0 Z-0.056
G2 F15.0 X4.9032 Y0.2555 I0.0359 J0.0
G2 X4.9571 Y0.2244 I0.018 J-0.0311
G2 X4.9032 Y0.1932 I-0.0359 J0.0
G2 X4.8853 Y0.2244 I0.018 J0.0311
G1 F10.0 Z-0.063
G2 F15.0 X4.9032 Y0.2555 I0.0359 J0.0
G2 X4.9571 Y0.2244 I0.018 J-0.0311
G2 X4.9032 Y0.1932 I-0.0359 J0.0
G2 X4.8853 Y0.2244 I0.018 J0.0311
G1 F10.0 Z-0.07
G2 F15.0 X4.9032 Y0.2555 I0.0359 J0.0
G2 X4.9571 Y0.2244 I0.018 J-0.0311
G2 X4.9032 Y0.1932 I-0.0359 J0.0
G2 X4.8853 Y0.2244 I0.018 J0.0311
G1 F10.0 Z-0.075
G2 F15.0 X4.9032 Y0.2555 I0.0359 J0.0
G2 X4.9571 Y0.2244 I0.018 J-0.0311
G2 X4.9032 Y0.1932 I-0.0359 J0.0
G2 X4.8853 Y0.2244 I0.018 J0.0311
G0 Z0.125
G0 X2.8589 Y0.363
G0 Z0.0625
G1 F10.0 Z-0.007
G1 F15.0 X2.0726 Y0.8504
G1 X2.8589 Y1.3384
G1 Y0.363
G1 F10.0 Z-0.014
G1 F15.0 X2.0726 Y0.8504
G1 X2.8589 Y1.3384
G1 Y0.363
G1 F10.0 Z-0.021
G1 F15.0 X2.0726 Y0.8504
G1 X2.8589 Y1.3384
G1 Y0.363
G1 F10.0 Z-0.028
G1 F15.0 X2.0726 Y0.8504
G1 X2.8589 Y1.3384
G1 Y0.363
G1 F10.0 Z-0.035
G1 F15.0 X2.0726 Y0.8504
G1 X2.8589 Y1.3384
G1 Y0.363
G1 F10.0 Z-0.042
G1 F15.0 X2.0726 Y0.8504
G1 X2.8589 Y1.3384
G1 Y0.363
G1 F10.0 Z-0.049
G1 F15.0 X2.0726 Y0.8504
G1 X2.8589 Y1.3384
G1 Y0.363
G1 F10.0 Z-0.056
G1 F15.0 X2.0726 Y0.8504
G1 X2.8589 Y1.3384
G1 Y0.363
G1 F10.0 Z-0.063
G1 F15.0 X2.0726 Y0.8504
G1 X2.8589 Y1.3384
G1 Y0.363
G1 F10.0 Z-0.07
G1 F15.0 X2.0726 Y0.8504
G1 X2.8589 Y1.3384
G1 Y0.363
G1 F10.0 Z-0.075
G1 F15.0 X2.0726 Y0.8504
G1 X2.8589 Y1.3384
G1 Y0.363
G0 Z0.125
G0 X2.1802 Y0.3132
G0 Z0.0625
G1 F10.0 Z-0.007
G1 F15.0 X1.5401
G1 X1.8603 Y0.5254
G1 X2.1802 Y0.3132
G1 F10.0 Z-0.014
G1 F15.0 X1.5401
G1 X1.8603 Y0.5254
G1 X2.1802 Y0.3132
G1 F10.0 Z-0.021
G1 F15.0 X1.5401
G1 X1.8603 Y0.5254
G1 X2.1802 Y0.3132
G1 F10.0 Z-0.028
G1 F15.0 X1.5401
G1 X1.8603 Y0.5254
G1 X2.1802 Y0.3132
G1 F10.0 Z-0.035
G1 F15.0 X1.5401
G1 X1.8603 Y0.5254
G1 X2.1802 Y0.3132
G1 F10.0 Z-0.042
G1 F15.0 X1.5401
G1 X1.8603 Y0.5254
G1 X2.1802 Y0.3132
G1 F10.0 Z-0.049
G1 F15.0 X1.5401
G1 X1.8603 Y0.5254
G1 X2.1802 Y0.3132
G1 F10.0 Z-0.056
G1 F15.0 X1.5401
G1 X1.8603 Y0.5254
G1 X2.1802 Y0.3132
G1 F10.0 Z-0.063
G1 F15.0 X1.5401
G1 X1.8603 Y0.5254
G1 X2.1802 Y0.3132
G1 F10.0 Z-0.07
G1 F15.0 X1.5401
G1 X1.8603 Y0.5254
G1 X2.1802 Y0.3132
G1 F10.0 Z-0.075
G1 F15.0 X1.5401
G1 X1.8603 Y0.5254
G1 X2.1802 Y0.3132
G0 Z0.125
G0 X1.6535 Y0.8504
G0 Z0.0625
G1 F10.0 Z-0.007
G1 F15.0 X0.9242 Y0.3671
G1 Y1.3342
G1 X1.6535 Y0.8504
G1 F10.0 Z-0.014
G1 F15.0 X0.9242 Y0.3671
G1 Y1.3342
G1 X1.6535 Y0.8504
G1 F10.0 Z-0.021
G1 F15.0 X0.9242 Y0.3671
G1 Y1.3342
G1 X1.6535 Y0.8504
G1 F10.0 Z-0.028
G1 F15.0 X0.9242 Y0.3671
G1 Y1.3342
G1 X1.6535 Y0.8504
G1 F10.0 Z-0.035
G1 F15.0 X0.9242 Y0.3671
G1 Y1.3342
G1 X1.6535 Y0.8504
G1 F10.0 Z-0.042
G1 F15.0 X0.9242 Y0.3671
G1 Y1.3342
G1 X1.6535 Y0.8504
G1 F10.0 Z-0.049
G1 F15.0 X0.9242 Y0.3671
G1 Y1.3342
G1 X1.6535 Y0.8504
G1 F10.0 Z-0.056
G1 F15.0 X0.9242 Y0.3671
G1 Y1.3342
G1 X1.6535 Y0.8504
G1 F10.0 Z-0.063
G1 F15.0 X0.9242 Y0.3671
G1 Y1.3342
G1 X1.6535 Y0.8504
G1 F10.0 Z-0.07
G1 F15.0 X0.9242 Y0.3671
G1 Y1.3342
G1 X1.6535 Y0.8504
G1 F10.0 Z-0.075
G1 F15.0 X0.9242 Y0.3671
G1 Y1.3342
G1 X1.6535 Y0.8504
G0 Z0.125
G0 X1.8614 Y1.1747
G0 Z0.0625
G1 F10.0 Z-0.007
G1 F15.0 X1.5396 Y1.3882
G1 X2.2056
G1 X1.8614 Y1.1747
G1 F10.0 Z-0.014
G1 F15.0 X1.5396 Y1.3882
G1 X2.2056
G1 X1.8614 Y1.1747
G1 F10.0 Z-0.021
G1 F15.0 X1.5396 Y1.3882
G1 X2.2056
G1 X1.8614 Y1.1747
G1 F10.0 Z-0.028
G1 F15.0 X1.5396 Y1.3882
G1 X2.2056
G1 X1.8614 Y1.1747
G1 F10.0 Z-0.035
G1 F15.0 X1.5396 Y1.3882
G1 X2.2056
G1 X1.8614 Y1.1747
G1 F10.0 Z-0.042
G1 F15.0 X1.5396 Y1.3882
G1 X2.2056
G1 X1.8614 Y1.1747
G1 F10.0 Z-0.049
G1 F15.0 X1.5396 Y1.3882
G1 X2.2056
G1 X1.8614 Y1.1747
G1 F10.0 Z-0.056
G1 F15.0 X1.5396 Y1.3882
G1 X2.2056
G1 X1.8614 Y1.1747
G1 F10.0 Z-0.063
G1 F15.0 X1.5396 Y1.3882
G1 X2.2056
G1 X1.8614 Y1.1747
G1 F10.0 Z-0.07
G1 F15.0 X1.5396 Y1.3882
G1 X2.2056
G1 X1.8614 Y1.1747
G1 F10.0 Z-0.075
G1 F15.0 X1.5396 Y1.3882
G1 X2.2056
G1 X1.8614 Y1.1747
G0 Z0.125
G0 X0.2442 Y1.3578
G0 Z0.0625
G1 F10.0 Z-0.007
G2 F15.0 X0.1905 Y1.3307 I-0.0357 J0.004
G2 Y1.393 I0.018 J0.0311
G2 X0.2444 Y1.3618 I0.018 J-0.0311
G2 X0.2442 Y1.3578 I-0.0359 J0.0
G1 F10.0 Z-0.014
G2 F15.0 X0.1905 Y1.3307 I-0.0357 J0.004
G2 Y1.393 I0.018 J0.0311
G2 X0.2444 Y1.3618 I0.018 J-0.0311
G2 X0.2442 Y1.3578 I-0.0359 J0.0
G1 F10.0 Z-0.021
G2 F15.0 X0.1905 Y1.3307 I-0.0357 J0.004
G2 Y1.393 I0.018 J0.0311
G2 X0.2444 Y1.3618 I0.018 J-0.0311
G2 X0.2442 Y1.3578 I-0.0359 J0.0
G1 F10.0 Z-0.028
G2 F15.0 X0.1905 Y1.3307 I-0.0357 J0.004
G2 Y1.393 I0.018 J0.0311
G2 X0.2444 Y1.3618 I0.018 J-0.0311
G2 X0.2442 Y1.3578 I-0.0359 J0.0
G1 F10.0 Z-0.035
G2 F15.0 X0.1905 Y1.3307 I-0.0357 J0.004
G2 Y1.393 I0.018 J0.0311
G2 X0.2444 Y1.3618 I0.018 J-0.0311
G2 X0.2442 Y1.3578 I-0.0359 J0.0
G1 F10.0 Z-0.042
G2 F15.0 X0.1905 Y1.3307 I-0.0357 J0.004
G2 Y1.393 I0.018 J0.0311
G2 X0.2444 Y1.3618 I0.018 J-0.0311
G2 X0.2442 Y1.3578 I-0.0359 J0.0
G1 F10.0 Z-0.049
G2 F15.0 X0.1905 Y1.3307 I-0.0357 J0.004
G2 Y1.393 I0.018 J0.0311
G2 X0.2444 Y1.3618 I0.018 J-0.0311
G2 X0.2442 Y1.3578 I-0.0359 J0.0
G1 F10.0 Z-0.056
G2 F15.0 X0.1905 Y1.3307 I-0.0357 J0.004
G2 Y1.393 I0.018 J0.0311
G2 X0.2444 Y1.3618 I0.018 J-0.0311
G2 X0.2442 Y1.3578 I-0.0359 J0.0
G1 F10.0 Z-0.063
G2 F15.0 X0.1905 Y1.3307 I-0.0357 J0.004
G2 Y1.393 I0.018 J0.0311
G2 X0.2444 Y1.3618 I0.018 J-0.0311
G2 X0.2442 Y1.3578 I-0.0359 J0.0
G1 F10.0 Z-0.07
G2 F15.0 X0.1905 Y1.3307 I-0.0357 J0.004
G2 Y1.393 I0.018 J0.0311
G2 X0.2444 Y1.3618 I0.018 J-0.0311
G2 X0.2442 Y1.3578 I-0.0359 J0.0
G1 F10.0 Z-0.075
G2 F15.0 X0.1905 Y1.3307 I-0.0357 J0.004
G2 Y1.393 I0.018 J0.0311
G2 X0.2444 Y1.3618 I0.018 J-0.0311
G2 X0.2442 Y1.3578 I-0.0359 J0.0
G0 Z0.125
G0 X0.2099 Y0.3741
G0 Z0.0625
G1 F10.0 Z-0.007
G2 F15.0 X0.2445 Y0.3382 I-0.0013 J-0.0359
G2 X0.1906 Y0.3071 I-0.0359 J0.0
G2 Y0.3693 I0.018 J0.0311
G2 X0.2099 Y0.3741 I0.018 J-0.0311
G1 F10.0 Z-0.014
G2 F15.0 X0.2445 Y0.3382 I-0.0013 J-0.0359
G2 X0.1906 Y0.3071 I-0.0359 J0.0
G2 Y0.3693 I0.018 J0.0311
G2 X0.2099 Y0.3741 I0.018 J-0.0311
G1 F10.0 Z-0.021
G2 F15.0 X0.2445 Y0.3382 I-0.0013 J-0.0359
G2 X0.1906 Y0.3071 I-0.0359 J0.0
G2 Y0.3693 I0.018 J0.0311
G2 X0.2099 Y0.3741 I0.018 J-0.0311
G1 F10.0 Z-0.028
G2 F15.0 X0.2445 Y0.3382 I-0.0013 J-0.0359
G2 X0.1906 Y0.3071 I-0.0359 J0.0
G2 Y0.3693 I0.018 J0.0311
G2 X0.2099 Y0.3741 I0.018 J-0.0311
G1 F10.0 Z-0.035
G2 F15.0 X0.2445 Y0.3382 I-0.0013 J-0.0359
G2 X0.1906 Y0.3071 I-0.0359 J0.0
G2 Y0.3693 I0.018 J0.0311
G2 X0.2099 Y0.3741 I0.018 J-0.0311
G1 F10.0 Z-0.042
G2 F15.0 X0.2445 Y0.3382 I-0.0013 J-0.0359
G2 X0.1906 Y0.3071 I-0.0359 J0.0
G2 Y0.3693 I0.018 J0.0311
G2 X0.2099 Y0.3741 I0.018 J-0.0311
G1 F10.0 Z-0.049
G2 F15.0 X0.2445 Y0.3382 I-0.0013 J-0.0359
G2 X0.1906 Y0.3071 I-0.0359 J0.0
G2 Y0.3693 I0.018 J0.0311
G2 X0.2099 Y0.3741 I0.018 J-0.0311
G1 F10.0 Z-0.056
G2 F15.0 X0.2445 Y0.3382 I-0.0013 J-0.0359
G2 X0.1906 Y0.3071 I-0.0359 J0.0
G2 Y0.3693 I0.018 J0.0311
G2 X0.2099 Y0.3741 I0.018 J-0.0311
G1 F10.0 Z-0.063
G2 F15.0 X0.2445 Y0.3382 I-0.0013 J-0.0359
G2 X0.1906 Y0.3071 I-0.0359 J0.0
G2 Y0.3693 I0.018 J0.0311
G2 X0.2099 Y0.3741 I0.018 J-0.0311
G1 F10.0 Z-0.07
G2 F15.0 X0.2445 Y0.3382 I-0.0013 J-0.0359
G2 X0.1906 Y0.3071 I-0.0359 J0.0
G2 Y0.3693 I0.018 J0.0311
G2 X0.2099 Y0.3741 I0.018 J-0.0311
G1 F10.0 Z-0.075
G2 F15.0 X0.2445 Y0.3382 I-0.0013 J-0.0359
G2 X0.1906 Y0.3071 I-0.0359 J0.0
G2 Y0.3693 I0.018 J0.0311
G2 X0.2099 Y0.3741 I0.018 J-0.0311
( outline )
S1000
G0 Z0.125
G0 X5.8116 Y0.6573
G0 Z0.0625
G1 F10.0 Z-0.007
G3 F15.0 X5.9987 Y0.8456 I-0.0012 J0.1883
G1 Y2.158
G3 X5.9362 Y2.2205 I-0.0625 J0.0
G1 X4.2691
G3 X4.2066 Y2.158 I0.0 J-0.0625
G1 Y1.7295
G1 X3.9945 Y1.058
G3 X3.9916 Y1.0391 I0.0596 J-0.0188
G1 Y0.0009
G3 X4.0541 Y-0.0616 I0.0625 J0.0
G1 X5.1446
G3 X5.2071 Y0.0009 I0.0 J0.0625
G1 Y0.5
G3 X5.1777 Y0.5531 I-0.0625 J0.0
G1 X5.0104 Y0.6573
G1 X5.8104
G3 X5.8106 I0.0 J0.0625
G1 X5.8114
G3 X5.8116 I-0.0002 J0.0625
G1 F10.0 Z-0.014
G3 F15.0 X5.9987 Y0.8456 I-0.0012 J0.1883
G1 Y2.158
G3 X5.9362 Y2.2205 I-0.0625 J0.0
G1 X4.2691
G3 X4.2066 Y2.158 I0.0 J-0.0625
G1 Y1.7295
G1 X3.9945 Y1.058
G3 X3.9916 Y1.0391 I0.0596 J-0.0188
G1 Y0.0009
G3 X4.0541 Y-0.0616 I0.0625 J0.0
G1 X5.1446
G3 X5.2071 Y0.0009 I0.0 J0.0625
G1 Y0.5
G3 X5.1777 Y0.5531 I-0.0625 J0.0
G1 X5.0104 Y0.6573
G1 X5.8104
G3 X5.8106 I0.0 J0.0625
G1 X5.8114
G3 X5.8116 I-0.0002 J0.0625
G1 F10.0 Z-0.021
G3 F15.0 X5.9987 Y0.8456 I-0.0012 J0.1883
G1 Y2.158
G3 X5.9362 Y2.2205 I-0.0625 J0.0
G1 X4.2691
G3 X4.2066 Y2.158 I0.0 J-0.0625
G1 Y1.7295
G1 X3.9945 Y1.058
G3 X3.9916 Y1.0391 I0.0596 J-0.0188
G1 Y0.0009
G3 X4.0541 Y-0.0616 I0.0625 J0.0
G1 X5.1446
G3 X5.2071 Y0.0009 I0.0 J0.0625
G1 Y0.5
G3 X5.1777 Y0.5531 I-0.0625 J0.0
G1 X5.0104 Y0.6573
G1 X5.8104
G3 X5.8106 I0.0 J0.0625
G1 X5.8114
G3 X5.8116 I-0.0002 J0.0625
G1 F10.0 Z-0.028
G3 F15.0 X5.9987 Y0.8456 I-0.0012 J0.1883
G1 Y2.158
G3 X5.9362 Y2.2205 I-0.0625 J0.0
G1 X4.2691
G3 X4.2066 Y2.158 I0.0 J-0.0625
G1 Y1.7295
G1 X3.9945 Y1.058
G3 X3.9916 Y1.0391 I0.0596 J-0.0188
G1 Y0.0009
G3 X4.0541 Y-0.0616 I0.0625 J0.0
G1 X5.1446
G3 X5.2071 Y0.0009 I0.0 J0.0625
G1 Y0.5
G3 X5.1777 Y0.5531 I-0.0625 J0.0
G1 X5.0104 Y0.6573
G1 X5.8104
G3 X5.8106 I0.0 J0.0625
G1 X5.8114
G3 X5.8116 I-0.0002 J0.0625
G1 F10.0 Z-0.035
G3 F15.0 X5.9987 Y0.8456 I-0.0012 J0.1883
G1 Y2.158
G3 X5.9362 Y2.2205 I-0.0625 J0.0
G1 X4.2691
G3 X4.2066 Y2.158 I0.0 J-0.0625
G1 Y1.7295
G1 X3.9945 Y1.058
G3 X3.9916 Y1.0391 I0.0596 J-0.0188
G1 Y0.0009
G3 X4.0541 Y-0.0616 I0.0625 J0.0
G1 X5.1446
G3 X5.2071 Y0.0009 I0.0 J0.0625
G1 Y0.5
G3 X5.1777 Y0.5531 I-0.0625 J0.0
G1 X5.0104 Y0.6573
G1 X5.8104
G3 X5.8106 I0.0 J0.0625
G1 X5.8114
G3 X5.8116 I-0.0002 J0.0625
G1 F10.0 Z-0.042
G3 F15.0 X5.9987 Y0.8456 I-0.0012 J0.1883
G1 Y2.158
G3 X5.9362 Y2.2205 I-0.0625 J0.0
G1 X4.2691
G3 X4.2066 Y2.158 I0.0 J-0.0625
G1 Y1.7295
G1 X3.9945 Y1.058
G3 X3.9916 Y1.0391 I0.0596 J-0.0188
G1 Y0.0009
G3 X4.0541 Y-0.0616 I0.0625 J0.0
G1 X5.1446
G3 X5.2071 Y0.0009 I0.0 J0.0625
G1 Y0.5
G3 X5.1777 Y0.5531 I-0.0625 J0.0
G1 X5.0104 Y0.6573
G1 X5.8104
G3 X5.8106 I0.0 J0.0625
G1 X5.8114
G3 X5.8116 I-0.0002 J0.0625
G1 F10.0 Z-0.049
G3 F15.0 X5.9987 Y0.8456 I-0.0012 J0.1883
G1 Y2.158
G3 X5.9362 Y2.2205 I-0.0625 J0.0
G1 X4.2691
G3 X4.2066 Y2.158 I0.0 J-0.0625
G1 Y1.7295
G1 X3.9945 Y1.058
G3 X3.9916 Y1.0391 I0.0596 J-0.0188
G1 Y0.0009
G3 X4.0541 Y-0.0616 I0.0625 J0.0
G1 X5.1446
G3 X5.2071 Y0.0009 I0.0 J0.0625
G1 Y0.5
G3 X5.1777 Y0.5531 I-0.0625 J0.0
G1 X5.0104 Y0.6573
G1 X5.8104
G3 X5.8106 I0.0 J0.0625
G1 X5.8114
G3 X5.8116 I-0.0002 J0.0625
G1 F10.0 Z-0.056
G3 F15.0 X5.9987 Y0.8456 I-0.0012 J0.1883
G1 Y2.158
G3 X5.9362 Y2.2205 I-0.0625 J0.0
G1 X4.2691
G3 X4.2066 Y2.158 I0.0 J-0.0625
G1 Y1.7295
G1 X3.9945 Y1.058
G3 X3.9916 Y1.0391 I0.0596 J-0.0188
G1 Y0.0009
G3 X4.0541 Y-0.0616 I0.0625 J0.0
G1 X5.1446
G3 X5.2071 Y0.0009 I0.0 J0.0625
G1 Y0.5
G3 X5.1777 Y0.5531 I-0.0625 J0.0
G1 X5.0104 Y0.6573
G1 X5.8104
G3 X5.8106 I0.0 J0.0625
G1 X5.8114
G3 X5.8116 I-0.0002 J0.0625
G1 F10.0 Z-0.063
G3 F15.0 X5.9987 Y0.8456 I-0.0012 J0.1883
G1 Y2.158
G3 X5.9362 Y2.2205 I-0.0625 J0.0
G1 X4.2691
G3 X4.2066 Y2.158 I0.0 J-0.0625
G1 Y1.7295
G1 X3.9945 Y1.058
G3 X3.9916 Y1.0391 I0.0596 J-0.0188
G1 Y0.0009
G3 X4.0541 Y-0.0616 I0.0625 J0.0
G1 X5.1446
G3 X5.2071 Y0.0009 I0.0 J0.0625
G1 Y0.5
G3 X5.1777 Y0.5531 I-0.0625 J0.0
G1 X5.0104 Y0.6573
G1 X5.8104
G3 X5.8106 I0.0 J0.0625
G1 X5.8114
G3 X5.8116 I-0.0002 J0.0625
G1 F10.0 Z-0.07
G3 F15.0 X5.9987 Y0.8456 I-0.0012 J0.1883
G1 Y2.158
G3 X5.9362 Y2.2205 I-0.0625 J0.0
G1 X4.2691
G3 X4.2066 Y2.158 I0.0 J-0.0625
G1 Y1.7295
G1 X3.9945 Y1.058
G3 X3.9916 Y1.0391 I0.0596 J-0.0188
G1 Y0.0009
G3 X4.0541 Y-0.0616 I0.0625 J0.0
G1 X5.1446
G3 X5.2071 Y0.0009 I0.0 J0.0625
G1 Y0.5
G3 X5.1777 Y0.5531 I-0.0625 J0.0
G1 X5.0104 Y0.6573
G1 X5.8104
G3 X5.8106 I0.0 J0.0625
G1 X5.8114
G3 X5.8116 I-0.0002 J0.0625
G1 F10.0 Z-0.075
G3 F15.0 X5.9987 Y0.8456 I-0.0012 J0.1883
G1 Y2.158
G3 X5.9362 Y2.2205 I-0.0625 J0.0
G1 X4.2691
G3 X4.2066 Y2.158 I0.0 J-0.0625
G1 Y1.7295
G1 X3.9945 Y1.058
G3 X3.9916 Y1.0391 I0.0596 J-0.0188
G1 Y0.0009
G3 X4.0541 Y-0.0616 I0.0625 J0.0
G1 X5.1446
G3 X5.2071 Y0.0009 I0.0 J0.0625
G1 Y0.5
G3 X5.1777 Y0.5531 I-0.0625 J0.0
G1 X5.0104 Y0.6573
G1 X5.8104
G3 X5.8106 I0.0 J0.0625
G1 X5.8114
G3 X5.8116 I-0.0002 J0.0625
G0 Z0.125
G0 X3.8664 Y0.6568
G0 Z0.0625
G1 F10.0 Z-0.007
G1 F15.0 X3.8661 Y1.7009
G3 X3.8036 Y1.7634 I-0.0625 J0.0
G1 X-0.0002 Y1.7625
G3 X-0.0627 Y1.7 I0.0 J-0.0625
G1 X-0.0625 Y0.0
G3 X0.0 Y-0.0625 I0.0625 J0.0
G1 X3.8041 Y-0.0616
G3 X3.8666 Y0.0009 I0.0 J0.0625
G1 X3.8664 Y0.6568
G1 F10.0 Z-0.014
G1 F15.0 X3.8661 Y1.7009
G3 X3.8036 Y1.7634 I-0.0625 J0.0
G1 X-0.0002 Y1.7625
G3 X-0.0627 Y1.7 I0.0 J-0.0625
G1 X-0.0625 Y0.0
G3 X0.0 Y-0.0625 I0.0625 J0.0
G1 X3.8041 Y-0.0616
G3 X3.8666 Y0.0009 I0.0 J0.0625
G1 X3.8664 Y0.6568
G1 F10.0 Z-0.021
G1 F15.0 X3.8661 Y1.7009
G3 X3.8036 Y1.7634 I-0.0625 J0.0
G1 X-0.0002 Y1.7625
G3 X-0.0627 Y1.7 I0.0 J-0.0625
G1 X-0.0625 Y0.0
G3 X0.0 Y-0.0625 I0.0625 J0.0
G1 X3.8041 Y-0.0616
G3 X3.8666 Y0.0009 I0.0 J0.0625
G1 X3.8664 Y0.6568
G1 F10.0 Z-0.028
G1 F15.0 X3.8661 Y1.7009
G3 X3.8036 Y1.7634 I-0.0625 J0.0
G1 X-0.0002 Y1.7625
G3 X-0.0627 Y1.7 I0.0 J-0.0625
G1 X-0.0625 Y0.0
G3 X0.0 Y-0.0625 I0.0625 J0.0
G1 X3.8041 Y-0.0616
G3 X3.8666 Y0.0009 I0.0 J0.0625
G1 X3.8664 Y0.6568
G1 F10.0 Z-0.035
G1 F15.0 X3.8661 Y1.7009
G3 X3.8036 Y1.7634 I-0.0625 J0.0
G1 X-0.0002 Y1.7625
G3 X-0.0627 Y1.7 I0.0 J-0.0625
G1 X-0.0625 Y0.0
G3 X0.0 Y-0.0625 I0.0625 J0.0
G1 X3.8041 Y-0.0616
G3 X3.8666 Y0.0009 I0.0 J0.0625
G1 X3.8664 Y0.6568
G1 F10.0 Z-0.042
G1 F15.0 X3.8661 Y1.7009
G3 X3.8036 Y1.7634 I-0.0625 J0.0
G1 X-0.0002 Y1.7625
G3 X-0.0627 Y1.7 I0.0 J-0.0625
G1 X-0.0625 Y0.0
G3 X0.0 Y-0.0625 I0.0625 J0.0
G1 X3.8041 Y-0.0616
G3 X3.8666 Y0.0009 I0.0 J0.0625
G1 X3.8664 Y0.6568
G1 F10.0 Z-0.049
G1 F15.0 X3.8661 Y1.7009
G3 X3.8036 Y1.7634 I-0.0625 J0.0
G1 X-0.0002 Y1.7625
G3 X-0.0627 Y1.7 I0.0 J-0.0625
G1 X-0.0625 Y0.0
G3 X0.0 Y-0.0625 I0.0625 J0.0
G1 X3.8041 Y-0.0616
G3 X3.8666 Y0.0009 I0.0 J0.0625
G1 X3.8664 Y0.6568
G1 F10.0 Z-0.056
G1 F15.0 X3.8661 Y1.7009
G3 X3.8036 Y1.7634 I-0.0625 J0.0
G1 X-0.0002 Y1.7625
G3 X-0.0627 Y1.7 I0.0 J-0.0625
G1 X-0.0625 Y0.0
G3 X0.0 Y-0.0625 I0.0625 J0.0
G1 X3.8041 Y-0.0616
G3 X3.8666 Y0.0009 I0.0 J0.0625
G1 X3.8664 Y0.6568
G1 F10.0 Z-0.063
G1 F15.0 X3.8661 Y1.7009
G3 X3.8036 Y1.7634 I-0.0625 J0.0
G1 X-0.0002 Y1.7625
G3 X-0.0627 Y1.7 I0.0 J-0.0625
G1 X-0.0625 Y0.0
G3 X0.0 Y-0.0625 I0.0625 J0.0
G1 X3.8041 Y-0.0616
G3 X3.8666 Y0.0009 I0.0 J0.0625
G1 X3.8664 Y0.6568
G1 F10.0 Z-0.07
G1 F15.0 X3.8661 Y1.7009
G3 X3.8036 Y1.7634 I-0.0625 J0.0
G1 X-0.0002 Y1.7625
G3 X-0.0627 Y1.7 I0.0 J-0.0625
G1 X-0.0625 Y0.0
G3 X0.0 Y-0.0625 I0.0625 J0.0
G1 X3.8041 Y-0.0616
G3 X3.8666 Y0.0009 I0.0 J0.0625
G1 X3.8664 Y0.6568
G1 F10.0 Z-0.075
G1 F15.0 X3.8661 Y1.7009
G3 X3.8036 Y1.7634 I-0.0625 J0.0
G1 X-0.0002 Y1.7625
G3 X-0.0627 Y1.7 I0.0 J-0.0625
G1 X-0.0625 Y0.0
G3 X0.0 Y-0.0625 I0.0625 J0.0
G1 X3.8041 Y-0.0616
G3 X3.8666 Y0.0009 I0.0 J0.0625
G1 X3.8664 Y0.6568
G0 Z0.125
M5
M30
