( Made using CamBam - http://www.cambam.co.uk )
( z_motor_mount 9/18/2014 1:11:57 AM )
( T0 : 0.0 )
G20 G90 G64 G40
G0 Z0.125
( T0 : 0.0 )
T0 M6
( Drill1 )
G17
M3 S1000
G0 X0.2161 Y3.4567
G98
G81 X0.2161 Y3.4567 Z-0.26 R0.125 F10.0
G81 X0.2165 Y2.2362 Z-0.26
G81 X1.4372 Y2.2352 Z-0.26
G81 Y3.4541 Z-0.26
G80
( cutout )
S1000
G0 Z0.125
G0 X0.8643 Y5.2645
G0 Z0.0625
G1 F10.0 Z-0.065
G2 F30.0 X0.808 Y5.232 I-0.0375 J0.0
G2 Y5.297 I0.0187 J0.0325
G2 X0.8643 Y5.2645 I0.0187 J-0.0325
G1 F10.0 Z-0.13
G2 F30.0 X0.808 Y5.232 I-0.0375 J0.0
G2 Y5.297 I0.0187 J0.0325
G2 X0.8643 Y5.2645 I0.0187 J-0.0325
G1 F10.0 Z-0.195
G2 F30.0 X0.808 Y5.232 I-0.0375 J0.0
G2 Y5.297 I0.0187 J0.0325
G2 X0.8643 Y5.2645 I0.0187 J-0.0325
G1 F10.0 Z-0.26
G2 F30.0 X0.808 Y5.232 I-0.0375 J0.0
G2 Y5.297 I0.0187 J0.0325
G2 X0.8643 Y5.2645 I0.0187 J-0.0325
G0 Z0.125
G0 X0.8364 Y4.75
G0 Z0.0625
G1 F10.0 Z-0.065
G2 F30.0 X1.0043 Y4.5727 I-0.0096 J-0.1772
G2 X0.738 Y4.419 I-0.1775 J0.0
G2 Y4.7265 I0.0888 J0.1537
G2 X0.8364 Y4.75 I0.0888 J-0.1537
G1 F10.0 Z-0.13
G2 F30.0 X1.0043 Y4.5727 I-0.0096 J-0.1772
G2 X0.738 Y4.419 I-0.1775 J0.0
G2 Y4.7265 I0.0888 J0.1537
G2 X0.8364 Y4.75 I0.0888 J-0.1537
G1 F10.0 Z-0.195
G2 F30.0 X1.0043 Y4.5727 I-0.0096 J-0.1772
G2 X0.738 Y4.419 I-0.1775 J0.0
G2 Y4.7265 I0.0888 J0.1537
G2 X0.8364 Y4.75 I0.0888 J-0.1537
G1 F10.0 Z-0.26
G2 F30.0 X1.0043 Y4.5727 I-0.0096 J-0.1772
G2 X0.738 Y4.419 I-0.1775 J0.0
G2 Y4.7265 I0.0888 J0.1537
G2 X0.8364 Y4.75 I0.0888 J-0.1537
G0 Z0.125
G0 X0.8272 Y3.9185
G0 Z0.0625
G1 F10.0 Z-0.065
G2 F30.0 X0.8643 Y3.881 I-0.0004 J-0.0375
G2 X0.808 Y3.8485 I-0.0375 J0.0
G2 Y3.9135 I0.0187 J0.0325
G2 X0.8272 Y3.9185 I0.0187 J-0.0325
G1 F10.0 Z-0.13
G2 F30.0 X0.8643 Y3.881 I-0.0004 J-0.0375
G2 X0.808 Y3.8485 I-0.0375 J0.0
G2 Y3.9135 I0.0187 J0.0325
G2 X0.8272 Y3.9185 I0.0187 J-0.0325
G1 F10.0 Z-0.195
G2 F30.0 X0.8643 Y3.881 I-0.0004 J-0.0375
G2 X0.808 Y3.8485 I-0.0375 J0.0
G2 Y3.9135 I0.0187 J0.0325
G2 X0.8272 Y3.9185 I0.0187 J-0.0325
G1 F10.0 Z-0.26
G2 F30.0 X0.8643 Y3.881 I-0.0004 J-0.0375
G2 X0.808 Y3.8485 I-0.0375 J0.0
G2 Y3.9135 I0.0187 J0.0325
G2 X0.8272 Y3.9185 I0.0187 J-0.0325
G0 Z0.125
G0 X0.8269 Y3.2154
G0 Z0.0625
G1 F10.0 Z-0.065
G2 F30.0 X1.1957 Y2.8465 I-0.0001 J-0.3689
G2 X0.6423 Y2.527 I-0.3689 J0.0
G2 Y3.1659 I0.1845 J0.3195
G2 X0.8269 Y3.2154 I0.1845 J-0.3195
G1 F10.0 Z-0.13
G2 F30.0 X1.1957 Y2.8465 I-0.0001 J-0.3689
G2 X0.6423 Y2.527 I-0.3689 J0.0
G2 Y3.1659 I0.1845 J0.3195
G2 X0.8269 Y3.2154 I0.1845 J-0.3195
G1 F10.0 Z-0.195
G2 F30.0 X1.1957 Y2.8465 I-0.0001 J-0.3689
G2 X0.6423 Y2.527 I-0.3689 J0.0
G2 Y3.1659 I0.1845 J0.3195
G2 X0.8269 Y3.2154 I0.1845 J-0.3195
G1 F10.0 Z-0.26
G2 F30.0 X1.1957 Y2.8465 I-0.0001 J-0.3689
G2 X0.6423 Y2.527 I-0.3689 J0.0
G2 Y3.1659 I0.1845 J0.3195
G2 X0.8269 Y3.2154 I0.1845 J-0.3195
G0 Z0.125
G0 X2.5624 Y2.9565
G0 Z0.0625
G1 F10.0 Z-0.065
G2 F30.0 X2.6075 Y3.0227 I0.0912 J-0.0136
G2 X2.7457 Y2.9429 I0.0461 J-0.0798
G2 X2.6075 Y2.8631 I-0.0922 J0.0
G2 X2.5624 Y2.9565 I0.0461 J0.0798
G1 F10.0 Z-0.13
G2 F30.0 X2.6075 Y3.0227 I0.0912 J-0.0136
G2 X2.7457 Y2.9429 I0.0461 J-0.0798
G2 X2.6075 Y2.8631 I-0.0922 J0.0
G2 X2.5624 Y2.9565 I0.0461 J0.0798
G1 F10.0 Z-0.195
G2 F30.0 X2.6075 Y3.0227 I0.0912 J-0.0136
G2 X2.7457 Y2.9429 I0.0461 J-0.0798
G2 X2.6075 Y2.8631 I-0.0922 J0.0
G2 X2.5624 Y2.9565 I0.0461 J0.0798
G1 F10.0 Z-0.26
G2 F30.0 X2.6075 Y3.0227 I0.0912 J-0.0136
G2 X2.7457 Y2.9429 I0.0461 J-0.0798
G2 X2.6075 Y2.8631 I-0.0922 J0.0
G2 X2.5624 Y2.9565 I0.0461 J0.0798
G0 Z0.125
G0 X2.6459 Y1.5383
G0 Z0.0625
G1 F10.0 Z-0.065
G2 F30.0 X2.7421 Y1.4476 I0.0053 J-0.0907
G2 X2.6058 Y1.3689 I-0.0909 J0.0
G2 Y1.5263 I0.0454 J0.0787
G2 X2.6459 Y1.5383 I0.0454 J-0.0787
G1 F10.0 Z-0.13
G2 F30.0 X2.7421 Y1.4476 I0.0053 J-0.0907
G2 X2.6058 Y1.3689 I-0.0909 J0.0
G2 Y1.5263 I0.0454 J0.0787
G2 X2.6459 Y1.5383 I0.0454 J-0.0787
G1 F10.0 Z-0.195
G2 F30.0 X2.7421 Y1.4476 I0.0053 J-0.0907
G2 X2.6058 Y1.3689 I-0.0909 J0.0
G2 Y1.5263 I0.0454 J0.0787
G2 X2.6459 Y1.5383 I0.0454 J-0.0787
G1 F10.0 Z-0.26
G2 F30.0 X2.7421 Y1.4476 I0.0053 J-0.0907
G2 X2.6058 Y1.3689 I-0.0909 J0.0
G2 Y1.5263 I0.0454 J0.0787
G2 X2.6459 Y1.5383 I0.0454 J-0.0787
G0 Z0.125
G0 X2.6529 Y0.5351
G0 Z0.0625
G1 F10.0 Z-0.065
G2 F30.0 X2.7457 Y0.4429 I0.0006 J-0.0922
G2 X2.6075 Y0.3631 I-0.0922 J0.0
G2 Y0.5227 I0.0461 J0.0798
G2 X2.6529 Y0.5351 I0.0461 J-0.0798
G1 F10.0 Z-0.13
G2 F30.0 X2.7457 Y0.4429 I0.0006 J-0.0922
G2 X2.6075 Y0.3631 I-0.0922 J0.0
G2 Y0.5227 I0.0461 J0.0798
G2 X2.6529 Y0.5351 I0.0461 J-0.0798
G1 F10.0 Z-0.195
G2 F30.0 X2.7457 Y0.4429 I0.0006 J-0.0922
G2 X2.6075 Y0.3631 I-0.0922 J0.0
G2 Y0.5227 I0.0461 J0.0798
G2 X2.6529 Y0.5351 I0.0461 J-0.0798
G1 F10.0 Z-0.26
G2 F30.0 X2.7457 Y0.4429 I0.0006 J-0.0922
G2 X2.6075 Y0.3631 I-0.0922 J0.0
G2 Y0.5227 I0.0461 J0.0798
G2 X2.6529 Y0.5351 I0.0461 J-0.0798
( outline )
S1000
G0 Z0.125
G0 X1.6535 Y1.9375
G0 Z0.0625
G1 F10.0 Z-0.065
G2 F30.0 X1.841 Y1.75 I0.0 J-0.1875
G3 Y1.7498 I0.0625 J0.0
G1 X1.8441 Y0.7499
G3 X3.466 Y0.75 I0.811 J0.0001
G1 Y3.6929
G3 X3.4035 Y3.7554 I-0.0625 J0.0
G1 X1.7516
G2 X1.5641 Y3.9429 I0.0 J0.1875
G1 Y5.1756
G3 X1.1266 Y5.6131 I-0.4375 J0.0
G1 X0.527
G3 X0.0895 Y5.1756 I0.0 J-0.4375
G1 Y3.7188
G1 X-0.0442 Y3.5851
G3 X-0.0625 Y3.5409 I0.0442 J-0.0442
G1 Y2.152
G3 X-0.0442 Y2.1078 I0.0625 J0.0
G1 X0.1078 Y1.9558
G3 X0.152 Y1.9375 I0.0442 J0.0442
G1 X1.6535
G1 F10.0 Z-0.13
G2 F30.0 X1.841 Y1.75 I0.0 J-0.1875
G3 Y1.7498 I0.0625 J0.0
G1 X1.8441 Y0.7499
G3 X3.466 Y0.75 I0.811 J0.0001
G1 Y3.6929
G3 X3.4035 Y3.7554 I-0.0625 J0.0
G1 X1.7516
G2 X1.5641 Y3.9429 I0.0 J0.1875
G1 Y5.1756
G3 X1.1266 Y5.6131 I-0.4375 J0.0
G1 X0.527
G3 X0.0895 Y5.1756 I0.0 J-0.4375
G1 Y3.7188
G1 X-0.0442 Y3.5851
G3 X-0.0625 Y3.5409 I0.0442 J-0.0442
G1 Y2.152
G3 X-0.0442 Y2.1078 I0.0625 J0.0
G1 X0.1078 Y1.9558
G3 X0.152 Y1.9375 I0.0442 J0.0442
G1 X1.6535
G1 F10.0 Z-0.195
G2 F30.0 X1.841 Y1.75 I0.0 J-0.1875
G3 Y1.7498 I0.0625 J0.0
G1 X1.8441 Y0.7499
G3 X3.466 Y0.75 I0.811 J0.0001
G1 Y3.6929
G3 X3.4035 Y3.7554 I-0.0625 J0.0
G1 X1.7516
G2 X1.5641 Y3.9429 I0.0 J0.1875
G1 Y5.1756
G3 X1.1266 Y5.6131 I-0.4375 J0.0
G1 X0.527
G3 X0.0895 Y5.1756 I0.0 J-0.4375
G1 Y3.7188
G1 X-0.0442 Y3.5851
G3 X-0.0625 Y3.5409 I0.0442 J-0.0442
G1 Y2.152
G3 X-0.0442 Y2.1078 I0.0625 J0.0
G1 X0.1078 Y1.9558
G3 X0.152 Y1.9375 I0.0442 J0.0442
G1 X1.6535
G1 F10.0 Z-0.26
G2 F30.0 X1.841 Y1.75 I0.0 J-0.1875
G3 Y1.7498 I0.0625 J0.0
G1 X1.8441 Y0.7499
G3 X3.466 Y0.75 I0.811 J0.0001
G1 Y3.6929
G3 X3.4035 Y3.7554 I-0.0625 J0.0
G1 X1.7516
G2 X1.5641 Y3.9429 I0.0 J0.1875
G1 Y5.1756
G3 X1.1266 Y5.6131 I-0.4375 J0.0
G1 X0.527
G3 X0.0895 Y5.1756 I0.0 J-0.4375
G1 Y3.7188
G1 X-0.0442 Y3.5851
G3 X-0.0625 Y3.5409 I0.0442 J-0.0442
G1 Y2.152
G3 X-0.0442 Y2.1078 I0.0625 J0.0
G1 X0.1078 Y1.9558
G3 X0.152 Y1.9375 I0.0442 J0.0442
G1 X1.6535
G0 Z0.125
M5
M30
