( Made using CamBam - http://www.cambam.co.uk )
( y_tensioner 2/11/2015 3:16:58 PM )
( T0 : 0.125 )
G20 G90 G64 G40
G0 Z0.125
( T0 : 0.125 )
T0 M6
( holes )
G17
M3 S1000
G0 X0.7775 Y0.6824
G0 Z0.0625
G1 F10.0 Z-0.01
G2 F15.0 X0.6354 Y0.6004 I-0.0948 J0.0
G2 Y0.7645 I0.0474 J0.0821
G2 X0.7775 Y0.6824 I0.0474 J-0.0821
G1 F10.0 Z-0.02
G2 F15.0 X0.6354 Y0.6004 I-0.0948 J0.0
G2 Y0.7645 I0.0474 J0.0821
G2 X0.7775 Y0.6824 I0.0474 J-0.0821
G1 F10.0 Z-0.03
G2 F15.0 X0.6354 Y0.6004 I-0.0948 J0.0
G2 Y0.7645 I0.0474 J0.0821
G2 X0.7775 Y0.6824 I0.0474 J-0.0821
G1 F10.0 Z-0.04
G2 F15.0 X0.6354 Y0.6004 I-0.0948 J0.0
G2 Y0.7645 I0.0474 J0.0821
G2 X0.7775 Y0.6824 I0.0474 J-0.0821
G1 F10.0 Z-0.05
G2 F15.0 X0.6354 Y0.6004 I-0.0948 J0.0
G2 Y0.7645 I0.0474 J0.0821
G2 X0.7775 Y0.6824 I0.0474 J-0.0821
G1 F10.0 Z-0.06
G2 F15.0 X0.6354 Y0.6004 I-0.0948 J0.0
G2 Y0.7645 I0.0474 J0.0821
G2 X0.7775 Y0.6824 I0.0474 J-0.0821
G1 F10.0 Z-0.07
G2 F15.0 X0.6354 Y0.6004 I-0.0948 J0.0
G2 Y0.7645 I0.0474 J0.0821
G2 X0.7775 Y0.6824 I0.0474 J-0.0821
G1 F10.0 Z-0.08
G2 F15.0 X0.6354 Y0.6004 I-0.0948 J0.0
G2 Y0.7645 I0.0474 J0.0821
G2 X0.7775 Y0.6824 I0.0474 J-0.0821
G1 F10.0 Z-0.09
G2 F15.0 X0.6354 Y0.6004 I-0.0948 J0.0
G2 Y0.7645 I0.0474 J0.0821
G2 X0.7775 Y0.6824 I0.0474 J-0.0821
G1 F10.0 Z-0.1
G2 F15.0 X0.6354 Y0.6004 I-0.0948 J0.0
G2 Y0.7645 I0.0474 J0.0821
G2 X0.7775 Y0.6824 I0.0474 J-0.0821
G1 F10.0 Z-0.11
G2 F15.0 X0.6354 Y0.6004 I-0.0948 J0.0
G2 Y0.7645 I0.0474 J0.0821
G2 X0.7775 Y0.6824 I0.0474 J-0.0821
G1 F10.0 Z-0.12
G2 F15.0 X0.6354 Y0.6004 I-0.0948 J0.0
G2 Y0.7645 I0.0474 J0.0821
G2 X0.7775 Y0.6824 I0.0474 J-0.0821
G1 F10.0 Z-0.13
G2 F15.0 X0.6354 Y0.6004 I-0.0948 J0.0
G2 Y0.7645 I0.0474 J0.0821
G2 X0.7775 Y0.6824 I0.0474 J-0.0821
G1 F10.0 Z-0.135
G2 F15.0 X0.6354 Y0.6004 I-0.0948 J0.0
G2 Y0.7645 I0.0474 J0.0821
G2 X0.7775 Y0.6824 I0.0474 J-0.0821
G0 Z0.125
G0 X0.5436 Y1.5694
G0 Z0.0625
G1 F10.0 Z-0.01
G2 F15.0 X0.2448 Y1.5314 I-0.2936 J1.1131
G1 X0.2422
G2 X0.2428 Y1.6244 I0.0023 J0.0465
G1 X0.2441 Y1.6243
G3 X0.6533 Y1.7042 I0.0059 J1.0581
G3 X0.6536 Y1.7043 I-0.0238 J0.0578
G1 X0.6627 Y1.7081
G3 X0.6637 Y1.7086 I-0.0241 J0.0576
G1 X0.6831 Y1.7171
G2 X0.7203 Y1.6318 I0.011 J-0.0459
G2 X0.5436 Y1.5694 I-0.4703 J1.0507
G1 F10.0 Z-0.02
G2 F15.0 X0.2448 Y1.5314 I-0.2936 J1.1131
G1 X0.2422
G2 X0.2428 Y1.6244 I0.0023 J0.0465
G1 X0.2441 Y1.6243
G3 X0.6533 Y1.7042 I0.0059 J1.0581
G3 X0.6536 Y1.7043 I-0.0238 J0.0578
G1 X0.6627 Y1.7081
G3 X0.6637 Y1.7086 I-0.0241 J0.0576
G1 X0.6831 Y1.7171
G2 X0.7203 Y1.6318 I0.011 J-0.0459
G2 X0.5436 Y1.5694 I-0.4703 J1.0507
G1 F10.0 Z-0.03
G2 F15.0 X0.2448 Y1.5314 I-0.2936 J1.1131
G1 X0.2422
G2 X0.2428 Y1.6244 I0.0023 J0.0465
G1 X0.2441 Y1.6243
G3 X0.6533 Y1.7042 I0.0059 J1.0581
G3 X0.6536 Y1.7043 I-0.0238 J0.0578
G1 X0.6627 Y1.7081
G3 X0.6637 Y1.7086 I-0.0241 J0.0576
G1 X0.6831 Y1.7171
G2 X0.7203 Y1.6318 I0.011 J-0.0459
G2 X0.5436 Y1.5694 I-0.4703 J1.0507
G1 F10.0 Z-0.04
G2 F15.0 X0.2448 Y1.5314 I-0.2936 J1.1131
G1 X0.2422
G2 X0.2428 Y1.6244 I0.0023 J0.0465
G1 X0.2441 Y1.6243
G3 X0.6533 Y1.7042 I0.0059 J1.0581
G3 X0.6536 Y1.7043 I-0.0238 J0.0578
G1 X0.6627 Y1.7081
G3 X0.6637 Y1.7086 I-0.0241 J0.0576
G1 X0.6831 Y1.7171
G2 X0.7203 Y1.6318 I0.011 J-0.0459
G2 X0.5436 Y1.5694 I-0.4703 J1.0507
G1 F10.0 Z-0.05
G2 F15.0 X0.2448 Y1.5314 I-0.2936 J1.1131
G1 X0.2422
G2 X0.2428 Y1.6244 I0.0023 J0.0465
G1 X0.2441 Y1.6243
G3 X0.6533 Y1.7042 I0.0059 J1.0581
G3 X0.6536 Y1.7043 I-0.0238 J0.0578
G1 X0.6627 Y1.7081
G3 X0.6637 Y1.7086 I-0.0241 J0.0576
G1 X0.6831 Y1.7171
G2 X0.7203 Y1.6318 I0.011 J-0.0459
G2 X0.5436 Y1.5694 I-0.4703 J1.0507
G1 F10.0 Z-0.06
G2 F15.0 X0.2448 Y1.5314 I-0.2936 J1.1131
G1 X0.2422
G2 X0.2428 Y1.6244 I0.0023 J0.0465
G1 X0.2441 Y1.6243
G3 X0.6533 Y1.7042 I0.0059 J1.0581
G3 X0.6536 Y1.7043 I-0.0238 J0.0578
G1 X0.6627 Y1.7081
G3 X0.6637 Y1.7086 I-0.0241 J0.0576
G1 X0.6831 Y1.7171
G2 X0.7203 Y1.6318 I0.011 J-0.0459
G2 X0.5436 Y1.5694 I-0.4703 J1.0507
G1 F10.0 Z-0.07
G2 F15.0 X0.2448 Y1.5314 I-0.2936 J1.1131
G1 X0.2422
G2 X0.2428 Y1.6244 I0.0023 J0.0465
G1 X0.2441 Y1.6243
G3 X0.6533 Y1.7042 I0.0059 J1.0581
G3 X0.6536 Y1.7043 I-0.0238 J0.0578
G1 X0.6627 Y1.7081
G3 X0.6637 Y1.7086 I-0.0241 J0.0576
G1 X0.6831 Y1.7171
G2 X0.7203 Y1.6318 I0.011 J-0.0459
G2 X0.5436 Y1.5694 I-0.4703 J1.0507
G1 F10.0 Z-0.08
G2 F15.0 X0.2448 Y1.5314 I-0.2936 J1.1131
G1 X0.2422
G2 X0.2428 Y1.6244 I0.0023 J0.0465
G1 X0.2441 Y1.6243
G3 X0.6533 Y1.7042 I0.0059 J1.0581
G3 X0.6536 Y1.7043 I-0.0238 J0.0578
G1 X0.6627 Y1.7081
G3 X0.6637 Y1.7086 I-0.0241 J0.0576
G1 X0.6831 Y1.7171
G2 X0.7203 Y1.6318 I0.011 J-0.0459
G2 X0.5436 Y1.5694 I-0.4703 J1.0507
G1 F10.0 Z-0.09
G2 F15.0 X0.2448 Y1.5314 I-0.2936 J1.1131
G1 X0.2422
G2 X0.2428 Y1.6244 I0.0023 J0.0465
G1 X0.2441 Y1.6243
G3 X0.6533 Y1.7042 I0.0059 J1.0581
G3 X0.6536 Y1.7043 I-0.0238 J0.0578
G1 X0.6627 Y1.7081
G3 X0.6637 Y1.7086 I-0.0241 J0.0576
G1 X0.6831 Y1.7171
G2 X0.7203 Y1.6318 I0.011 J-0.0459
G2 X0.5436 Y1.5694 I-0.4703 J1.0507
G1 F10.0 Z-0.1
G2 F15.0 X0.2448 Y1.5314 I-0.2936 J1.1131
G1 X0.2422
G2 X0.2428 Y1.6244 I0.0023 J0.0465
G1 X0.2441 Y1.6243
G3 X0.6533 Y1.7042 I0.0059 J1.0581
G3 X0.6536 Y1.7043 I-0.0238 J0.0578
G1 X0.6627 Y1.7081
G3 X0.6637 Y1.7086 I-0.0241 J0.0576
G1 X0.6831 Y1.7171
G2 X0.7203 Y1.6318 I0.011 J-0.0459
G2 X0.5436 Y1.5694 I-0.4703 J1.0507
G1 F10.0 Z-0.11
G2 F15.0 X0.2448 Y1.5314 I-0.2936 J1.1131
G1 X0.2422
G2 X0.2428 Y1.6244 I0.0023 J0.0465
G1 X0.2441 Y1.6243
G3 X0.6533 Y1.7042 I0.0059 J1.0581
G3 X0.6536 Y1.7043 I-0.0238 J0.0578
G1 X0.6627 Y1.7081
G3 X0.6637 Y1.7086 I-0.0241 J0.0576
G1 X0.6831 Y1.7171
G2 X0.7203 Y1.6318 I0.011 J-0.0459
G2 X0.5436 Y1.5694 I-0.4703 J1.0507
G1 F10.0 Z-0.12
G2 F15.0 X0.2448 Y1.5314 I-0.2936 J1.1131
G1 X0.2422
G2 X0.2428 Y1.6244 I0.0023 J0.0465
G1 X0.2441 Y1.6243
G3 X0.6533 Y1.7042 I0.0059 J1.0581
G3 X0.6536 Y1.7043 I-0.0238 J0.0578
G1 X0.6627 Y1.7081
G3 X0.6637 Y1.7086 I-0.0241 J0.0576
G1 X0.6831 Y1.7171
G2 X0.7203 Y1.6318 I0.011 J-0.0459
G2 X0.5436 Y1.5694 I-0.4703 J1.0507
G1 F10.0 Z-0.13
G2 F15.0 X0.2448 Y1.5314 I-0.2936 J1.1131
G1 X0.2422
G2 X0.2428 Y1.6244 I0.0023 J0.0465
G1 X0.2441 Y1.6243
G3 X0.6533 Y1.7042 I0.0059 J1.0581
G3 X0.6536 Y1.7043 I-0.0238 J0.0578
G1 X0.6627 Y1.7081
G3 X0.6637 Y1.7086 I-0.0241 J0.0576
G1 X0.6831 Y1.7171
G2 X0.7203 Y1.6318 I0.011 J-0.0459
G2 X0.5436 Y1.5694 I-0.4703 J1.0507
G1 F10.0 Z-0.135
G2 F15.0 X0.2448 Y1.5314 I-0.2936 J1.1131
G1 X0.2422
G2 X0.2428 Y1.6244 I0.0023 J0.0465
G1 X0.2441 Y1.6243
G3 X0.6533 Y1.7042 I0.0059 J1.0581
G3 X0.6536 Y1.7043 I-0.0238 J0.0578
G1 X0.6627 Y1.7081
G3 X0.6637 Y1.7086 I-0.0241 J0.0576
G1 X0.6831 Y1.7171
G2 X0.7203 Y1.6318 I0.011 J-0.0459
G2 X0.5436 Y1.5694 I-0.4703 J1.0507
G0 Z0.125
G0 X1.372 Y2.0457
G0 Z0.0625
G1 F10.0 Z-0.01
G2 F15.0 X1.3891 Y2.1091 I0.0403 J0.0232
G2 X1.4588 Y2.0689 I0.0232 J-0.0403
G2 X1.3891 Y2.0286 I-0.0465 J0.0
G2 X1.372 Y2.0457 I0.0232 J0.0403
G1 F10.0 Z-0.02
G2 F15.0 X1.3891 Y2.1091 I0.0403 J0.0232
G2 X1.4588 Y2.0689 I0.0232 J-0.0403
G2 X1.3891 Y2.0286 I-0.0465 J0.0
G2 X1.372 Y2.0457 I0.0232 J0.0403
G1 F10.0 Z-0.03
G2 F15.0 X1.3891 Y2.1091 I0.0403 J0.0232
G2 X1.4588 Y2.0689 I0.0232 J-0.0403
G2 X1.3891 Y2.0286 I-0.0465 J0.0
G2 X1.372 Y2.0457 I0.0232 J0.0403
G1 F10.0 Z-0.04
G2 F15.0 X1.3891 Y2.1091 I0.0403 J0.0232
G2 X1.4588 Y2.0689 I0.0232 J-0.0403
G2 X1.3891 Y2.0286 I-0.0465 J0.0
G2 X1.372 Y2.0457 I0.0232 J0.0403
G1 F10.0 Z-0.05
G2 F15.0 X1.3891 Y2.1091 I0.0403 J0.0232
G2 X1.4588 Y2.0689 I0.0232 J-0.0403
G2 X1.3891 Y2.0286 I-0.0465 J0.0
G2 X1.372 Y2.0457 I0.0232 J0.0403
G1 F10.0 Z-0.06
G2 F15.0 X1.3891 Y2.1091 I0.0403 J0.0232
G2 X1.4588 Y2.0689 I0.0232 J-0.0403
G2 X1.3891 Y2.0286 I-0.0465 J0.0
G2 X1.372 Y2.0457 I0.0232 J0.0403
G1 F10.0 Z-0.07
G2 F15.0 X1.3891 Y2.1091 I0.0403 J0.0232
G2 X1.4588 Y2.0689 I0.0232 J-0.0403
G2 X1.3891 Y2.0286 I-0.0465 J0.0
G2 X1.372 Y2.0457 I0.0232 J0.0403
G1 F10.0 Z-0.08
G2 F15.0 X1.3891 Y2.1091 I0.0403 J0.0232
G2 X1.4588 Y2.0689 I0.0232 J-0.0403
G2 X1.3891 Y2.0286 I-0.0465 J0.0
G2 X1.372 Y2.0457 I0.0232 J0.0403
G1 F10.0 Z-0.09
G2 F15.0 X1.3891 Y2.1091 I0.0403 J0.0232
G2 X1.4588 Y2.0689 I0.0232 J-0.0403
G2 X1.3891 Y2.0286 I-0.0465 J0.0
G2 X1.372 Y2.0457 I0.0232 J0.0403
G1 F10.0 Z-0.1
G2 F15.0 X1.3891 Y2.1091 I0.0403 J0.0232
G2 X1.4588 Y2.0689 I0.0232 J-0.0403
G2 X1.3891 Y2.0286 I-0.0465 J0.0
G2 X1.372 Y2.0457 I0.0232 J0.0403
G1 F10.0 Z-0.11
G2 F15.0 X1.3891 Y2.1091 I0.0403 J0.0232
G2 X1.4588 Y2.0689 I0.0232 J-0.0403
G2 X1.3891 Y2.0286 I-0.0465 J0.0
G2 X1.372 Y2.0457 I0.0232 J0.0403
G1 F10.0 Z-0.12
G2 F15.0 X1.3891 Y2.1091 I0.0403 J0.0232
G2 X1.4588 Y2.0689 I0.0232 J-0.0403
G2 X1.3891 Y2.0286 I-0.0465 J0.0
G2 X1.372 Y2.0457 I0.0232 J0.0403
G1 F10.0 Z-0.13
G2 F15.0 X1.3891 Y2.1091 I0.0403 J0.0232
G2 X1.4588 Y2.0689 I0.0232 J-0.0403
G2 X1.3891 Y2.0286 I-0.0465 J0.0
G2 X1.372 Y2.0457 I0.0232 J0.0403
G1 F10.0 Z-0.135
G2 F15.0 X1.3891 Y2.1091 I0.0403 J0.0232
G2 X1.4588 Y2.0689 I0.0232 J-0.0403
G2 X1.3891 Y2.0286 I-0.0465 J0.0
G2 X1.372 Y2.0457 I0.0232 J0.0403
G0 Z0.125
G0 X0.9791 Y3.0341
G0 Z0.0625
G1 F10.0 Z-0.01
G2 F15.0 X0.9419 Y3.1194 I-0.011 J0.0459
G2 X1.4173 Y3.2199 I0.4704 J-1.0506
G1 X1.4199
G2 X1.4194 Y3.1269 I-0.0023 J-0.0465
G1 X1.4181
G1 X1.418
G3 X1.009 Y3.0471 I-0.0057 J-1.0581
G3 X1.0082 Y3.0467 I0.0238 J-0.0578
G3 X0.9993 Y3.043 I0.4041 J-0.9779
G3 X0.9985 Y3.0426 I0.0244 J-0.0575
G1 X0.9791 Y3.0341
G1 F10.0 Z-0.02
G2 F15.0 X0.9419 Y3.1194 I-0.011 J0.0459
G2 X1.4173 Y3.2199 I0.4704 J-1.0506
G1 X1.4199
G2 X1.4194 Y3.1269 I-0.0023 J-0.0465
G1 X1.4181
G1 X1.418
G3 X1.009 Y3.0471 I-0.0057 J-1.0581
G3 X1.0082 Y3.0467 I0.0238 J-0.0578
G3 X0.9993 Y3.043 I0.4041 J-0.9779
G3 X0.9985 Y3.0426 I0.0244 J-0.0575
G1 X0.9791 Y3.0341
G1 F10.0 Z-0.03
G2 F15.0 X0.9419 Y3.1194 I-0.011 J0.0459
G2 X1.4173 Y3.2199 I0.4704 J-1.0506
G1 X1.4199
G2 X1.4194 Y3.1269 I-0.0023 J-0.0465
G1 X1.4181
G1 X1.418
G3 X1.009 Y3.0471 I-0.0057 J-1.0581
G3 X1.0082 Y3.0467 I0.0238 J-0.0578
G3 X0.9993 Y3.043 I0.4041 J-0.9779
G3 X0.9985 Y3.0426 I0.0244 J-0.0575
G1 X0.9791 Y3.0341
G1 F10.0 Z-0.04
G2 F15.0 X0.9419 Y3.1194 I-0.011 J0.0459
G2 X1.4173 Y3.2199 I0.4704 J-1.0506
G1 X1.4199
G2 X1.4194 Y3.1269 I-0.0023 J-0.0465
G1 X1.4181
G1 X1.418
G3 X1.009 Y3.0471 I-0.0057 J-1.0581
G3 X1.0082 Y3.0467 I0.0238 J-0.0578
G3 X0.9993 Y3.043 I0.4041 J-0.9779
G3 X0.9985 Y3.0426 I0.0244 J-0.0575
G1 X0.9791 Y3.0341
G1 F10.0 Z-0.05
G2 F15.0 X0.9419 Y3.1194 I-0.011 J0.0459
G2 X1.4173 Y3.2199 I0.4704 J-1.0506
G1 X1.4199
G2 X1.4194 Y3.1269 I-0.0023 J-0.0465
G1 X1.4181
G1 X1.418
G3 X1.009 Y3.0471 I-0.0057 J-1.0581
G3 X1.0082 Y3.0467 I0.0238 J-0.0578
G3 X0.9993 Y3.043 I0.4041 J-0.9779
G3 X0.9985 Y3.0426 I0.0244 J-0.0575
G1 X0.9791 Y3.0341
G1 F10.0 Z-0.06
G2 F15.0 X0.9419 Y3.1194 I-0.011 J0.0459
G2 X1.4173 Y3.2199 I0.4704 J-1.0506
G1 X1.4199
G2 X1.4194 Y3.1269 I-0.0023 J-0.0465
G1 X1.4181
G1 X1.418
G3 X1.009 Y3.0471 I-0.0057 J-1.0581
G3 X1.0082 Y3.0467 I0.0238 J-0.0578
G3 X0.9993 Y3.043 I0.4041 J-0.9779
G3 X0.9985 Y3.0426 I0.0244 J-0.0575
G1 X0.9791 Y3.0341
G1 F10.0 Z-0.07
G2 F15.0 X0.9419 Y3.1194 I-0.011 J0.0459
G2 X1.4173 Y3.2199 I0.4704 J-1.0506
G1 X1.4199
G2 X1.4194 Y3.1269 I-0.0023 J-0.0465
G1 X1.4181
G1 X1.418
G3 X1.009 Y3.0471 I-0.0057 J-1.0581
G3 X1.0082 Y3.0467 I0.0238 J-0.0578
G3 X0.9993 Y3.043 I0.4041 J-0.9779
G3 X0.9985 Y3.0426 I0.0244 J-0.0575
G1 X0.9791 Y3.0341
G1 F10.0 Z-0.08
G2 F15.0 X0.9419 Y3.1194 I-0.011 J0.0459
G2 X1.4173 Y3.2199 I0.4704 J-1.0506
G1 X1.4199
G2 X1.4194 Y3.1269 I-0.0023 J-0.0465
G1 X1.4181
G1 X1.418
G3 X1.009 Y3.0471 I-0.0057 J-1.0581
G3 X1.0082 Y3.0467 I0.0238 J-0.0578
G3 X0.9993 Y3.043 I0.4041 J-0.9779
G3 X0.9985 Y3.0426 I0.0244 J-0.0575
G1 X0.9791 Y3.0341
G1 F10.0 Z-0.09
G2 F15.0 X0.9419 Y3.1194 I-0.011 J0.0459
G2 X1.4173 Y3.2199 I0.4704 J-1.0506
G1 X1.4199
G2 X1.4194 Y3.1269 I-0.0023 J-0.0465
G1 X1.4181
G1 X1.418
G3 X1.009 Y3.0471 I-0.0057 J-1.0581
G3 X1.0082 Y3.0467 I0.0238 J-0.0578
G3 X0.9993 Y3.043 I0.4041 J-0.9779
G3 X0.9985 Y3.0426 I0.0244 J-0.0575
G1 X0.9791 Y3.0341
G1 F10.0 Z-0.1
G2 F15.0 X0.9419 Y3.1194 I-0.011 J0.0459
G2 X1.4173 Y3.2199 I0.4704 J-1.0506
G1 X1.4199
G2 X1.4194 Y3.1269 I-0.0023 J-0.0465
G1 X1.4181
G1 X1.418
G3 X1.009 Y3.0471 I-0.0057 J-1.0581
G3 X1.0082 Y3.0467 I0.0238 J-0.0578
G3 X0.9993 Y3.043 I0.4041 J-0.9779
G3 X0.9985 Y3.0426 I0.0244 J-0.0575
G1 X0.9791 Y3.0341
G1 F10.0 Z-0.11
G2 F15.0 X0.9419 Y3.1194 I-0.011 J0.0459
G2 X1.4173 Y3.2199 I0.4704 J-1.0506
G1 X1.4199
G2 X1.4194 Y3.1269 I-0.0023 J-0.0465
G1 X1.4181
G1 X1.418
G3 X1.009 Y3.0471 I-0.0057 J-1.0581
G3 X1.0082 Y3.0467 I0.0238 J-0.0578
G3 X0.9993 Y3.043 I0.4041 J-0.9779
G3 X0.9985 Y3.0426 I0.0244 J-0.0575
G1 X0.9791 Y3.0341
G1 F10.0 Z-0.12
G2 F15.0 X0.9419 Y3.1194 I-0.011 J0.0459
G2 X1.4173 Y3.2199 I0.4704 J-1.0506
G1 X1.4199
G2 X1.4194 Y3.1269 I-0.0023 J-0.0465
G1 X1.4181
G1 X1.418
G3 X1.009 Y3.0471 I-0.0057 J-1.0581
G3 X1.0082 Y3.0467 I0.0238 J-0.0578
G3 X0.9993 Y3.043 I0.4041 J-0.9779
G3 X0.9985 Y3.0426 I0.0244 J-0.0575
G1 X0.9791 Y3.0341
G1 F10.0 Z-0.13
G2 F15.0 X0.9419 Y3.1194 I-0.011 J0.0459
G2 X1.4173 Y3.2199 I0.4704 J-1.0506
G1 X1.4199
G2 X1.4194 Y3.1269 I-0.0023 J-0.0465
G1 X1.4181
G1 X1.418
G3 X1.009 Y3.0471 I-0.0057 J-1.0581
G3 X1.0082 Y3.0467 I0.0238 J-0.0578
G3 X0.9993 Y3.043 I0.4041 J-0.9779
G3 X0.9985 Y3.0426 I0.0244 J-0.0575
G1 X0.9791 Y3.0341
G1 F10.0 Z-0.135
G2 F15.0 X0.9419 Y3.1194 I-0.011 J0.0459
G2 X1.4173 Y3.2199 I0.4704 J-1.0506
G1 X1.4199
G2 X1.4194 Y3.1269 I-0.0023 J-0.0465
G1 X1.4181
G1 X1.418
G3 X1.009 Y3.0471 I-0.0057 J-1.0581
G3 X1.0082 Y3.0467 I0.0238 J-0.0578
G3 X0.9993 Y3.043 I0.4041 J-0.9779
G3 X0.9985 Y3.0426 I0.0244 J-0.0575
G1 X0.9791 Y3.0341
G0 Z0.125
G0 X0.2919 Y2.7026
G0 Z0.0625
G1 F10.0 Z-0.01
G2 F15.0 X0.2965 Y2.6824 I-0.0419 J-0.0202
G2 X0.2268 Y2.6421 I-0.0465 J0.0
G2 Y2.7227 I0.0232 J0.0403
G2 X0.2919 Y2.7026 I0.0232 J-0.0403
G1 F10.0 Z-0.02
G2 F15.0 X0.2965 Y2.6824 I-0.0419 J-0.0202
G2 X0.2268 Y2.6421 I-0.0465 J0.0
G2 Y2.7227 I0.0232 J0.0403
G2 X0.2919 Y2.7026 I0.0232 J-0.0403
G1 F10.0 Z-0.03
G2 F15.0 X0.2965 Y2.6824 I-0.0419 J-0.0202
G2 X0.2268 Y2.6421 I-0.0465 J0.0
G2 Y2.7227 I0.0232 J0.0403
G2 X0.2919 Y2.7026 I0.0232 J-0.0403
G1 F10.0 Z-0.04
G2 F15.0 X0.2965 Y2.6824 I-0.0419 J-0.0202
G2 X0.2268 Y2.6421 I-0.0465 J0.0
G2 Y2.7227 I0.0232 J0.0403
G2 X0.2919 Y2.7026 I0.0232 J-0.0403
G1 F10.0 Z-0.05
G2 F15.0 X0.2965 Y2.6824 I-0.0419 J-0.0202
G2 X0.2268 Y2.6421 I-0.0465 J0.0
G2 Y2.7227 I0.0232 J0.0403
G2 X0.2919 Y2.7026 I0.0232 J-0.0403
G1 F10.0 Z-0.06
G2 F15.0 X0.2965 Y2.6824 I-0.0419 J-0.0202
G2 X0.2268 Y2.6421 I-0.0465 J0.0
G2 Y2.7227 I0.0232 J0.0403
G2 X0.2919 Y2.7026 I0.0232 J-0.0403
G1 F10.0 Z-0.07
G2 F15.0 X0.2965 Y2.6824 I-0.0419 J-0.0202
G2 X0.2268 Y2.6421 I-0.0465 J0.0
G2 Y2.7227 I0.0232 J0.0403
G2 X0.2919 Y2.7026 I0.0232 J-0.0403
G1 F10.0 Z-0.08
G2 F15.0 X0.2965 Y2.6824 I-0.0419 J-0.0202
G2 X0.2268 Y2.6421 I-0.0465 J0.0
G2 Y2.7227 I0.0232 J0.0403
G2 X0.2919 Y2.7026 I0.0232 J-0.0403
G1 F10.0 Z-0.09
G2 F15.0 X0.2965 Y2.6824 I-0.0419 J-0.0202
G2 X0.2268 Y2.6421 I-0.0465 J0.0
G2 Y2.7227 I0.0232 J0.0403
G2 X0.2919 Y2.7026 I0.0232 J-0.0403
G1 F10.0 Z-0.1
G2 F15.0 X0.2965 Y2.6824 I-0.0419 J-0.0202
G2 X0.2268 Y2.6421 I-0.0465 J0.0
G2 Y2.7227 I0.0232 J0.0403
G2 X0.2919 Y2.7026 I0.0232 J-0.0403
G1 F10.0 Z-0.11
G2 F15.0 X0.2965 Y2.6824 I-0.0419 J-0.0202
G2 X0.2268 Y2.6421 I-0.0465 J0.0
G2 Y2.7227 I0.0232 J0.0403
G2 X0.2919 Y2.7026 I0.0232 J-0.0403
G1 F10.0 Z-0.12
G2 F15.0 X0.2965 Y2.6824 I-0.0419 J-0.0202
G2 X0.2268 Y2.6421 I-0.0465 J0.0
G2 Y2.7227 I0.0232 J0.0403
G2 X0.2919 Y2.7026 I0.0232 J-0.0403
G1 F10.0 Z-0.13
G2 F15.0 X0.2965 Y2.6824 I-0.0419 J-0.0202
G2 X0.2268 Y2.6421 I-0.0465 J0.0
G2 Y2.7227 I0.0232 J0.0403
G2 X0.2919 Y2.7026 I0.0232 J-0.0403
G1 F10.0 Z-0.135
G2 F15.0 X0.2965 Y2.6824 I-0.0419 J-0.0202
G2 X0.2268 Y2.6421 I-0.0465 J0.0
G2 Y2.7227 I0.0232 J0.0403
G2 X0.2919 Y2.7026 I0.0232 J-0.0403
G0 Z0.125
G0 X0.9367 Y3.9841
G0 Z0.0625
G1 F10.0 Z-0.01
G2 F15.0 X0.9319 Y3.9867 I0.0426 J0.0846
G2 Y4.1508 I0.0474 J0.0821
G2 X1.074 Y4.0688 I0.0474 J-0.0821
G2 X0.9367 Y3.9841 I-0.0947 J0.0
G1 F10.0 Z-0.02
G2 F15.0 X0.9319 Y3.9867 I0.0426 J0.0846
G2 Y4.1508 I0.0474 J0.0821
G2 X1.074 Y4.0688 I0.0474 J-0.0821
G2 X0.9367 Y3.9841 I-0.0947 J0.0
G1 F10.0 Z-0.03
G2 F15.0 X0.9319 Y3.9867 I0.0426 J0.0846
G2 Y4.1508 I0.0474 J0.0821
G2 X1.074 Y4.0688 I0.0474 J-0.0821
G2 X0.9367 Y3.9841 I-0.0947 J0.0
G1 F10.0 Z-0.04
G2 F15.0 X0.9319 Y3.9867 I0.0426 J0.0846
G2 Y4.1508 I0.0474 J0.0821
G2 X1.074 Y4.0688 I0.0474 J-0.0821
G2 X0.9367 Y3.9841 I-0.0947 J0.0
G1 F10.0 Z-0.05
G2 F15.0 X0.9319 Y3.9867 I0.0426 J0.0846
G2 Y4.1508 I0.0474 J0.0821
G2 X1.074 Y4.0688 I0.0474 J-0.0821
G2 X0.9367 Y3.9841 I-0.0947 J0.0
G1 F10.0 Z-0.06
G2 F15.0 X0.9319 Y3.9867 I0.0426 J0.0846
G2 Y4.1508 I0.0474 J0.0821
G2 X1.074 Y4.0688 I0.0474 J-0.0821
G2 X0.9367 Y3.9841 I-0.0947 J0.0
G1 F10.0 Z-0.07
G2 F15.0 X0.9319 Y3.9867 I0.0426 J0.0846
G2 Y4.1508 I0.0474 J0.0821
G2 X1.074 Y4.0688 I0.0474 J-0.0821
G2 X0.9367 Y3.9841 I-0.0947 J0.0
G1 F10.0 Z-0.08
G2 F15.0 X0.9319 Y3.9867 I0.0426 J0.0846
G2 Y4.1508 I0.0474 J0.0821
G2 X1.074 Y4.0688 I0.0474 J-0.0821
G2 X0.9367 Y3.9841 I-0.0947 J0.0
G1 F10.0 Z-0.09
G2 F15.0 X0.9319 Y3.9867 I0.0426 J0.0846
G2 Y4.1508 I0.0474 J0.0821
G2 X1.074 Y4.0688 I0.0474 J-0.0821
G2 X0.9367 Y3.9841 I-0.0947 J0.0
G1 F10.0 Z-0.1
G2 F15.0 X0.9319 Y3.9867 I0.0426 J0.0846
G2 Y4.1508 I0.0474 J0.0821
G2 X1.074 Y4.0688 I0.0474 J-0.0821
G2 X0.9367 Y3.9841 I-0.0947 J0.0
G1 F10.0 Z-0.11
G2 F15.0 X0.9319 Y3.9867 I0.0426 J0.0846
G2 Y4.1508 I0.0474 J0.0821
G2 X1.074 Y4.0688 I0.0474 J-0.0821
G2 X0.9367 Y3.9841 I-0.0947 J0.0
G1 F10.0 Z-0.12
G2 F15.0 X0.9319 Y3.9867 I0.0426 J0.0846
G2 Y4.1508 I0.0474 J0.0821
G2 X1.074 Y4.0688 I0.0474 J-0.0821
G2 X0.9367 Y3.9841 I-0.0947 J0.0
G1 F10.0 Z-0.13
G2 F15.0 X0.9319 Y3.9867 I0.0426 J0.0846
G2 Y4.1508 I0.0474 J0.0821
G2 X1.074 Y4.0688 I0.0474 J-0.0821
G2 X0.9367 Y3.9841 I-0.0947 J0.0
G1 F10.0 Z-0.135
G2 F15.0 X0.9319 Y3.9867 I0.0426 J0.0846
G2 Y4.1508 I0.0474 J0.0821
G2 X1.074 Y4.0688 I0.0474 J-0.0821
G2 X0.9367 Y3.9841 I-0.0947 J0.0
G0 Z0.125
G0 X0.3667 Y5.2627
G0 Z0.0625
G1 F10.0 Z-0.01
G2 F15.0 X0.3246 Y5.2649 I-0.0189 J0.0425
G2 Y5.3455 I0.0233 J0.0403
G2 X0.3943 Y5.3052 I0.0232 J-0.0403
G2 X0.3667 Y5.2627 I-0.0465 J0.0
G1 F10.0 Z-0.02
G2 F15.0 X0.3246 Y5.2649 I-0.0189 J0.0425
G2 Y5.3455 I0.0233 J0.0403
G2 X0.3943 Y5.3052 I0.0232 J-0.0403
G2 X0.3667 Y5.2627 I-0.0465 J0.0
G1 F10.0 Z-0.03
G2 F15.0 X0.3246 Y5.2649 I-0.0189 J0.0425
G2 Y5.3455 I0.0233 J0.0403
G2 X0.3943 Y5.3052 I0.0232 J-0.0403
G2 X0.3667 Y5.2627 I-0.0465 J0.0
G1 F10.0 Z-0.04
G2 F15.0 X0.3246 Y5.2649 I-0.0189 J0.0425
G2 Y5.3455 I0.0233 J0.0403
G2 X0.3943 Y5.3052 I0.0232 J-0.0403
G2 X0.3667 Y5.2627 I-0.0465 J0.0
G1 F10.0 Z-0.05
G2 F15.0 X0.3246 Y5.2649 I-0.0189 J0.0425
G2 Y5.3455 I0.0233 J0.0403
G2 X0.3943 Y5.3052 I0.0232 J-0.0403
G2 X0.3667 Y5.2627 I-0.0465 J0.0
G1 F10.0 Z-0.06
G2 F15.0 X0.3246 Y5.2649 I-0.0189 J0.0425
G2 Y5.3455 I0.0233 J0.0403
G2 X0.3943 Y5.3052 I0.0232 J-0.0403
G2 X0.3667 Y5.2627 I-0.0465 J0.0
G1 F10.0 Z-0.07
G2 F15.0 X0.3246 Y5.2649 I-0.0189 J0.0425
G2 Y5.3455 I0.0233 J0.0403
G2 X0.3943 Y5.3052 I0.0232 J-0.0403
G2 X0.3667 Y5.2627 I-0.0465 J0.0
G1 F10.0 Z-0.08
G2 F15.0 X0.3246 Y5.2649 I-0.0189 J0.0425
G2 Y5.3455 I0.0233 J0.0403
G2 X0.3943 Y5.3052 I0.0232 J-0.0403
G2 X0.3667 Y5.2627 I-0.0465 J0.0
G1 F10.0 Z-0.09
G2 F15.0 X0.3246 Y5.2649 I-0.0189 J0.0425
G2 Y5.3455 I0.0233 J0.0403
G2 X0.3943 Y5.3052 I0.0232 J-0.0403
G2 X0.3667 Y5.2627 I-0.0465 J0.0
G1 F10.0 Z-0.1
G2 F15.0 X0.3246 Y5.2649 I-0.0189 J0.0425
G2 Y5.3455 I0.0233 J0.0403
G2 X0.3943 Y5.3052 I0.0232 J-0.0403
G2 X0.3667 Y5.2627 I-0.0465 J0.0
G1 F10.0 Z-0.11
G2 F15.0 X0.3246 Y5.2649 I-0.0189 J0.0425
G2 Y5.3455 I0.0233 J0.0403
G2 X0.3943 Y5.3052 I0.0232 J-0.0403
G2 X0.3667 Y5.2627 I-0.0465 J0.0
G1 F10.0 Z-0.12
G2 F15.0 X0.3246 Y5.2649 I-0.0189 J0.0425
G2 Y5.3455 I0.0233 J0.0403
G2 X0.3943 Y5.3052 I0.0232 J-0.0403
G2 X0.3667 Y5.2627 I-0.0465 J0.0
G1 F10.0 Z-0.13
G2 F15.0 X0.3246 Y5.2649 I-0.0189 J0.0425
G2 Y5.3455 I0.0233 J0.0403
G2 X0.3943 Y5.3052 I0.0232 J-0.0403
G2 X0.3667 Y5.2627 I-0.0465 J0.0
G1 F10.0 Z-0.135
G2 F15.0 X0.3246 Y5.2649 I-0.0189 J0.0425
G2 Y5.3455 I0.0233 J0.0403
G2 X0.3943 Y5.3052 I0.0232 J-0.0403
G2 X0.3667 Y5.2627 I-0.0465 J0.0
G0 Z0.125
G0 X1.2019 Y5.3978
G0 Z0.0625
G1 F10.0 Z-0.01
G2 F15.0 X1.2246 Y5.4455 I0.0459 J0.0074
G2 X1.2943 Y5.4052 I0.0232 J-0.0403
G2 X1.2246 Y5.3649 I-0.0465 J0.0
G2 X1.2019 Y5.3978 I0.0233 J0.0403
G1 F10.0 Z-0.02
G2 F15.0 X1.2246 Y5.4455 I0.0459 J0.0074
G2 X1.2943 Y5.4052 I0.0232 J-0.0403
G2 X1.2246 Y5.3649 I-0.0465 J0.0
G2 X1.2019 Y5.3978 I0.0233 J0.0403
G1 F10.0 Z-0.03
G2 F15.0 X1.2246 Y5.4455 I0.0459 J0.0074
G2 X1.2943 Y5.4052 I0.0232 J-0.0403
G2 X1.2246 Y5.3649 I-0.0465 J0.0
G2 X1.2019 Y5.3978 I0.0233 J0.0403
G1 F10.0 Z-0.04
G2 F15.0 X1.2246 Y5.4455 I0.0459 J0.0074
G2 X1.2943 Y5.4052 I0.0232 J-0.0403
G2 X1.2246 Y5.3649 I-0.0465 J0.0
G2 X1.2019 Y5.3978 I0.0233 J0.0403
G1 F10.0 Z-0.05
G2 F15.0 X1.2246 Y5.4455 I0.0459 J0.0074
G2 X1.2943 Y5.4052 I0.0232 J-0.0403
G2 X1.2246 Y5.3649 I-0.0465 J0.0
G2 X1.2019 Y5.3978 I0.0233 J0.0403
G1 F10.0 Z-0.06
G2 F15.0 X1.2246 Y5.4455 I0.0459 J0.0074
G2 X1.2943 Y5.4052 I0.0232 J-0.0403
G2 X1.2246 Y5.3649 I-0.0465 J0.0
G2 X1.2019 Y5.3978 I0.0233 J0.0403
G1 F10.0 Z-0.07
G2 F15.0 X1.2246 Y5.4455 I0.0459 J0.0074
G2 X1.2943 Y5.4052 I0.0232 J-0.0403
G2 X1.2246 Y5.3649 I-0.0465 J0.0
G2 X1.2019 Y5.3978 I0.0233 J0.0403
G1 F10.0 Z-0.08
G2 F15.0 X1.2246 Y5.4455 I0.0459 J0.0074
G2 X1.2943 Y5.4052 I0.0232 J-0.0403
G2 X1.2246 Y5.3649 I-0.0465 J0.0
G2 X1.2019 Y5.3978 I0.0233 J0.0403
G1 F10.0 Z-0.09
G2 F15.0 X1.2246 Y5.4455 I0.0459 J0.0074
G2 X1.2943 Y5.4052 I0.0232 J-0.0403
G2 X1.2246 Y5.3649 I-0.0465 J0.0
G2 X1.2019 Y5.3978 I0.0233 J0.0403
G1 F10.0 Z-0.1
G2 F15.0 X1.2246 Y5.4455 I0.0459 J0.0074
G2 X1.2943 Y5.4052 I0.0232 J-0.0403
G2 X1.2246 Y5.3649 I-0.0465 J0.0
G2 X1.2019 Y5.3978 I0.0233 J0.0403
G1 F10.0 Z-0.11
G2 F15.0 X1.2246 Y5.4455 I0.0459 J0.0074
G2 X1.2943 Y5.4052 I0.0232 J-0.0403
G2 X1.2246 Y5.3649 I-0.0465 J0.0
G2 X1.2019 Y5.3978 I0.0233 J0.0403
G1 F10.0 Z-0.12
G2 F15.0 X1.2246 Y5.4455 I0.0459 J0.0074
G2 X1.2943 Y5.4052 I0.0232 J-0.0403
G2 X1.2246 Y5.3649 I-0.0465 J0.0
G2 X1.2019 Y5.3978 I0.0233 J0.0403
G1 F10.0 Z-0.13
G2 F15.0 X1.2246 Y5.4455 I0.0459 J0.0074
G2 X1.2943 Y5.4052 I0.0232 J-0.0403
G2 X1.2246 Y5.3649 I-0.0465 J0.0
G2 X1.2019 Y5.3978 I0.0233 J0.0403
G1 F10.0 Z-0.135
G2 F15.0 X1.2246 Y5.4455 I0.0459 J0.0074
G2 X1.2943 Y5.4052 I0.0232 J-0.0403
G2 X1.2246 Y5.3649 I-0.0465 J0.0
G2 X1.2019 Y5.3978 I0.0233 J0.0403
G0 Z0.125
G0 X1.2131 Y6.4628
G0 Z0.0625
G1 F10.0 Z-0.01
G2 F15.0 X1.1903 Y6.469 I0.0005 J0.0465
G2 Y6.5496 I0.0232 J0.0403
G2 X1.2601 Y6.5093 I0.0232 J-0.0403
G2 X1.2131 Y6.4628 I-0.0465 J0.0
G1 F10.0 Z-0.02
G2 F15.0 X1.1903 Y6.469 I0.0005 J0.0465
G2 Y6.5496 I0.0232 J0.0403
G2 X1.2601 Y6.5093 I0.0232 J-0.0403
G2 X1.2131 Y6.4628 I-0.0465 J0.0
G1 F10.0 Z-0.03
G2 F15.0 X1.1903 Y6.469 I0.0005 J0.0465
G2 Y6.5496 I0.0232 J0.0403
G2 X1.2601 Y6.5093 I0.0232 J-0.0403
G2 X1.2131 Y6.4628 I-0.0465 J0.0
G1 F10.0 Z-0.04
G2 F15.0 X1.1903 Y6.469 I0.0005 J0.0465
G2 Y6.5496 I0.0232 J0.0403
G2 X1.2601 Y6.5093 I0.0232 J-0.0403
G2 X1.2131 Y6.4628 I-0.0465 J0.0
G1 F10.0 Z-0.05
G2 F15.0 X1.1903 Y6.469 I0.0005 J0.0465
G2 Y6.5496 I0.0232 J0.0403
G2 X1.2601 Y6.5093 I0.0232 J-0.0403
G2 X1.2131 Y6.4628 I-0.0465 J0.0
G1 F10.0 Z-0.06
G2 F15.0 X1.1903 Y6.469 I0.0005 J0.0465
G2 Y6.5496 I0.0232 J0.0403
G2 X1.2601 Y6.5093 I0.0232 J-0.0403
G2 X1.2131 Y6.4628 I-0.0465 J0.0
G1 F10.0 Z-0.07
G2 F15.0 X1.1903 Y6.469 I0.0005 J0.0465
G2 Y6.5496 I0.0232 J0.0403
G2 X1.2601 Y6.5093 I0.0232 J-0.0403
G2 X1.2131 Y6.4628 I-0.0465 J0.0
G1 F10.0 Z-0.08
G2 F15.0 X1.1903 Y6.469 I0.0005 J0.0465
G2 Y6.5496 I0.0232 J0.0403
G2 X1.2601 Y6.5093 I0.0232 J-0.0403
G2 X1.2131 Y6.4628 I-0.0465 J0.0
G1 F10.0 Z-0.09
G2 F15.0 X1.1903 Y6.469 I0.0005 J0.0465
G2 Y6.5496 I0.0232 J0.0403
G2 X1.2601 Y6.5093 I0.0232 J-0.0403
G2 X1.2131 Y6.4628 I-0.0465 J0.0
G1 F10.0 Z-0.1
G2 F15.0 X1.1903 Y6.469 I0.0005 J0.0465
G2 Y6.5496 I0.0232 J0.0403
G2 X1.2601 Y6.5093 I0.0232 J-0.0403
G2 X1.2131 Y6.4628 I-0.0465 J0.0
G1 F10.0 Z-0.11
G2 F15.0 X1.1903 Y6.469 I0.0005 J0.0465
G2 Y6.5496 I0.0232 J0.0403
G2 X1.2601 Y6.5093 I0.0232 J-0.0403
G2 X1.2131 Y6.4628 I-0.0465 J0.0
G1 F10.0 Z-0.12
G2 F15.0 X1.1903 Y6.469 I0.0005 J0.0465
G2 Y6.5496 I0.0232 J0.0403
G2 X1.2601 Y6.5093 I0.0232 J-0.0403
G2 X1.2131 Y6.4628 I-0.0465 J0.0
G1 F10.0 Z-0.13
G2 F15.0 X1.1903 Y6.469 I0.0005 J0.0465
G2 Y6.5496 I0.0232 J0.0403
G2 X1.2601 Y6.5093 I0.0232 J-0.0403
G2 X1.2131 Y6.4628 I-0.0465 J0.0
G1 F10.0 Z-0.135
G2 F15.0 X1.1903 Y6.469 I0.0005 J0.0465
G2 Y6.5496 I0.0232 J0.0403
G2 X1.2601 Y6.5093 I0.0232 J-0.0403
G2 X1.2131 Y6.4628 I-0.0465 J0.0
G0 Z0.125
G0 X0.36 Y6.4121
G0 Z0.0625
G1 F10.0 Z-0.01
G2 F15.0 X0.3601 Y6.4093 I-0.0464 J-0.0028
G2 X0.2903 Y6.369 I-0.0465 J0.0
G2 Y6.4496 I0.0232 J0.0403
G2 X0.36 Y6.4121 I0.0232 J-0.0403
G1 F10.0 Z-0.02
G2 F15.0 X0.3601 Y6.4093 I-0.0464 J-0.0028
G2 X0.2903 Y6.369 I-0.0465 J0.0
G2 Y6.4496 I0.0232 J0.0403
G2 X0.36 Y6.4121 I0.0232 J-0.0403
G1 F10.0 Z-0.03
G2 F15.0 X0.3601 Y6.4093 I-0.0464 J-0.0028
G2 X0.2903 Y6.369 I-0.0465 J0.0
G2 Y6.4496 I0.0232 J0.0403
G2 X0.36 Y6.4121 I0.0232 J-0.0403
G1 F10.0 Z-0.04
G2 F15.0 X0.3601 Y6.4093 I-0.0464 J-0.0028
G2 X0.2903 Y6.369 I-0.0465 J0.0
G2 Y6.4496 I0.0232 J0.0403
G2 X0.36 Y6.4121 I0.0232 J-0.0403
G1 F10.0 Z-0.05
G2 F15.0 X0.3601 Y6.4093 I-0.0464 J-0.0028
G2 X0.2903 Y6.369 I-0.0465 J0.0
G2 Y6.4496 I0.0232 J0.0403
G2 X0.36 Y6.4121 I0.0232 J-0.0403
G1 F10.0 Z-0.06
G2 F15.0 X0.3601 Y6.4093 I-0.0464 J-0.0028
G2 X0.2903 Y6.369 I-0.0465 J0.0
G2 Y6.4496 I0.0232 J0.0403
G2 X0.36 Y6.4121 I0.0232 J-0.0403
G1 F10.0 Z-0.07
G2 F15.0 X0.3601 Y6.4093 I-0.0464 J-0.0028
G2 X0.2903 Y6.369 I-0.0465 J0.0
G2 Y6.4496 I0.0232 J0.0403
G2 X0.36 Y6.4121 I0.0232 J-0.0403
G1 F10.0 Z-0.08
G2 F15.0 X0.3601 Y6.4093 I-0.0464 J-0.0028
G2 X0.2903 Y6.369 I-0.0465 J0.0
G2 Y6.4496 I0.0232 J0.0403
G2 X0.36 Y6.4121 I0.0232 J-0.0403
G1 F10.0 Z-0.09
G2 F15.0 X0.3601 Y6.4093 I-0.0464 J-0.0028
G2 X0.2903 Y6.369 I-0.0465 J0.0
G2 Y6.4496 I0.0232 J0.0403
G2 X0.36 Y6.4121 I0.0232 J-0.0403
G1 F10.0 Z-0.1
G2 F15.0 X0.3601 Y6.4093 I-0.0464 J-0.0028
G2 X0.2903 Y6.369 I-0.0465 J0.0
G2 Y6.4496 I0.0232 J0.0403
G2 X0.36 Y6.4121 I0.0232 J-0.0403
G1 F10.0 Z-0.11
G2 F15.0 X0.3601 Y6.4093 I-0.0464 J-0.0028
G2 X0.2903 Y6.369 I-0.0465 J0.0
G2 Y6.4496 I0.0232 J0.0403
G2 X0.36 Y6.4121 I0.0232 J-0.0403
G1 F10.0 Z-0.12
G2 F15.0 X0.3601 Y6.4093 I-0.0464 J-0.0028
G2 X0.2903 Y6.369 I-0.0465 J0.0
G2 Y6.4496 I0.0232 J0.0403
G2 X0.36 Y6.4121 I0.0232 J-0.0403
G1 F10.0 Z-0.13
G2 F15.0 X0.3601 Y6.4093 I-0.0464 J-0.0028
G2 X0.2903 Y6.369 I-0.0465 J0.0
G2 Y6.4496 I0.0232 J0.0403
G2 X0.36 Y6.4121 I0.0232 J-0.0403
G1 F10.0 Z-0.135
G2 F15.0 X0.3601 Y6.4093 I-0.0464 J-0.0028
G2 X0.2903 Y6.369 I-0.0465 J0.0
G2 Y6.4496 I0.0232 J0.0403
G2 X0.36 Y6.4121 I0.0232 J-0.0403
( SPACER_OUTLINE )
S1000
G0 Z0.125
G0 X0.9097 Y6.492
G0 Z0.0625
G1 F10.0 Z-0.01
G1 F15.0 X0.9375 Y5.3985
G3 X1.5581 Y5.4117 I0.3103 J0.0066
G3 Y5.4127 I-0.0625 J-0.0013
G1 X1.5175 Y6.5262
G3 X1.5174 Y6.5277 I-0.0625 J-0.0023
G3 X0.9097 Y6.492 I-0.3039 J-0.0184
G1 F10.0 Z-0.02
G1 F15.0 X0.9375 Y5.3985
G3 X1.5581 Y5.4117 I0.3103 J0.0066
G3 Y5.4127 I-0.0625 J-0.0013
G1 X1.5175 Y6.5262
G3 X1.5174 Y6.5277 I-0.0625 J-0.0023
G3 X0.9097 Y6.492 I-0.3039 J-0.0184
G1 F10.0 Z-0.03
G1 F15.0 X0.9375 Y5.3985
G3 X1.5581 Y5.4117 I0.3103 J0.0066
G3 Y5.4127 I-0.0625 J-0.0013
G1 X1.5175 Y6.5262
G3 X1.5174 Y6.5277 I-0.0625 J-0.0023
G3 X0.9097 Y6.492 I-0.3039 J-0.0184
G1 F10.0 Z-0.04
G1 F15.0 X0.9375 Y5.3985
G3 X1.5581 Y5.4117 I0.3103 J0.0066
G3 Y5.4127 I-0.0625 J-0.0013
G1 X1.5175 Y6.5262
G3 X1.5174 Y6.5277 I-0.0625 J-0.0023
G3 X0.9097 Y6.492 I-0.3039 J-0.0184
G1 F10.0 Z-0.05
G1 F15.0 X0.9375 Y5.3985
G3 X1.5581 Y5.4117 I0.3103 J0.0066
G3 Y5.4127 I-0.0625 J-0.0013
G1 X1.5175 Y6.5262
G3 X1.5174 Y6.5277 I-0.0625 J-0.0023
G3 X0.9097 Y6.492 I-0.3039 J-0.0184
G1 F10.0 Z-0.06
G1 F15.0 X0.9375 Y5.3985
G3 X1.5581 Y5.4117 I0.3103 J0.0066
G3 Y5.4127 I-0.0625 J-0.0013
G1 X1.5175 Y6.5262
G3 X1.5174 Y6.5277 I-0.0625 J-0.0023
G3 X0.9097 Y6.492 I-0.3039 J-0.0184
G1 F10.0 Z-0.07
G1 F15.0 X0.9375 Y5.3985
G3 X1.5581 Y5.4117 I0.3103 J0.0066
G3 Y5.4127 I-0.0625 J-0.0013
G1 X1.5175 Y6.5262
G3 X1.5174 Y6.5277 I-0.0625 J-0.0023
G3 X0.9097 Y6.492 I-0.3039 J-0.0184
G1 F10.0 Z-0.08
G1 F15.0 X0.9375 Y5.3985
G3 X1.5581 Y5.4117 I0.3103 J0.0066
G3 Y5.4127 I-0.0625 J-0.0013
G1 X1.5175 Y6.5262
G3 X1.5174 Y6.5277 I-0.0625 J-0.0023
G3 X0.9097 Y6.492 I-0.3039 J-0.0184
G1 F10.0 Z-0.09
G1 F15.0 X0.9375 Y5.3985
G3 X1.5581 Y5.4117 I0.3103 J0.0066
G3 Y5.4127 I-0.0625 J-0.0013
G1 X1.5175 Y6.5262
G3 X1.5174 Y6.5277 I-0.0625 J-0.0023
G3 X0.9097 Y6.492 I-0.3039 J-0.0184
G1 F10.0 Z-0.1
G1 F15.0 X0.9375 Y5.3985
G3 X1.5581 Y5.4117 I0.3103 J0.0066
G3 Y5.4127 I-0.0625 J-0.0013
G1 X1.5175 Y6.5262
G3 X1.5174 Y6.5277 I-0.0625 J-0.0023
G3 X0.9097 Y6.492 I-0.3039 J-0.0184
G1 F10.0 Z-0.11
G1 F15.0 X0.9375 Y5.3985
G3 X1.5581 Y5.4117 I0.3103 J0.0066
G3 Y5.4127 I-0.0625 J-0.0013
G1 X1.5175 Y6.5262
G3 X1.5174 Y6.5277 I-0.0625 J-0.0023
G3 X0.9097 Y6.492 I-0.3039 J-0.0184
G1 F10.0 Z-0.12
G1 F15.0 X0.9375 Y5.3985
G3 X1.5581 Y5.4117 I0.3103 J0.0066
G3 Y5.4127 I-0.0625 J-0.0013
G1 X1.5175 Y6.5262
G3 X1.5174 Y6.5277 I-0.0625 J-0.0023
G3 X0.9097 Y6.492 I-0.3039 J-0.0184
G1 F10.0 Z-0.13
G1 F15.0 X0.9375 Y5.3985
G3 X1.5581 Y5.4117 I0.3103 J0.0066
G3 Y5.4127 I-0.0625 J-0.0013
G1 X1.5175 Y6.5262
G3 X1.5174 Y6.5277 I-0.0625 J-0.0023
G3 X0.9097 Y6.492 I-0.3039 J-0.0184
G1 F10.0 Z-0.135
G1 F15.0 X0.9375 Y5.3985
G3 X1.5581 Y5.4117 I0.3103 J0.0066
G3 Y5.4127 I-0.0625 J-0.0013
G1 X1.5175 Y6.5262
G3 X1.5174 Y6.5277 I-0.0625 J-0.0023
G3 X0.9097 Y6.492 I-0.3039 J-0.0184
G0 Z0.125
G0 X0.6151 Y6.4511
G0 Z0.0625
G1 F10.0 Z-0.01
G3 F15.0 X0.0097 Y6.392 I-0.3015 J-0.0418
G1 X0.0375 Y5.2985
G3 X0.6581 Y5.3117 I0.3103 J0.0066
G3 Y5.3127 I-0.0625 J-0.0013
G1 X0.6175 Y6.4262
G3 X0.6174 Y6.4277 I-0.0625 J-0.0023
G3 X0.6151 Y6.4511 I-0.3039 J-0.0184
G1 F10.0 Z-0.02
G3 F15.0 X0.0097 Y6.392 I-0.3015 J-0.0418
G1 X0.0375 Y5.2985
G3 X0.6581 Y5.3117 I0.3103 J0.0066
G3 Y5.3127 I-0.0625 J-0.0013
G1 X0.6175 Y6.4262
G3 X0.6174 Y6.4277 I-0.0625 J-0.0023
G3 X0.6151 Y6.4511 I-0.3039 J-0.0184
G1 F10.0 Z-0.03
G3 F15.0 X0.0097 Y6.392 I-0.3015 J-0.0418
G1 X0.0375 Y5.2985
G3 X0.6581 Y5.3117 I0.3103 J0.0066
G3 Y5.3127 I-0.0625 J-0.0013
G1 X0.6175 Y6.4262
G3 X0.6174 Y6.4277 I-0.0625 J-0.0023
G3 X0.6151 Y6.4511 I-0.3039 J-0.0184
G1 F10.0 Z-0.04
G3 F15.0 X0.0097 Y6.392 I-0.3015 J-0.0418
G1 X0.0375 Y5.2985
G3 X0.6581 Y5.3117 I0.3103 J0.0066
G3 Y5.3127 I-0.0625 J-0.0013
G1 X0.6175 Y6.4262
G3 X0.6174 Y6.4277 I-0.0625 J-0.0023
G3 X0.6151 Y6.4511 I-0.3039 J-0.0184
G1 F10.0 Z-0.05
G3 F15.0 X0.0097 Y6.392 I-0.3015 J-0.0418
G1 X0.0375 Y5.2985
G3 X0.6581 Y5.3117 I0.3103 J0.0066
G3 Y5.3127 I-0.0625 J-0.0013
G1 X0.6175 Y6.4262
G3 X0.6174 Y6.4277 I-0.0625 J-0.0023
G3 X0.6151 Y6.4511 I-0.3039 J-0.0184
G1 F10.0 Z-0.06
G3 F15.0 X0.0097 Y6.392 I-0.3015 J-0.0418
G1 X0.0375 Y5.2985
G3 X0.6581 Y5.3117 I0.3103 J0.0066
G3 Y5.3127 I-0.0625 J-0.0013
G1 X0.6175 Y6.4262
G3 X0.6174 Y6.4277 I-0.0625 J-0.0023
G3 X0.6151 Y6.4511 I-0.3039 J-0.0184
G1 F10.0 Z-0.07
G3 F15.0 X0.0097 Y6.392 I-0.3015 J-0.0418
G1 X0.0375 Y5.2985
G3 X0.6581 Y5.3117 I0.3103 J0.0066
G3 Y5.3127 I-0.0625 J-0.0013
G1 X0.6175 Y6.4262
G3 X0.6174 Y6.4277 I-0.0625 J-0.0023
G3 X0.6151 Y6.4511 I-0.3039 J-0.0184
G1 F10.0 Z-0.08
G3 F15.0 X0.0097 Y6.392 I-0.3015 J-0.0418
G1 X0.0375 Y5.2985
G3 X0.6581 Y5.3117 I0.3103 J0.0066
G3 Y5.3127 I-0.0625 J-0.0013
G1 X0.6175 Y6.4262
G3 X0.6174 Y6.4277 I-0.0625 J-0.0023
G3 X0.6151 Y6.4511 I-0.3039 J-0.0184
G1 F10.0 Z-0.09
G3 F15.0 X0.0097 Y6.392 I-0.3015 J-0.0418
G1 X0.0375 Y5.2985
G3 X0.6581 Y5.3117 I0.3103 J0.0066
G3 Y5.3127 I-0.0625 J-0.0013
G1 X0.6175 Y6.4262
G3 X0.6174 Y6.4277 I-0.0625 J-0.0023
G3 X0.6151 Y6.4511 I-0.3039 J-0.0184
G1 F10.0 Z-0.1
G3 F15.0 X0.0097 Y6.392 I-0.3015 J-0.0418
G1 X0.0375 Y5.2985
G3 X0.6581 Y5.3117 I0.3103 J0.0066
G3 Y5.3127 I-0.0625 J-0.0013
G1 X0.6175 Y6.4262
G3 X0.6174 Y6.4277 I-0.0625 J-0.0023
G3 X0.6151 Y6.4511 I-0.3039 J-0.0184
G1 F10.0 Z-0.11
G3 F15.0 X0.0097 Y6.392 I-0.3015 J-0.0418
G1 X0.0375 Y5.2985
G3 X0.6581 Y5.3117 I0.3103 J0.0066
G3 Y5.3127 I-0.0625 J-0.0013
G1 X0.6175 Y6.4262
G3 X0.6174 Y6.4277 I-0.0625 J-0.0023
G3 X0.6151 Y6.4511 I-0.3039 J-0.0184
G1 F10.0 Z-0.12
G3 F15.0 X0.0097 Y6.392 I-0.3015 J-0.0418
G1 X0.0375 Y5.2985
G3 X0.6581 Y5.3117 I0.3103 J0.0066
G3 Y5.3127 I-0.0625 J-0.0013
G1 X0.6175 Y6.4262
G3 X0.6174 Y6.4277 I-0.0625 J-0.0023
G3 X0.6151 Y6.4511 I-0.3039 J-0.0184
G1 F10.0 Z-0.13
G3 F15.0 X0.0097 Y6.392 I-0.3015 J-0.0418
G1 X0.0375 Y5.2985
G3 X0.6581 Y5.3117 I0.3103 J0.0066
G3 Y5.3127 I-0.0625 J-0.0013
G1 X0.6175 Y6.4262
G3 X0.6174 Y6.4277 I-0.0625 J-0.0023
G3 X0.6151 Y6.4511 I-0.3039 J-0.0184
G1 F10.0 Z-0.135
G3 F15.0 X0.0097 Y6.392 I-0.3015 J-0.0418
G1 X0.0375 Y5.2985
G3 X0.6581 Y5.3117 I0.3103 J0.0066
G3 Y5.3127 I-0.0625 J-0.0013
G1 X0.6175 Y6.4262
G3 X0.6174 Y6.4277 I-0.0625 J-0.0023
G3 X0.6151 Y6.4511 I-0.3039 J-0.0184
( TENSIONER )
S1000
G0 Z0.125
G0 X1.1001 Y2.0551
G0 Z0.0625
G1 F10.0 Z-0.01
G3 F15.0 X1.7248 Y2.0689 I0.3122 J0.0137
G1 X1.7245 Y4.0689
G3 X0.4562 Y3.5379 I-0.7452 J-0.0001
G1 X1.1001 Y2.0551
G1 F10.0 Z-0.02
G3 F15.0 X1.7248 Y2.0689 I0.3122 J0.0137
G1 X1.7245 Y4.0689
G3 X0.4562 Y3.5379 I-0.7452 J-0.0001
G1 X1.1001 Y2.0551
G1 F10.0 Z-0.03
G3 F15.0 X1.7248 Y2.0689 I0.3122 J0.0137
G1 X1.7245 Y4.0689
G3 X0.4562 Y3.5379 I-0.7452 J-0.0001
G1 X1.1001 Y2.0551
G1 F10.0 Z-0.04
G3 F15.0 X1.7248 Y2.0689 I0.3122 J0.0137
G1 X1.7245 Y4.0689
G3 X0.4562 Y3.5379 I-0.7452 J-0.0001
G1 X1.1001 Y2.0551
G1 F10.0 Z-0.05
G3 F15.0 X1.7248 Y2.0689 I0.3122 J0.0137
G1 X1.7245 Y4.0689
G3 X0.4562 Y3.5379 I-0.7452 J-0.0001
G1 X1.1001 Y2.0551
G1 F10.0 Z-0.06
G3 F15.0 X1.7248 Y2.0689 I0.3122 J0.0137
G1 X1.7245 Y4.0689
G3 X0.4562 Y3.5379 I-0.7452 J-0.0001
G1 X1.1001 Y2.0551
G1 F10.0 Z-0.07
G3 F15.0 X1.7248 Y2.0689 I0.3122 J0.0137
G1 X1.7245 Y4.0689
G3 X0.4562 Y3.5379 I-0.7452 J-0.0001
G1 X1.1001 Y2.0551
G1 F10.0 Z-0.08
G3 F15.0 X1.7248 Y2.0689 I0.3122 J0.0137
G1 X1.7245 Y4.0689
G3 X0.4562 Y3.5379 I-0.7452 J-0.0001
G1 X1.1001 Y2.0551
G1 F10.0 Z-0.09
G3 F15.0 X1.7248 Y2.0689 I0.3122 J0.0137
G1 X1.7245 Y4.0689
G3 X0.4562 Y3.5379 I-0.7452 J-0.0001
G1 X1.1001 Y2.0551
G1 F10.0 Z-0.1
G3 F15.0 X1.7248 Y2.0689 I0.3122 J0.0137
G1 X1.7245 Y4.0689
G3 X0.4562 Y3.5379 I-0.7452 J-0.0001
G1 X1.1001 Y2.0551
G1 F10.0 Z-0.11
G3 F15.0 X1.7248 Y2.0689 I0.3122 J0.0137
G1 X1.7245 Y4.0689
G3 X0.4562 Y3.5379 I-0.7452 J-0.0001
G1 X1.1001 Y2.0551
G1 F10.0 Z-0.12
G3 F15.0 X1.7248 Y2.0689 I0.3122 J0.0137
G1 X1.7245 Y4.0689
G3 X0.4562 Y3.5379 I-0.7452 J-0.0001
G1 X1.1001 Y2.0551
G1 F10.0 Z-0.13
G3 F15.0 X1.7248 Y2.0689 I0.3122 J0.0137
G1 X1.7245 Y4.0689
G3 X0.4562 Y3.5379 I-0.7452 J-0.0001
G1 X1.1001 Y2.0551
G1 F10.0 Z-0.135
G3 F15.0 X1.7248 Y2.0689 I0.3122 J0.0137
G1 X1.7245 Y4.0689
G3 X0.4562 Y3.5379 I-0.7452 J-0.0001
G1 X1.1001 Y2.0551
G0 Z0.125
G0 X0.8816 Y1.9603
G0 Z0.0625
G1 F10.0 Z-0.01
G1 F15.0 X0.5622 Y2.6961
G3 X-0.0625 Y2.6824 I-0.3122 J-0.0137
G1 Y0.6824
G3 X1.2059 Y1.2132 I0.7453 J0.0
G1 X0.8816 Y1.9603
G1 F10.0 Z-0.02
G1 F15.0 X0.5622 Y2.6961
G3 X-0.0625 Y2.6824 I-0.3122 J-0.0137
G1 Y0.6824
G3 X1.2059 Y1.2132 I0.7453 J0.0
G1 X0.8816 Y1.9603
G1 F10.0 Z-0.03
G1 F15.0 X0.5622 Y2.6961
G3 X-0.0625 Y2.6824 I-0.3122 J-0.0137
G1 Y0.6824
G3 X1.2059 Y1.2132 I0.7453 J0.0
G1 X0.8816 Y1.9603
G1 F10.0 Z-0.04
G1 F15.0 X0.5622 Y2.6961
G3 X-0.0625 Y2.6824 I-0.3122 J-0.0137
G1 Y0.6824
G3 X1.2059 Y1.2132 I0.7453 J0.0
G1 X0.8816 Y1.9603
G1 F10.0 Z-0.05
G1 F15.0 X0.5622 Y2.6961
G3 X-0.0625 Y2.6824 I-0.3122 J-0.0137
G1 Y0.6824
G3 X1.2059 Y1.2132 I0.7453 J0.0
G1 X0.8816 Y1.9603
G1 F10.0 Z-0.06
G1 F15.0 X0.5622 Y2.6961
G3 X-0.0625 Y2.6824 I-0.3122 J-0.0137
G1 Y0.6824
G3 X1.2059 Y1.2132 I0.7453 J0.0
G1 X0.8816 Y1.9603
G1 F10.0 Z-0.07
G1 F15.0 X0.5622 Y2.6961
G3 X-0.0625 Y2.6824 I-0.3122 J-0.0137
G1 Y0.6824
G3 X1.2059 Y1.2132 I0.7453 J0.0
G1 X0.8816 Y1.9603
G1 F10.0 Z-0.08
G1 F15.0 X0.5622 Y2.6961
G3 X-0.0625 Y2.6824 I-0.3122 J-0.0137
G1 Y0.6824
G3 X1.2059 Y1.2132 I0.7453 J0.0
G1 X0.8816 Y1.9603
G1 F10.0 Z-0.09
G1 F15.0 X0.5622 Y2.6961
G3 X-0.0625 Y2.6824 I-0.3122 J-0.0137
G1 Y0.6824
G3 X1.2059 Y1.2132 I0.7453 J0.0
G1 X0.8816 Y1.9603
G1 F10.0 Z-0.1
G1 F15.0 X0.5622 Y2.6961
G3 X-0.0625 Y2.6824 I-0.3122 J-0.0137
G1 Y0.6824
G3 X1.2059 Y1.2132 I0.7453 J0.0
G1 X0.8816 Y1.9603
G1 F10.0 Z-0.11
G1 F15.0 X0.5622 Y2.6961
G3 X-0.0625 Y2.6824 I-0.3122 J-0.0137
G1 Y0.6824
G3 X1.2059 Y1.2132 I0.7453 J0.0
G1 X0.8816 Y1.9603
G1 F10.0 Z-0.12
G1 F15.0 X0.5622 Y2.6961
G3 X-0.0625 Y2.6824 I-0.3122 J-0.0137
G1 Y0.6824
G3 X1.2059 Y1.2132 I0.7453 J0.0
G1 X0.8816 Y1.9603
G1 F10.0 Z-0.13
G1 F15.0 X0.5622 Y2.6961
G3 X-0.0625 Y2.6824 I-0.3122 J-0.0137
G1 Y0.6824
G3 X1.2059 Y1.2132 I0.7453 J0.0
G1 X0.8816 Y1.9603
G1 F10.0 Z-0.135
G1 F15.0 X0.5622 Y2.6961
G3 X-0.0625 Y2.6824 I-0.3122 J-0.0137
G1 Y0.6824
G3 X1.2059 Y1.2132 I0.7453 J0.0
G1 X0.8816 Y1.9603
G0 Z0.125
M5
M30
