; generated by Slic3r 1.1.7 on 2014-11-13 at 21:38:52

; perimeters extrusion width = 0.40mm
; infill extrusion width = 0.42mm
; solid infill extrusion width = 0.42mm
; top infill extrusion width = 0.42mm
; support material extrusion width = 0.40mm

G21 ; set units to millimeters
M104 S190 ; set temperature
G28
G29
G1 Z5 F5000 ; lift nozzle

M109 S190 ; wait for temperature to be reached
G90 ; use absolute coordinates
G92 E0
M82 ; use absolute distances for extrusion
M204 S1500
G1 F1800.000 E-1.00000
G92 E0
G1 Z0.350 F7800.000
G1 X120.689 Y127.867 F7800.000
G1 E1.00000 F1800.000
G1 X122.463 Y126.246 E1.22231 F1080.000
G1 X124.668 Y125.291 E1.44461
G1 X125.963 Y125.092 E1.56571
G1 X151.534 Y123.514 E3.93533
G1 X173.596 Y123.514 E5.97588
G1 X175.967 Y123.912 E6.19819
G1 X178.078 Y125.060 E6.42049 F1080.000
G1 X179.700 Y126.834 E6.64280
G1 X180.655 Y129.040 E6.86510
G1 X180.867 Y130.785 E7.02778
G1 X180.867 Y158.825 E9.62114
G1 X180.470 Y161.195 E9.84344
G1 X179.793 Y162.628 E9.99007
G1 X177.102 Y167.012 E10.46577
G1 X175.524 Y168.824 E10.68807
G1 X172.535 Y170.294 E10.99611
G1 X150.085 Y175.457 E13.12671
G1 X148.456 Y175.642 E13.27841
G1 X126.414 Y175.642 E15.31704
G1 X124.044 Y175.245 E15.53934
G1 X121.932 Y174.096 E15.76165
G1 X120.311 Y172.322 E15.98395
G1 X119.356 Y170.117 E16.20626
G1 X119.143 Y168.371 E16.36894
G1 X119.143 Y132.349 E19.70059
G1 X119.540 Y129.979 E19.92290
G1 X120.660 Y127.920 E20.13965
G1 X121.262 Y128.197 F7800.000
G1 X121.319 Y128.098 E20.15018 F1080.000
G1 X123.072 Y126.617 E20.36247
G1 X126.002 Y125.727 E20.64568
G1 X151.534 Y124.150 E23.01165
G1 X173.596 Y124.150 E25.05220
G1 X175.857 Y124.547 E25.26450
G1 X177.847 Y125.690 E25.47680 F1080.000
G1 X179.329 Y127.443 E25.68909
G1 X180.124 Y129.596 E25.90139
G1 X180.232 Y130.785 E26.01181
G1 X180.232 Y158.825 E28.60517
G1 X179.835 Y161.085 E28.81747
G1 X179.251 Y162.296 E28.94177
G1 X176.561 Y166.679 E29.41746
G1 X175.040 Y168.398 E29.62976
G1 X172.393 Y169.675 E29.90155
G1 X149.943 Y174.837 E32.03215
G1 X148.456 Y175.006 E32.17059
G1 X126.414 Y175.006 E34.20922
G1 X124.154 Y174.609 E34.42152
G1 X122.163 Y173.466 E34.63381
G1 X120.682 Y171.713 E34.84611
G1 X119.886 Y169.560 E35.05841
G1 X119.779 Y168.371 E35.16883
G1 X119.779 Y132.349 E38.50049
G1 X120.176 Y130.089 E38.71278
G1 X121.233 Y128.249 E38.90900
G1 F1800.000 E37.90900
G92 E0
G1 X122.993 Y129.928 F7800.000
G1 E1.00000 F1800.000
G1 X124.703 Y128.218 E1.22366 F1080.000
G1 X130.217 Y128.218 E1.73366
G1 X131.118 Y129.118 E1.85145
G1 X131.284 Y129.207 E1.86889
G1 X131.616 Y129.273 E1.90025
G1 X132.720 Y130.079 E2.02658
G1 X132.881 Y130.140 E2.04255
G1 X133.063 Y130.156 E2.05946
G1 X135.031 Y131.777 E2.29520
G1 X135.910 Y134.794 E2.58587
G1 X135.984 Y135.565 E2.65755
G1 X135.902 Y136.469 E2.74147
G1 X135.876 Y136.561 E2.75030
G1 X135.880 Y136.752 E2.76802
G1 X136.075 Y137.337 E2.82506
G1 X136.408 Y137.578 E2.86304
G1 X138.528 Y137.578 E3.05913
G1 X138.896 Y137.225 E3.10632
G1 X138.945 Y136.117 E3.20892
G1 X139.008 Y135.875 E3.23202
G1 X139.002 Y135.691 E3.24904
G1 X138.627 Y134.561 E3.35916
G1 X140.421 Y130.982 E3.72950
G1 X141.365 Y130.668 E3.82148
G1 X141.556 Y130.503 E3.84487
G1 X141.874 Y129.867 E3.91064
G1 X143.493 Y129.329 E4.06843
G1 X143.620 Y129.251 E4.08214
G1 X144.653 Y128.218 E4.21731
G1 X148.122 Y128.218 E4.53816
G1 X148.356 Y128.121 E4.56155
G1 X149.823 Y126.654 E4.75344
G1 X175.307 Y126.654 E7.11056
G1 X177.728 Y129.074 E7.42712
G1 X177.728 Y160.536 E10.33704 F1080.000
G1 X175.141 Y163.122 E10.67531
G1 X175.047 Y163.327 E10.69624
G1 X174.800 Y165.287 E10.87892
G1 X172.461 Y167.339 E11.16670
G1 X167.725 Y167.339 E11.60479
G1 X165.417 Y165.393 E11.88401
G1 X165.117 Y163.642 E12.04836
G1 X165.078 Y163.282 E12.08184
G1 X164.716 Y162.956 E12.12691
G1 X160.414 Y162.956 E12.52477
G1 X160.052 Y163.282 E12.56984
G1 X160.013 Y163.642 E12.60331
G1 X159.713 Y165.393 E12.76767
G1 X157.405 Y167.339 E13.04689
G1 X152.960 Y167.339 E13.45809
G1 X152.587 Y167.712 E13.50679
G1 X152.587 Y170.082 E13.72603
G1 X150.167 Y172.502 E14.04260
G1 X124.703 Y172.502 E16.39779
G1 X122.283 Y170.082 E16.71436
G1 X122.283 Y130.638 E20.36258
G1 X122.951 Y129.970 E20.44994
G1 F1800.000 E19.44994
G92 E0
G1 X151.952 Y166.858 F7800.000
G1 E1.00000 F1800.000
G1 X151.952 Y169.819 E1.27386 F1080.000
G1 X149.904 Y171.867 E1.54173
G1 X124.966 Y171.867 E3.84822
G1 X122.918 Y169.819 E4.11608
G1 X122.918 Y130.901 E7.71560
G1 X124.966 Y128.853 E7.98346
G1 X129.954 Y128.853 E8.44476
G1 X130.804 Y129.704 E8.55604
G1 X130.971 Y129.793 E8.57347
G1 X131.355 Y129.869 E8.60970
G1 X132.487 Y130.696 E8.73933
G1 X132.648 Y130.757 E8.75530
G1 X132.810 Y130.772 E8.77035
G1 X134.475 Y132.143 E8.96982
G1 X135.283 Y134.914 E9.23685
G1 X135.346 Y135.567 E9.29750
G1 X135.275 Y136.352 E9.37040
G1 X135.211 Y136.575 E9.39184
G1 X135.215 Y136.767 E9.40956
G1 X135.616 Y137.973 E9.52715
G1 X135.949 Y138.213 E9.56514
G1 X139.269 Y138.213 E9.87219
G1 X139.650 Y137.763 E9.92671
G1 X139.538 Y137.098 E9.98912
G1 X139.577 Y136.212 E10.07115
G1 X139.671 Y135.853 E10.10544
G1 X139.665 Y135.669 E10.12246
G1 X139.313 Y134.611 E10.22562
G1 X140.871 Y131.502 E10.54725
G1 X141.815 Y131.188 E10.63924
G1 X142.006 Y131.023 E10.66263
G1 X142.325 Y130.387 E10.72839
G1 X143.836 Y129.885 E10.87574
G1 X143.963 Y129.807 E10.88946
G1 X144.916 Y128.853 E11.01418
G1 X148.385 Y128.853 E11.33503
G1 X148.619 Y128.757 E11.35842
G1 X150.086 Y127.290 E11.55031
G1 X175.044 Y127.290 E13.85872
G1 X177.092 Y129.337 E14.12659
G1 X177.092 Y160.273 E16.98780
G1 X175.044 Y162.320 E17.25567
G1 X174.801 Y162.320 E17.27817
G1 X174.431 Y162.679 E17.32579
G1 X174.398 Y163.463 E17.39836
G1 X174.201 Y164.967 E17.53870
G1 X172.222 Y166.704 E17.78221
G1 X167.957 Y166.704 E18.17668
G1 X166.004 Y165.057 E18.41294
G1 X165.747 Y163.554 E18.55396
G1 X165.701 Y162.683 E18.63464
G1 X165.330 Y162.320 E18.68260
G1 X159.800 Y162.320 E19.19406
G1 X159.429 Y162.683 E19.24202
G1 X159.383 Y163.554 E19.32270
G1 X159.126 Y165.057 E19.46371
G1 X157.173 Y166.704 E19.69998
G1 X152.908 Y166.704 E20.09446
G1 X152.698 Y166.520 E20.12026
G1 X152.006 Y166.833 E20.19054
G1 X151.316 Y165.454 F7800.000
G1 X151.316 Y169.555 E20.56986 F1080.000
G1 X149.640 Y171.231 E20.78902
G1 X125.230 Y171.231 E23.04681
G1 X123.554 Y169.555 E23.26597
G1 X123.554 Y131.165 E26.81678
G1 X125.230 Y129.489 E27.03594
G1 X129.690 Y129.489 E27.44854
G1 X130.491 Y130.290 E27.55329
G1 X130.658 Y130.379 E27.57073
G1 X131.093 Y130.465 E27.61182
G1 X132.254 Y131.313 E27.74476
G1 X132.416 Y131.374 E27.76073
G1 X132.558 Y131.387 E27.77392
G1 X133.920 Y132.509 E27.93712
G1 X134.656 Y135.035 E28.18050
G1 X134.707 Y135.569 E28.23012
G1 X134.647 Y136.235 E28.29200
G1 X134.546 Y136.589 E28.32606
G1 X134.550 Y136.781 E28.34378
G1 X134.881 Y137.776 E28.44080
G1 X134.646 Y138.246 E28.48934
G1 X135.018 Y138.849 E28.55493
G1 X140.150 Y138.849 E29.02955
G1 X140.528 Y138.293 E29.09178
G1 X140.276 Y137.654 E29.15527
G1 X140.176 Y137.059 E29.21108
G1 X140.209 Y136.307 E29.28071
G1 X140.333 Y135.831 E29.32619
G1 X140.327 Y135.647 E29.34321
G1 X139.999 Y134.660 E29.43941
G1 X141.321 Y132.022 E29.71234
G1 X142.265 Y131.709 E29.80432
G1 X142.456 Y131.543 E29.82771
G1 X142.775 Y130.907 E29.89347
G1 X144.180 Y130.441 E30.03038
G1 X144.306 Y130.363 E30.04410
G1 X145.180 Y129.489 E30.15838
G1 X148.648 Y129.489 E30.47923
G1 X148.882 Y129.392 E30.50262
G1 X150.349 Y127.925 E30.69451
G1 X174.781 Y127.925 E32.95422
G1 X176.456 Y129.601 E33.17338
G1 X176.456 Y160.009 E35.98589
G1 X174.781 Y161.685 E36.20506
G1 X174.161 Y161.685 E36.26236
G1 X173.789 Y162.057 E36.31106
G1 X173.777 Y163.255 E36.42184
G1 X173.602 Y164.647 E36.55165
G1 X171.982 Y166.068 E36.75088
G1 X168.189 Y166.068 E37.10174
G1 X166.591 Y164.721 E37.29504
G1 X166.357 Y163.287 E37.42941
G1 X166.340 Y162.057 E37.54316
G1 X165.968 Y161.685 E37.59186
G1 X159.162 Y161.685 E38.22133
G1 X158.790 Y162.057 E38.27004
G1 X158.773 Y163.287 E38.38379
G1 X158.539 Y164.721 E38.51815
G1 X156.941 Y166.068 E38.71146
G1 X153.147 Y166.068 E39.06232
G1 X152.063 Y165.116 E39.19580
G1 X151.371 Y165.430 E39.26607
G1 X150.680 Y165.454 F7800.000
G1 X150.680 Y169.292 E39.62104 F1080.000
G1 X149.377 Y170.595 E39.79150
G1 X125.493 Y170.595 E42.00059
G1 X124.190 Y169.292 E42.17105
G1 X124.190 Y131.428 E45.67316
G1 X125.493 Y130.125 E45.84362
G1 X129.427 Y130.125 E46.20751
G1 X130.178 Y130.876 E46.30574
G1 X130.344 Y130.965 E46.32318
G1 X130.832 Y131.061 E46.36913
G1 X132.021 Y131.930 E46.50537
G1 X132.183 Y131.991 E46.52134
G1 X132.305 Y132.002 E46.53268
G1 X133.364 Y132.875 E46.65961
G1 X134.029 Y135.156 E46.87935
G1 X134.069 Y135.571 E46.91794
G1 X134.019 Y136.118 E46.96878
G1 X133.881 Y136.604 E47.01547
G1 X133.885 Y136.795 E47.03319
G1 X134.195 Y137.727 E47.12399
G1 X133.616 Y138.881 E47.24340
G1 X133.989 Y139.485 E47.30899
G1 X141.084 Y139.485 E47.96527
G1 X141.463 Y138.928 E48.02750
G1 X140.892 Y137.483 E48.17122
G1 X140.814 Y137.020 E48.21463
G1 X140.842 Y136.402 E48.27186
G1 X140.996 Y135.809 E48.32852
G1 X140.990 Y135.625 E48.34554
G1 X140.685 Y134.710 E48.43478
G1 X141.772 Y132.542 E48.65901
G1 X142.715 Y132.229 E48.75099
G1 X142.907 Y132.063 E48.77438
G1 X143.225 Y131.428 E48.84014
G1 X144.523 Y130.996 E48.96660
G1 X144.649 Y130.919 E48.98032
G1 X145.443 Y130.125 E49.08416
G1 X148.912 Y130.125 E49.40501
G1 X149.145 Y130.028 E49.42840
G1 X150.612 Y128.561 E49.62029
G1 X174.518 Y128.561 E51.83130
G1 X175.821 Y129.864 E52.00176 F1080.000
G1 X175.821 Y159.746 E54.76557
G1 X174.518 Y161.049 E54.93603
G1 X173.526 Y161.049 E55.02777
G1 X173.153 Y161.422 E55.07648
G1 X173.142 Y163.219 E55.24273
G1 X173.002 Y164.327 E55.34605
G1 X171.743 Y165.432 E55.50101
G1 X168.421 Y165.432 E55.80825
G1 X167.179 Y164.384 E55.95860
G1 X166.991 Y163.239 E56.06593
G1 X166.976 Y161.422 E56.23406
G1 X166.603 Y161.049 E56.28276
G1 X158.527 Y161.049 E57.02981
G1 X158.154 Y161.422 E57.07851
G1 X158.139 Y163.239 E57.24664
G1 X157.951 Y164.384 E57.35397
G1 X156.709 Y165.432 E57.50432
G1 X153.387 Y165.432 E57.81156
G1 X152.128 Y164.327 E57.96652
G1 X151.988 Y163.219 E58.06984
G1 X151.977 Y161.422 E58.23609
G1 X151.604 Y161.049 E58.28480
G1 X151.053 Y161.049 E58.33582
G1 X150.680 Y161.422 E58.38452
G1 X150.680 Y165.394 E58.75197
G1 F1800.000 E57.75197
G92 E0
G1 X132.733 Y140.120 F7800.000
G1 E1.00000 F1800.000
G1 X142.019 Y140.120 E1.85883 F1080.000
G1 X142.397 Y139.564 E1.92106
G1 X141.508 Y137.312 E2.14502
G1 X141.452 Y136.981 E2.17602
G1 X141.474 Y136.497 E2.22085
G1 X141.558 Y136.173 E2.25186
G1 X141.667 Y135.955 E2.27437
G1 X141.685 Y135.703 E2.29776
G1 X141.372 Y134.759 E2.38974
G1 X142.222 Y133.062 E2.56527
G1 X143.166 Y132.749 E2.65725
G1 X143.357 Y132.583 E2.68064
G1 X143.675 Y131.948 E2.74640
G1 X144.866 Y131.552 E2.86242
G1 X144.992 Y131.474 E2.87614
G1 X145.706 Y130.760 E2.96954
G1 X149.573 Y130.760 E3.32715
G1 X149.945 Y130.388 E3.37585
G1 X149.945 Y130.127 E3.39995
G1 X150.876 Y129.196 E3.52171
G1 X174.254 Y129.196 E5.68402
G1 X175.185 Y130.127 E5.80577
G1 X175.185 Y159.483 E8.52088
G1 X174.254 Y160.414 E8.64264
G1 X172.890 Y160.414 E8.76882
G1 X172.518 Y160.786 E8.81752
G1 X172.507 Y163.183 E9.03927
G1 X172.403 Y164.007 E9.11609
G1 X171.504 Y164.797 E9.22678
G1 X168.654 Y164.797 E9.49040
G1 X167.766 Y164.048 E9.59780
G1 X167.626 Y163.192 E9.67808
G1 X167.611 Y160.786 E9.90059
G1 X167.239 Y160.414 E9.94930
G1 X157.891 Y160.414 E10.81392
G1 X157.519 Y160.786 E10.86262
G1 X157.504 Y163.192 E11.08514
G1 X157.364 Y164.048 E11.16542
G1 X156.476 Y164.797 E11.27281
G1 X153.626 Y164.797 E11.53644
G1 X152.727 Y164.007 E11.64713
G1 X152.623 Y163.183 E11.72396
G1 X152.612 Y160.786 E11.94570
G1 X152.240 Y160.414 E11.99440
G1 X150.417 Y160.414 E12.16300
G1 X150.045 Y160.786 E12.21170
G1 X150.045 Y169.029 E12.97411
G1 X149.114 Y169.960 E13.09586
G1 X125.756 Y169.960 E15.25625
G1 X124.825 Y169.029 E15.37800
G1 X124.825 Y131.691 E18.83141
G1 X125.756 Y130.760 E18.95317
G1 X129.164 Y130.760 E19.26836
G1 X129.865 Y131.461 E19.36007
G1 X130.031 Y131.550 E19.37751
G1 X130.570 Y131.658 E19.42832
G1 X131.789 Y132.547 E19.56787
G1 X131.950 Y132.608 E19.58384
G1 X132.052 Y132.617 E19.59331
G1 X132.809 Y133.241 E19.68398
G1 X133.402 Y135.276 E19.88007
G1 X133.431 Y135.573 E19.90764
G1 X133.392 Y136.002 E19.94745
G1 X133.310 Y136.288 E19.97502
G1 X133.213 Y136.482 E19.99503
G1 X133.195 Y136.734 E20.01842
G1 X133.508 Y137.678 E20.11040
G1 X133.019 Y138.654 E20.21145
G1 X132.882 Y138.849 E20.23348
G1 X132.404 Y139.348 E20.29741
G1 X132.710 Y140.065 E20.36951
G1 F1800.000 E19.36951
G92 E0
G1 X130.387 Y140.756 F7800.000
G1 E1.00000 F1800.000
G1 X144.089 Y140.756 E2.26734 F1080.000
G1 X144.378 Y139.885 E2.35220
G1 X143.416 Y139.168 E2.46319
G1 X143.228 Y139.103 E2.48158
G1 X142.769 Y138.776 E2.53375
G1 X142.123 Y137.141 E2.69632
G1 X142.090 Y136.942 E2.71493
G1 X142.106 Y136.592 E2.74735
G1 X142.156 Y136.398 E2.76595
G1 X142.353 Y136.004 E2.80662
G1 X142.371 Y135.752 E2.83000
G1 X142.058 Y134.808 E2.92199
G1 X142.672 Y133.583 E3.04881
G1 X143.616 Y133.269 E3.14080
G1 X143.807 Y133.104 E3.16418
G1 X144.126 Y132.468 E3.22995
G1 X145.053 Y132.160 E3.32036
G1 X145.235 Y132.130 E3.33737
G1 X145.969 Y131.396 E3.43343
G1 X148.851 Y131.396 E3.69992
G1 X149.796 Y132.341 E3.82354
G1 X150.580 Y132.016 E3.90211
G1 X150.580 Y130.391 E4.05244
G1 X151.139 Y129.832 E4.12549
G1 X173.991 Y129.832 E6.23910
G1 X174.550 Y130.391 E6.31215
G1 X174.550 Y159.219 E8.97856
G1 X173.991 Y159.778 E9.05161
G1 X172.254 Y159.778 E9.21223
G1 X171.882 Y160.150 E9.26093
G1 X171.882 Y162.854 E9.51097
G1 X171.869 Y163.195 E9.54253
G1 X171.804 Y163.688 E9.58851
G1 X171.264 Y164.161 E9.65492
G1 X168.886 Y164.161 E9.87493
G1 X168.353 Y163.712 E9.93937
G1 X168.266 Y163.204 E9.98704
G1 X168.248 Y162.862 E10.01872
G1 X168.247 Y160.150 E10.26953
G1 X167.875 Y159.778 E10.31823
G1 X157.255 Y159.778 E11.30044
G1 X156.883 Y160.150 E11.34914
G1 X156.882 Y162.862 E11.59995
G1 X156.864 Y163.204 E11.63163
G1 X156.777 Y163.712 E11.67930
G1 X156.244 Y164.161 E11.74374
G1 X153.866 Y164.161 E11.96375
G1 X153.326 Y163.688 E12.03016
G1 X153.261 Y163.195 E12.07615
G1 X153.248 Y162.854 E12.10770
G1 X153.248 Y160.150 E12.35773
G1 X152.876 Y159.778 E12.40644
G1 X151.139 Y159.778 E12.56706
G1 X150.194 Y158.833 E12.69068
G1 X149.409 Y159.158 E12.76924
G1 X149.409 Y168.766 E13.65787
G1 X148.851 Y169.324 E13.73092
G1 X126.019 Y169.324 E15.84261
G1 X125.461 Y168.766 E15.91566
G1 X125.461 Y131.954 E19.32037
G1 X126.019 Y131.396 E19.39342
G1 X128.901 Y131.396 E19.65991
G1 X129.552 Y132.047 E19.74510
G1 X129.718 Y132.136 E19.76254
G1 X130.309 Y132.254 E19.81821
G1 X131.556 Y133.164 E19.96107
G1 X131.718 Y133.225 E19.97704
G1 X131.799 Y133.233 E19.98465
G1 X132.253 Y133.607 E20.03905
G1 X132.775 Y135.397 E20.21149
G1 X132.792 Y135.575 E20.22803
G1 X132.764 Y135.885 E20.25683
G1 X132.715 Y136.057 E20.27337
G1 X132.527 Y136.432 E20.31221
G1 X132.509 Y136.684 E20.33560
G1 X132.822 Y137.628 E20.42759
G1 X132.472 Y138.327 E20.49988
G1 X132.390 Y138.444 E20.51310
G1 X132.218 Y138.623 E20.53607
G1 X132.105 Y138.710 E20.54928
G1 X130.140 Y139.804 E20.75727
G1 X130.372 Y140.698 E20.84268
G1 F1800.000 E19.84268
G92 E0
G1 X151.216 Y130.654 F7800.000
G1 E1.00000 F1800.000
G1 X151.402 Y130.468 E1.02435 F1080.000
G1 X173.728 Y130.468 E3.08925
G1 X173.914 Y130.654 E3.11360
G1 X173.914 Y158.956 E5.73131
G1 X173.728 Y159.142 E5.75566
G1 X171.619 Y159.142 E5.95072
G1 X171.246 Y159.515 E5.99942
G1 X171.238 Y163.112 E6.33213
G1 X171.205 Y163.368 E6.35598
G1 X171.025 Y163.526 E6.37812
G1 X169.118 Y163.526 E6.55451
G1 X168.940 Y163.376 E6.57599
G1 X168.894 Y163.097 E6.60218
G1 X168.883 Y162.835 E6.62644
G1 X168.883 Y159.515 E6.93349
G1 X168.510 Y159.142 E6.98220
G1 X156.620 Y159.142 E8.08198
G1 X156.247 Y159.515 E8.13068
G1 X156.247 Y162.835 E8.43774
G1 X156.236 Y163.097 E8.46199
G1 X156.190 Y163.376 E8.48818
G1 X156.012 Y163.526 E8.50966
G1 X154.105 Y163.526 E8.68605
G1 X153.925 Y163.368 E8.70819
G1 X153.892 Y163.112 E8.73204
G1 X153.884 Y159.515 E9.06475
G1 X153.511 Y159.142 E9.11345
G1 X151.402 Y159.142 E9.30851
G1 X151.216 Y158.956 E9.33286
