; generated by Slic3r 1.1.7 on 2014-11-11 at 22:47:19

; perimeters extrusion width = 0.40mm
; infill extrusion width = 0.42mm
; solid infill extrusion width = 0.42mm
; top infill extrusion width = 0.42mm
; support material extrusion width = 0.40mm

G21 ; set units to millimeters
M104 S190 ; set temperature
G28
G29
G1 Z5 F5000 ; lift nozzle

M109 S190 ; wait for temperature to be reached
G90 ; use absolute coordinates
G92 E0
M82 ; use absolute distances for extrusion
M204 S1500
G1 F1800.000 E-1.00000
G92 E0
G1 Z0.350 F7800.000
G1 X120.833 Y119.175 F7800.000
G1 E1.00000 F1800.000
G1 X122.713 Y117.678 E1.22231 F1080.000
G1 X124.979 Y116.875 E1.44461
G1 X126.240 Y116.765 E1.56167
G1 X148.807 Y116.783 E3.64891
G1 X176.176 Y118.692 E6.18650 F1080.000
G1 X178.513 Y119.254 E6.40881
G1 X180.540 Y120.546 E6.63111
G1 X182.034 Y122.429 E6.85342
G1 X182.833 Y124.695 E7.07572
G1 X182.941 Y125.946 E7.19181
G1 X182.924 Y148.502 E9.27807
G1 X181.015 Y176.459 E11.86986
G1 X180.457 Y178.797 E12.09216
G1 X179.167 Y180.825 E12.31447
G1 X177.287 Y182.322 E12.53677
G1 X175.021 Y183.125 E12.75908
G1 X173.760 Y183.235 E12.87614
G1 X151.194 Y183.217 E14.96338
G1 X123.824 Y181.308 E17.50097
G1 X121.487 Y180.746 E17.72328
G1 X119.460 Y179.454 E17.94559
G1 X117.966 Y177.571 E18.16789
G1 X117.167 Y175.305 E18.39020
G1 X117.059 Y174.054 E18.50628
G1 X117.076 Y151.498 E20.59254
G1 X118.985 Y123.541 E23.18433
G1 X119.543 Y121.203 E23.40664
G1 X120.800 Y119.225 E23.62339
G1 X121.383 Y119.543 F7800.000
G1 X121.446 Y119.448 E23.63392 F1080.000
G1 X123.296 Y118.089 E23.84622
G1 X126.240 Y117.401 E24.12583
G1 X148.762 Y117.417 E26.20897
G1 X176.132 Y119.326 E28.74656 F1080.000
G1 X178.359 Y119.880 E28.95886
G1 X180.265 Y121.159 E29.17115
G1 X181.621 Y123.011 E29.38345
G1 X182.306 Y125.946 E29.66219
G1 X182.290 Y148.459 E31.74445
G1 X180.381 Y176.416 E34.33623
G1 X179.831 Y178.644 E34.54853
G1 X178.554 Y180.552 E34.76083
G1 X176.704 Y181.911 E34.97312
G1 X173.760 Y182.599 E35.25274
G1 X151.238 Y182.583 E37.33588
G1 X123.868 Y180.674 E39.87347
G1 X121.641 Y180.120 E40.08577
G1 X119.735 Y178.841 E40.29807
G1 X118.379 Y176.989 E40.51036
G1 X117.694 Y174.054 E40.78910
G1 X117.710 Y151.541 E42.87136
G1 X119.619 Y123.584 E45.46315
G1 X120.170 Y121.356 E45.67544
G1 X121.349 Y119.592 E45.87167
G1 F1800.000 E44.87167
G92 E0
G1 X136.306 Y129.262 F7800.000
G1 E1.00000 F1800.000
G1 X138.394 Y129.262 E1.19319 F1080.000
G1 X138.772 Y128.849 E1.24497
G1 X138.726 Y128.326 E1.29357
G1 X138.811 Y127.435 E1.37632
G1 X138.833 Y127.360 E1.38356
G1 X138.829 Y127.167 E1.40136
G1 X138.456 Y126.045 E1.51072
G1 X140.062 Y122.842 E1.84210
G1 X141.005 Y122.529 E1.93408
G1 X141.197 Y122.363 E1.95747
G1 X141.509 Y121.739 E2.02204
G1 X142.987 Y121.248 E2.16610
G1 X143.114 Y121.170 E2.17981
G1 X144.379 Y119.905 E2.34532
G1 X150.012 Y119.905 E2.86631
G1 X152.432 Y122.325 E3.18288
G1 X152.432 Y124.958 E3.42639
G1 X153.257 Y125.267 E3.50785
G1 X153.706 Y124.752 E3.57110
G1 X155.676 Y124.496 E3.75483
G1 X155.881 Y124.401 E3.77573
G1 X158.469 Y121.814 E4.11413
G1 X177.381 Y121.814 E5.86339
G1 X179.802 Y124.235 E6.17995
G1 X179.802 Y129.867 E6.70095
G1 X177.793 Y131.876 E6.96370
G1 X177.733 Y131.959 E6.97315
G1 X176.897 Y133.628 E7.14579
G1 X176.120 Y134.476 E7.25214
G1 X174.973 Y135.184 E7.37687
G1 X173.867 Y135.498 E7.48323
G1 X170.817 Y135.498 E7.76532
G1 X170.444 Y135.871 E7.81403
G1 X170.444 Y137.925 E8.00403
G1 X170.634 Y138.232 E8.03740
G1 X171.009 Y138.420 E8.07621
G1 X171.153 Y138.454 E8.08993
G1 X173.857 Y138.454 E8.34004
G1 X173.930 Y138.495 E8.34772
G1 X174.119 Y138.534 E8.36556
G1 X174.239 Y138.523 E8.37676
G1 X176.198 Y139.382 E8.57454
G1 X177.851 Y141.552 E8.82693
G1 X177.963 Y141.645 E8.84036
G1 X178.172 Y141.750 E8.86199
G1 X178.500 Y142.735 E8.95803
G1 X178.578 Y142.861 E8.97174
G1 X179.802 Y144.085 E9.13183
G1 X179.802 Y149.718 E9.65282
G1 X177.381 Y152.138 E9.96938
G1 X174.076 Y152.138 E10.27509
G1 X173.767 Y152.963 E10.35656
G1 X174.954 Y154.000 E10.50237
G1 X175.210 Y155.970 E10.68612
G1 X175.305 Y156.175 E10.70702
G1 X177.892 Y158.762 E11.04542
G1 X177.892 Y177.675 E12.79467
G1 X175.472 Y180.095 E13.11124
G1 X169.839 Y180.095 E13.63223
G1 X169.234 Y179.491 E13.71133
G1 X169.073 Y179.403 E13.72830
G1 X168.911 Y179.368 E13.74366
G1 X168.100 Y178.750 E13.83795
G1 X167.879 Y178.682 E13.85935
G1 X166.970 Y177.914 E13.96939
G1 X166.822 Y177.844 E13.98452
G1 X166.352 Y177.754 E14.02884
G1 X164.495 Y175.692 E14.28549
G1 X164.196 Y172.188 E14.61072
G1 X164.226 Y171.620 E14.66332
G1 X164.306 Y171.199 E14.70293
G1 X163.925 Y170.738 E14.75830
G1 X161.879 Y170.738 E14.94751
G1 X161.499 Y171.265 E15.00767
G1 X161.544 Y171.401 E15.02091
G1 X161.248 Y171.991 E15.08189
G1 X161.230 Y172.243 E15.10528
G1 X161.544 Y173.187 E15.19726
G1 X159.676 Y176.913 E15.58283
G1 X158.533 Y177.951 E15.72562
G1 X158.315 Y178.034 E15.74716
G1 X158.139 Y178.194 E15.76913
G1 X157.868 Y178.736 E15.82516
G1 X156.612 Y179.153 E15.94759
G1 X156.485 Y179.231 E15.96131
G1 X155.621 Y180.095 E16.07436
G1 X149.988 Y180.095 E16.59535
G1 X147.568 Y177.675 E16.91192
G1 X147.568 Y175.042 E17.15543
G1 X146.743 Y174.733 E17.23689
G1 X146.294 Y175.248 E17.30014
G1 X144.324 Y175.504 E17.48388
G1 X144.119 Y175.599 E17.50478
G1 X141.531 Y178.186 E17.84317
G1 X122.619 Y178.186 E19.59244
G1 X120.198 Y175.765 E19.90900
G1 X120.198 Y170.133 E20.42999
G1 X121.436 Y168.895 E20.59182
G1 X121.495 Y168.813 E20.60127
G1 X122.595 Y166.618 E20.82830
G1 X123.539 Y166.305 E20.92028
G1 X123.730 Y166.139 E20.94367
G1 X124.078 Y165.445 E21.01546
G1 X127.326 Y164.366 E21.33202
G1 X127.529 Y164.467 E21.35298
G1 X127.673 Y164.502 E21.36670
G1 X129.183 Y164.502 E21.50640
G1 X129.556 Y164.129 E21.55510
G1 X129.556 Y161.918 E21.75962
G1 X129.183 Y161.546 E21.80832
G1 X127.612 Y161.546 E21.95371
G1 X127.065 Y161.671 E22.00554
G1 X125.285 Y161.329 E22.17324
G1 X123.054 Y159.730 E22.42711
G1 X122.472 Y158.872 E22.52302
G1 X121.313 Y157.351 E22.69985
G1 X121.131 Y156.886 E22.74608
G1 X121.059 Y156.775 E22.75827
G1 X120.198 Y155.915 E22.87082
G1 X120.198 Y150.282 E23.39181
G1 X122.619 Y147.862 E23.70837
G1 X125.924 Y147.862 E24.01408
G1 X126.233 Y147.037 E24.09555
G1 X125.046 Y146.000 E24.24138
G1 X124.790 Y144.030 E24.42512
G1 X124.695 Y143.825 E24.44601
G1 X122.108 Y141.238 E24.78441
G1 X122.108 Y122.325 E26.53367
G1 X124.528 Y119.905 E26.85023
G1 X130.161 Y119.905 E27.37122
G1 X131.023 Y120.767 E27.48394
G1 X131.184 Y120.854 E27.50092
G1 X131.459 Y120.913 E27.52692
G1 X132.466 Y121.681 E27.64405
G1 X134.475 Y123.062 E27.86954
G1 X135.644 Y125.837 E28.14799
G1 X135.807 Y126.717 E28.23079
G1 X135.772 Y127.765 E28.32779
G1 X135.702 Y128.044 E28.35441
G1 X135.708 Y128.226 E28.37127
G1 X135.972 Y129.022 E28.44880
G1 X136.257 Y129.227 E28.48124
G1 X135.847 Y129.898 F7800.000
G1 X139.158 Y129.898 E28.78750 F1080.000
G1 X139.540 Y129.395 E28.84589
G1 X139.421 Y128.972 E28.88649
G1 X139.364 Y128.328 E28.94629
G1 X139.438 Y127.554 E29.01817
G1 X139.498 Y127.346 E29.03819
G1 X139.494 Y127.154 E29.05599
G1 X139.142 Y126.095 E29.15922
G1 X140.512 Y123.363 E29.44189
G1 X141.456 Y123.049 E29.53388
G1 X141.647 Y122.883 E29.55726
G1 X141.960 Y122.259 E29.62184
G1 X143.330 Y121.804 E29.75545
G1 X143.457 Y121.726 E29.76917
G1 X144.642 Y120.540 E29.92423
G1 X149.748 Y120.540 E30.39652
G1 X151.796 Y122.588 E30.66438
G1 X151.796 Y126.652 E31.04021
G1 X152.621 Y126.961 E31.12167
G1 X154.028 Y125.350 E31.31953
G1 X155.531 Y125.146 E31.45980
G1 X156.325 Y125.113 E31.53325
G1 X156.684 Y124.743 E31.58096
G1 X156.684 Y124.498 E31.60367
G1 X158.732 Y122.450 E31.87153
G1 X177.118 Y122.450 E33.57209
G1 X179.166 Y124.498 E33.83995
G1 X179.166 Y129.604 E34.31224
G1 X177.271 Y131.500 E34.56016
G1 X177.211 Y131.582 E34.56961
G1 X176.368 Y133.264 E34.74357
G1 X175.711 Y133.982 E34.83357
G1 X174.714 Y134.597 E34.94194
G1 X173.778 Y134.863 E35.03193
G1 X170.181 Y134.863 E35.36463
G1 X169.809 Y135.235 E35.41334
G1 X169.809 Y138.764 E35.73973
G1 X170.336 Y139.145 E35.79988
G1 X170.757 Y139.005 E35.84090
G1 X170.858 Y139.056 E35.85142
G1 X171.003 Y139.090 E35.86514
G1 X173.692 Y139.090 E36.11386
G1 X173.793 Y139.146 E36.12451
G1 X173.981 Y139.186 E36.14235
G1 X174.135 Y139.171 E36.15659
G1 X175.792 Y139.898 E36.32394
G1 X177.435 Y142.055 E36.57473
G1 X177.547 Y142.147 E36.58816
G1 X177.652 Y142.200 E36.59905
G1 X177.944 Y143.078 E36.68464
G1 X178.022 Y143.204 E36.69836
G1 X179.166 Y144.348 E36.84800
G1 X179.166 Y149.455 E37.32029
G1 X177.118 Y151.503 E37.58815
G1 X172.382 Y151.503 E38.02619
G1 X172.073 Y152.327 E38.10765
G1 X174.356 Y154.322 E38.38808
G1 X174.560 Y155.825 E38.52835
G1 X174.593 Y156.618 E38.60181
G1 X174.963 Y156.978 E38.64953
G1 X175.208 Y156.978 E38.67224
G1 X177.256 Y159.026 E38.94010
G1 X177.256 Y177.412 E40.64066
G1 X175.208 Y179.460 E40.90852
G1 X170.102 Y179.460 E41.38081
G1 X169.551 Y178.909 E41.45289
G1 X169.390 Y178.821 E41.46987
G1 X169.183 Y178.776 E41.48944
G1 X168.324 Y178.122 E41.58932
G1 X168.121 Y178.055 E41.60914
G1 X167.253 Y177.322 E41.71420
G1 X167.105 Y177.251 E41.72932
G1 X166.681 Y177.170 E41.76928
G1 X165.110 Y175.425 E41.98644
G1 X164.833 Y172.177 E42.28789
G1 X164.858 Y171.697 E42.33240
G1 X164.967 Y171.129 E42.38586
G1 X165.135 Y170.633 E42.43432
G1 X164.755 Y170.102 E42.49472
G1 X160.998 Y170.102 E42.84219
G1 X160.618 Y170.630 E42.90235
G1 X160.858 Y171.352 E42.97272
G1 X160.562 Y171.941 E43.03370
G1 X160.544 Y172.193 E43.05709
G1 X160.858 Y173.137 E43.14907
G1 X159.161 Y176.523 E43.49931
G1 X158.193 Y177.400 E43.62013
G1 X157.857 Y177.530 E43.65345
G1 X157.681 Y177.689 E43.67541
G1 X157.418 Y178.215 E43.72986
G1 X156.269 Y178.597 E43.84184
G1 X156.142 Y178.675 E43.85556
G1 X155.358 Y179.460 E43.95817
G1 X150.252 Y179.460 E44.43046
G1 X148.204 Y177.412 E44.69832
G1 X148.204 Y173.348 E45.07415
G1 X147.379 Y173.039 E45.15562
G1 X145.972 Y174.650 E45.35348
G1 X144.469 Y174.854 E45.49375
G1 X143.675 Y174.887 E45.56720
G1 X143.316 Y175.257 E45.61491
G1 X143.316 Y175.502 E45.63762
G1 X141.268 Y177.550 E45.90548
G1 X122.882 Y177.550 E47.60604
G1 X120.834 Y175.502 E47.87390
G1 X120.834 Y170.396 E48.34619
G1 X121.958 Y169.272 E48.49318
G1 X122.018 Y169.189 E48.50263
G1 X123.046 Y167.138 E48.71482
G1 X123.989 Y166.825 E48.80680
G1 X124.181 Y166.659 E48.83019
G1 X124.528 Y165.965 E48.90198
G1 X127.277 Y165.052 E49.16984
G1 X127.378 Y165.103 E49.18035
G1 X127.523 Y165.137 E49.19407
G1 X129.819 Y165.137 E49.40647
G1 X130.191 Y164.765 E49.45517
G1 X130.191 Y161.211 E49.78387
G1 X129.687 Y160.830 E49.84239
G1 X129.403 Y160.910 E49.86965
G1 X127.534 Y160.910 E50.04250
G1 X127.048 Y161.021 E50.08859
G1 X125.542 Y160.731 E50.23049
G1 X123.516 Y159.279 E50.46096
G1 X122.988 Y158.501 E50.54801
G1 X121.872 Y157.037 E50.71822
G1 X121.675 Y156.530 E50.76853
G1 X121.603 Y156.420 E50.78071
G1 X120.834 Y155.652 E50.88122
G1 X120.834 Y150.545 E51.35351
G1 X122.882 Y148.497 E51.62138
G1 X127.618 Y148.497 E52.05941
G1 X127.927 Y147.673 E52.14087
G1 X125.644 Y145.678 E52.42131
G1 X125.440 Y144.175 E52.56158
G1 X125.407 Y143.382 E52.63503
G1 X125.037 Y143.022 E52.68274
G1 X124.792 Y143.022 E52.70545
G1 X122.744 Y140.974 E52.97332
G1 X122.744 Y122.588 E54.67387
G1 X124.792 Y120.540 E54.94173
G1 X129.898 Y120.540 E55.41402
G1 X130.706 Y121.349 E55.51972
G1 X130.867 Y121.436 E55.53670
G1 X131.186 Y121.505 E55.56691
G1 X132.173 Y122.257 E55.68168
G1 X133.962 Y123.481 E55.88208
G1 X135.032 Y126.020 E56.13694
G1 X135.169 Y126.765 E56.20701
G1 X135.139 Y127.675 E56.29127
G1 X135.040 Y128.068 E56.32873
G1 X135.046 Y128.250 E56.34559
G1 X135.514 Y129.657 E56.48275
G1 X135.798 Y129.863 E56.51519
G1 X135.847 Y130.533 F7800.000
G1 X139.996 Y130.533 E56.89896 F1080.000
G1 X140.378 Y130.030 E56.95735
G1 X140.049 Y128.857 E57.07003
G1 X140.002 Y128.330 E57.11896
G1 X140.065 Y127.674 E57.17996
G1 X140.163 Y127.333 E57.21277
G1 X140.160 Y127.140 E57.23057
G1 X139.829 Y126.144 E57.32766
G1 X140.962 Y123.883 E57.56163
G1 X141.906 Y123.569 E57.65361
G1 X142.097 Y123.404 E57.67700
G1 X142.410 Y122.779 E57.74158
G1 X143.674 Y122.360 E57.86474
G1 X143.800 Y122.282 E57.87846
G1 X144.905 Y121.176 E58.02308
G1 X149.485 Y121.176 E58.44667
G1 X151.161 Y122.852 E58.66583
G1 X151.161 Y140.711 E60.31768
G1 X149.485 Y142.387 E60.53684
G1 X148.864 Y142.387 E60.59431
G1 X148.492 Y142.759 E60.64301
G1 X148.481 Y143.955 E60.75366
G1 X148.298 Y145.356 E60.88434
G1 X146.682 Y146.768 E61.08287
G1 X142.890 Y146.768 E61.43360
G1 X141.291 Y145.417 E61.62726
G1 X141.060 Y143.982 E61.76163
G1 X141.044 Y142.759 E61.87479
G1 X140.671 Y142.387 E61.92349
G1 X133.869 Y142.387 E62.55267
G1 X133.496 Y142.759 E62.60138
G1 X133.480 Y143.982 E62.71454
G1 X133.249 Y145.417 E62.84892
G1 X131.650 Y146.768 E63.04257
G1 X127.858 Y146.768 E63.39329
G1 X126.241 Y145.356 E63.59184
G1 X126.059 Y143.955 E63.72250
G1 X126.048 Y142.759 E63.83315
G1 X125.676 Y142.387 E63.88185
G1 X125.055 Y142.387 E63.93932
G1 X123.379 Y140.711 E64.15848
G1 X123.379 Y122.852 E65.81033
G1 X125.055 Y121.176 E66.02949
G1 X129.635 Y121.176 E66.45308
G1 X130.389 Y121.931 E66.55176
G1 X130.550 Y122.018 E66.56874 F1080.000
G1 X130.914 Y122.097 E66.60316
G1 X131.950 Y122.886 E66.72357
G1 X132.002 Y122.905 E66.72876
G1 X133.448 Y123.899 E66.89106
G1 X134.419 Y126.203 E67.12234
G1 X134.532 Y126.813 E67.17967
G1 X134.506 Y127.586 E67.25119
G1 X134.378 Y128.092 E67.29949
G1 X134.384 Y128.274 E67.31635
G1 X134.711 Y129.258 E67.41228
G1 X134.375 Y129.930 E67.48177
G1 X134.747 Y130.533 E67.54736
G1 X135.787 Y130.533 E67.64351
G1 X135.847 Y131.169 F7800.000
G1 X140.834 Y131.169 E68.10480 F1080.000
G1 X141.216 Y130.666 E68.16319
G1 X140.677 Y128.742 E68.34795
G1 X140.641 Y128.333 E68.38601
G1 X140.692 Y127.793 E68.43614
G1 X140.829 Y127.319 E68.48172
G1 X140.825 Y127.127 E68.49952
G1 X140.515 Y126.194 E68.59048
G1 X141.412 Y124.403 E68.77575
G1 X142.356 Y124.089 E68.86773
G1 X142.547 Y123.924 E68.89112
G1 X142.860 Y123.300 E68.95569
G1 X144.017 Y122.915 E69.06842
G1 X144.143 Y122.837 E69.08214
G1 X145.169 Y121.812 E69.21631
G1 X149.222 Y121.812 E69.59120
G1 X150.525 Y123.115 E69.76166
G1 X150.525 Y140.448 E71.36481
G1 X149.222 Y141.751 E71.53526
G1 X148.228 Y141.751 E71.62717
G1 X147.856 Y142.123 E71.67588
G1 X147.846 Y143.920 E71.84206
G1 X147.701 Y145.035 E71.94600
G1 X146.443 Y146.133 E72.10041
G1 X143.122 Y146.133 E72.40756
G1 X141.879 Y145.081 E72.55819
G1 X141.694 Y143.936 E72.66550
G1 X141.679 Y142.123 E72.83315
G1 X141.307 Y141.751 E72.88185
G1 X133.233 Y141.751 E73.62862
G1 X132.861 Y142.123 E73.67732
G1 X132.846 Y143.936 E73.84497
G1 X132.661 Y145.082 E73.95230
G1 X131.418 Y146.133 E74.10291
G1 X128.097 Y146.133 E74.41006
G1 X126.839 Y145.034 E74.56448
G1 X126.694 Y143.920 E74.66841
G1 X126.684 Y142.123 E74.83460
G1 X126.312 Y141.751 E74.88330
G1 X125.318 Y141.751 E74.97520
G1 X124.015 Y140.448 E75.14566
G1 X124.015 Y123.115 E76.74881
G1 X125.318 Y121.812 E76.91927
G1 X129.371 Y121.812 E77.29415
G1 X130.072 Y122.513 E77.38583 F1080.000
G1 X130.233 Y122.600 E77.40280
G1 X130.642 Y122.688 E77.44143
G1 X131.726 Y123.514 E77.56750
G1 X131.812 Y123.545 E77.57597
G1 X132.935 Y124.317 E77.70199
G1 X133.807 Y126.387 E77.90970
G1 X133.894 Y126.861 E77.95428
G1 X133.873 Y127.496 E78.01307
G1 X133.716 Y128.116 E78.07221
G1 X133.723 Y128.298 E78.08907
G1 X134.025 Y129.209 E78.17786
G1 X133.345 Y130.566 E78.31822
G1 X133.718 Y131.169 E78.38381
G1 X135.787 Y131.169 E78.57519
G1 F1800.000 E77.57519
G92 E0
G1 X141.917 Y131.805 F7800.000
G1 E1.00000 F1800.000
G1 X142.221 Y130.967 E1.08239 F1080.000
G1 X141.881 Y130.682 E1.12344
G1 X141.305 Y128.628 E1.32082
G1 X141.279 Y128.335 E1.34800
G1 X141.320 Y127.912 E1.38726
G1 X141.401 Y127.630 E1.41444
G1 X141.496 Y127.439 E1.43417
G1 X141.515 Y127.187 E1.45756
G1 X141.201 Y126.243 E1.54954
G1 X141.863 Y124.923 E1.68611
G1 X142.806 Y124.609 E1.77810
G1 X142.998 Y124.444 E1.80148
G1 X143.310 Y123.820 E1.86606
G1 X144.360 Y123.471 E1.96834
G1 X144.486 Y123.393 E1.98206
G1 X145.432 Y122.447 E2.10579
G1 X148.959 Y122.447 E2.43197
G1 X149.889 Y123.378 E2.55373
G1 X149.889 Y140.185 E4.10818
