( Made using CamBam - http://www.cambam.co.uk )
( cc_z_bracket 11/22/2014 3:22:09 PM )
( T0 : 0.0 )
G20 G90 G64 G40
G0 Z0.125
( T0 : 0.0 )
T0 M6
( Drill1 )
G17
M3 S1000
G0 X0.7539 Y1.1374
G98
G81 X0.7539 Y1.1374 Z-0.075 R0.125 F10.0
G81 X1.3905 Z-0.075
G81 Y0.6469 Z-0.075
G81 Y0.0 Z-0.075
G81 X2.3905 Z-0.075
G81 Y0.6469 Z-0.075
G80
( Profile1 )
S1000
G0 Z0.125
G0 X0.3856 Y0.8173
G0 Z0.0625
G1 F10.0 Z-0.01
G2 F15.0 X0.3288 Y0.7845 I-0.0379 J0.0
G2 Y0.8501 I0.0189 J0.0328
G2 X0.3856 Y0.8173 I0.0189 J-0.0328
G1 F10.0 Z-0.02
G2 F15.0 X0.3288 Y0.7845 I-0.0379 J0.0
G2 Y0.8501 I0.0189 J0.0328
G2 X0.3856 Y0.8173 I0.0189 J-0.0328
G1 F10.0 Z-0.03
G2 F15.0 X0.3288 Y0.7845 I-0.0379 J0.0
G2 Y0.8501 I0.0189 J0.0328
G2 X0.3856 Y0.8173 I0.0189 J-0.0328
G1 F10.0 Z-0.04
G2 F15.0 X0.3288 Y0.7845 I-0.0379 J0.0
G2 Y0.8501 I0.0189 J0.0328
G2 X0.3856 Y0.8173 I0.0189 J-0.0328
G1 F10.0 Z-0.05
G2 F15.0 X0.3288 Y0.7845 I-0.0379 J0.0
G2 Y0.8501 I0.0189 J0.0328
G2 X0.3856 Y0.8173 I0.0189 J-0.0328
G1 F10.0 Z-0.06
G2 F15.0 X0.3288 Y0.7845 I-0.0379 J0.0
G2 Y0.8501 I0.0189 J0.0328
G2 X0.3856 Y0.8173 I0.0189 J-0.0328
G1 F10.0 Z-0.07
G2 F15.0 X0.3288 Y0.7845 I-0.0379 J0.0
G2 Y0.8501 I0.0189 J0.0328
G2 X0.3856 Y0.8173 I0.0189 J-0.0328
G1 F10.0 Z-0.075
G2 F15.0 X0.3288 Y0.7845 I-0.0379 J0.0
G2 Y0.8501 I0.0189 J0.0328
G2 X0.3856 Y0.8173 I0.0189 J-0.0328
G0 Z0.125
G0 X0.3502 Y0.2646
G0 Z0.0625
G1 F10.0 Z-0.01
G2 F15.0 X0.3856 Y0.2268 I-0.0024 J-0.0378
G2 X0.3288 Y0.1939 I-0.0379 J0.0
G2 Y0.2596 I0.0189 J0.0328
G2 X0.3502 Y0.2646 I0.0189 J-0.0328
G1 F10.0 Z-0.02
G2 F15.0 X0.3856 Y0.2268 I-0.0024 J-0.0378
G2 X0.3288 Y0.1939 I-0.0379 J0.0
G2 Y0.2596 I0.0189 J0.0328
G2 X0.3502 Y0.2646 I0.0189 J-0.0328
G1 F10.0 Z-0.03
G2 F15.0 X0.3856 Y0.2268 I-0.0024 J-0.0378
G2 X0.3288 Y0.1939 I-0.0379 J0.0
G2 Y0.2596 I0.0189 J0.0328
G2 X0.3502 Y0.2646 I0.0189 J-0.0328
G1 F10.0 Z-0.04
G2 F15.0 X0.3856 Y0.2268 I-0.0024 J-0.0378
G2 X0.3288 Y0.1939 I-0.0379 J0.0
G2 Y0.2596 I0.0189 J0.0328
G2 X0.3502 Y0.2646 I0.0189 J-0.0328
G1 F10.0 Z-0.05
G2 F15.0 X0.3856 Y0.2268 I-0.0024 J-0.0378
G2 X0.3288 Y0.1939 I-0.0379 J0.0
G2 Y0.2596 I0.0189 J0.0328
G2 X0.3502 Y0.2646 I0.0189 J-0.0328
G1 F10.0 Z-0.06
G2 F15.0 X0.3856 Y0.2268 I-0.0024 J-0.0378
G2 X0.3288 Y0.1939 I-0.0379 J0.0
G2 Y0.2596 I0.0189 J0.0328
G2 X0.3502 Y0.2646 I0.0189 J-0.0328
G1 F10.0 Z-0.07
G2 F15.0 X0.3856 Y0.2268 I-0.0024 J-0.0378
G2 X0.3288 Y0.1939 I-0.0379 J0.0
G2 Y0.2596 I0.0189 J0.0328
G2 X0.3502 Y0.2646 I0.0189 J-0.0328
G1 F10.0 Z-0.075
G2 F15.0 X0.3856 Y0.2268 I-0.0024 J-0.0378
G2 X0.3288 Y0.1939 I-0.0379 J0.0
G2 Y0.2596 I0.0189 J0.0328
G2 X0.3502 Y0.2646 I0.0189 J-0.0328
G0 Z0.125
G0 X2.6769 Y0.4629
G0 Z0.0625
G1 F10.0 Z-0.01
G2 F15.0 X2.7 Y0.5071 I0.0463 J0.0039
G2 X2.7697 Y0.4669 I0.0233 J-0.0403
G2 X2.7 Y0.4266 I-0.0465 J0.0
G2 X2.6769 Y0.4629 I0.0233 J0.0403
G1 F10.0 Z-0.02
G2 F15.0 X2.7 Y0.5071 I0.0463 J0.0039
G2 X2.7697 Y0.4669 I0.0233 J-0.0403
G2 X2.7 Y0.4266 I-0.0465 J0.0
G2 X2.6769 Y0.4629 I0.0233 J0.0403
G1 F10.0 Z-0.03
G2 F15.0 X2.7 Y0.5071 I0.0463 J0.0039
G2 X2.7697 Y0.4669 I0.0233 J-0.0403
G2 X2.7 Y0.4266 I-0.0465 J0.0
G2 X2.6769 Y0.4629 I0.0233 J0.0403
G1 F10.0 Z-0.04
G2 F15.0 X2.7 Y0.5071 I0.0463 J0.0039
G2 X2.7697 Y0.4669 I0.0233 J-0.0403
G2 X2.7 Y0.4266 I-0.0465 J0.0
G2 X2.6769 Y0.4629 I0.0233 J0.0403
G1 F10.0 Z-0.05
G2 F15.0 X2.7 Y0.5071 I0.0463 J0.0039
G2 X2.7697 Y0.4669 I0.0233 J-0.0403
G2 X2.7 Y0.4266 I-0.0465 J0.0
G2 X2.6769 Y0.4629 I0.0233 J0.0403
G1 F10.0 Z-0.06
G2 F15.0 X2.7 Y0.5071 I0.0463 J0.0039
G2 X2.7697 Y0.4669 I0.0233 J-0.0403
G2 X2.7 Y0.4266 I-0.0465 J0.0
G2 X2.6769 Y0.4629 I0.0233 J0.0403
G1 F10.0 Z-0.07
G2 F15.0 X2.7 Y0.5071 I0.0463 J0.0039
G2 X2.7697 Y0.4669 I0.0233 J-0.0403
G2 X2.7 Y0.4266 I-0.0465 J0.0
G2 X2.6769 Y0.4629 I0.0233 J0.0403
G1 F10.0 Z-0.075
G2 F15.0 X2.7 Y0.5071 I0.0463 J0.0039
G2 X2.7697 Y0.4669 I0.0233 J-0.0403
G2 X2.7 Y0.4266 I-0.0465 J0.0
G2 X2.6769 Y0.4629 I0.0233 J0.0403
G0 Z0.125
G0 X3.8972 Y0.4663
G0 Z0.0625
G1 F10.0 Z-0.01
G2 F15.0 X3.9204 Y0.5067 I0.0465 J0.0001
G2 X3.9902 Y0.4664 I0.0233 J-0.0403
G2 X3.9204 Y0.4262 I-0.0465 J0.0
G2 X3.8972 Y0.4663 I0.0233 J0.0403
G1 F10.0 Z-0.02
G2 F15.0 X3.9204 Y0.5067 I0.0465 J0.0001
G2 X3.9902 Y0.4664 I0.0233 J-0.0403
G2 X3.9204 Y0.4262 I-0.0465 J0.0
G2 X3.8972 Y0.4663 I0.0233 J0.0403
G1 F10.0 Z-0.03
G2 F15.0 X3.9204 Y0.5067 I0.0465 J0.0001
G2 X3.9902 Y0.4664 I0.0233 J-0.0403
G2 X3.9204 Y0.4262 I-0.0465 J0.0
G2 X3.8972 Y0.4663 I0.0233 J0.0403
G1 F10.0 Z-0.04
G2 F15.0 X3.9204 Y0.5067 I0.0465 J0.0001
G2 X3.9902 Y0.4664 I0.0233 J-0.0403
G2 X3.9204 Y0.4262 I-0.0465 J0.0
G2 X3.8972 Y0.4663 I0.0233 J0.0403
G1 F10.0 Z-0.05
G2 F15.0 X3.9204 Y0.5067 I0.0465 J0.0001
G2 X3.9902 Y0.4664 I0.0233 J-0.0403
G2 X3.9204 Y0.4262 I-0.0465 J0.0
G2 X3.8972 Y0.4663 I0.0233 J0.0403
G1 F10.0 Z-0.06
G2 F15.0 X3.9204 Y0.5067 I0.0465 J0.0001
G2 X3.9902 Y0.4664 I0.0233 J-0.0403
G2 X3.9204 Y0.4262 I-0.0465 J0.0
G2 X3.8972 Y0.4663 I0.0233 J0.0403
G1 F10.0 Z-0.07
G2 F15.0 X3.9204 Y0.5067 I0.0465 J0.0001
G2 X3.9902 Y0.4664 I0.0233 J-0.0403
G2 X3.9204 Y0.4262 I-0.0465 J0.0
G2 X3.8972 Y0.4663 I0.0233 J0.0403
G1 F10.0 Z-0.075
G2 F15.0 X3.9204 Y0.5067 I0.0465 J0.0001
G2 X3.9902 Y0.4664 I0.0233 J-0.0403
G2 X3.9204 Y0.4262 I-0.0465 J0.0
G2 X3.8972 Y0.4663 I0.0233 J0.0403
( Profile2 )
S1000
G0 Z0.125
G0 X0.6914 Y3.8874
G0 Z0.0625
G1 F10.0 Z-0.01
G1 F15.0 Y1.1999
G1 X0.377
G3 X0.3644 Y1.1986 I0.0 J-0.0625
G1 X0.313 Y1.1881
G3 X0.2924 Y1.1798 I0.0126 J-0.0612
G1 X0.2422 Y1.1484
G3 X0.2296 Y1.1379 I0.0332 J-0.053
G1 X0.1819 Y1.0865
G3 X0.1748 Y1.0772 I0.0459 J-0.0425
G1 X0.1308 Y1.0069
G3 X0.1268 Y0.9994 I0.053 J-0.0332
G1 X0.0876 Y0.9121
G3 X0.0832 Y0.898 I0.057 J-0.0256
G1 X-0.0614 Y0.1279
G3 X-0.0625 Y0.1164 I0.0614 J-0.0115
G1 Y0.0
G3 X0.0 Y-0.0625 I0.0625 J0.0
G1 X1.3905
G1 X3.6753
G3 X3.7114 Y-0.051 I0.0 J0.0625
G1 X4.0641 Y0.199
G3 X4.0721 Y0.2057 I-0.0361 J0.051
G1 X4.2044 Y0.338
G3 X4.2227 Y0.3822 I-0.0442 J0.0442
G1 Y0.6469
G3 X4.1602 Y0.7094 I-0.0625 J0.0
G1 X1.453
G1 Y1.1374
G1 Y3.8874
G3 X1.3905 Y3.9499 I-0.0625 J0.0
G1 X0.7539
G3 X0.6914 Y3.8874 I0.0 J-0.0625
G1 F10.0 Z-0.02
G1 F15.0 Y1.1999
G1 X0.377
G3 X0.3644 Y1.1986 I0.0 J-0.0625
G1 X0.313 Y1.1881
G3 X0.2924 Y1.1798 I0.0126 J-0.0612
G1 X0.2422 Y1.1484
G3 X0.2296 Y1.1379 I0.0332 J-0.053
G1 X0.1819 Y1.0865
G3 X0.1748 Y1.0772 I0.0459 J-0.0425
G1 X0.1308 Y1.0069
G3 X0.1268 Y0.9994 I0.053 J-0.0332
G1 X0.0876 Y0.9121
G3 X0.0832 Y0.898 I0.057 J-0.0256
G1 X-0.0614 Y0.1279
G3 X-0.0625 Y0.1164 I0.0614 J-0.0115
G1 Y0.0
G3 X0.0 Y-0.0625 I0.0625 J0.0
G1 X1.3905
G1 X3.6753
G3 X3.7114 Y-0.051 I0.0 J0.0625
G1 X4.0641 Y0.199
G3 X4.0721 Y0.2057 I-0.0361 J0.051
G1 X4.2044 Y0.338
G3 X4.2227 Y0.3822 I-0.0442 J0.0442
G1 Y0.6469
G3 X4.1602 Y0.7094 I-0.0625 J0.0
G1 X1.453
G1 Y1.1374
G1 Y3.8874
G3 X1.3905 Y3.9499 I-0.0625 J0.0
G1 X0.7539
G3 X0.6914 Y3.8874 I0.0 J-0.0625
G1 F10.0 Z-0.03
G1 F15.0 Y1.1999
G1 X0.377
G3 X0.3644 Y1.1986 I0.0 J-0.0625
G1 X0.313 Y1.1881
G3 X0.2924 Y1.1798 I0.0126 J-0.0612
G1 X0.2422 Y1.1484
G3 X0.2296 Y1.1379 I0.0332 J-0.053
G1 X0.1819 Y1.0865
G3 X0.1748 Y1.0772 I0.0459 J-0.0425
G1 X0.1308 Y1.0069
G3 X0.1268 Y0.9994 I0.053 J-0.0332
G1 X0.0876 Y0.9121
G3 X0.0832 Y0.898 I0.057 J-0.0256
G1 X-0.0614 Y0.1279
G3 X-0.0625 Y0.1164 I0.0614 J-0.0115
G1 Y0.0
G3 X0.0 Y-0.0625 I0.0625 J0.0
G1 X1.3905
G1 X3.6753
G3 X3.7114 Y-0.051 I0.0 J0.0625
G1 X4.0641 Y0.199
G3 X4.0721 Y0.2057 I-0.0361 J0.051
G1 X4.2044 Y0.338
G3 X4.2227 Y0.3822 I-0.0442 J0.0442
G1 Y0.6469
G3 X4.1602 Y0.7094 I-0.0625 J0.0
G1 X1.453
G1 Y1.1374
G1 Y3.8874
G3 X1.3905 Y3.9499 I-0.0625 J0.0
G1 X0.7539
G3 X0.6914 Y3.8874 I0.0 J-0.0625
G1 F10.0 Z-0.04
G1 F15.0 Y1.1999
G1 X0.377
G3 X0.3644 Y1.1986 I0.0 J-0.0625
G1 X0.313 Y1.1881
G3 X0.2924 Y1.1798 I0.0126 J-0.0612
G1 X0.2422 Y1.1484
G3 X0.2296 Y1.1379 I0.0332 J-0.053
G1 X0.1819 Y1.0865
G3 X0.1748 Y1.0772 I0.0459 J-0.0425
G1 X0.1308 Y1.0069
G3 X0.1268 Y0.9994 I0.053 J-0.0332
G1 X0.0876 Y0.9121
G3 X0.0832 Y0.898 I0.057 J-0.0256
G1 X-0.0614 Y0.1279
G3 X-0.0625 Y0.1164 I0.0614 J-0.0115
G1 Y0.0
G3 X0.0 Y-0.0625 I0.0625 J0.0
G1 X1.3905
G1 X3.6753
G3 X3.7114 Y-0.051 I0.0 J0.0625
G1 X4.0641 Y0.199
G3 X4.0721 Y0.2057 I-0.0361 J0.051
G1 X4.2044 Y0.338
G3 X4.2227 Y0.3822 I-0.0442 J0.0442
G1 Y0.6469
G3 X4.1602 Y0.7094 I-0.0625 J0.0
G1 X1.453
G1 Y1.1374
G1 Y3.8874
G3 X1.3905 Y3.9499 I-0.0625 J0.0
G1 X0.7539
G3 X0.6914 Y3.8874 I0.0 J-0.0625
G1 F10.0 Z-0.05
G1 F15.0 Y1.1999
G1 X0.377
G3 X0.3644 Y1.1986 I0.0 J-0.0625
G1 X0.313 Y1.1881
G3 X0.2924 Y1.1798 I0.0126 J-0.0612
G1 X0.2422 Y1.1484
G3 X0.2296 Y1.1379 I0.0332 J-0.053
G1 X0.1819 Y1.0865
G3 X0.1748 Y1.0772 I0.0459 J-0.0425
G1 X0.1308 Y1.0069
G3 X0.1268 Y0.9994 I0.053 J-0.0332
G1 X0.0876 Y0.9121
G3 X0.0832 Y0.898 I0.057 J-0.0256
G1 X-0.0614 Y0.1279
G3 X-0.0625 Y0.1164 I0.0614 J-0.0115
G1 Y0.0
G3 X0.0 Y-0.0625 I0.0625 J0.0
G1 X1.3905
G1 X3.6753
G3 X3.7114 Y-0.051 I0.0 J0.0625
G1 X4.0641 Y0.199
G3 X4.0721 Y0.2057 I-0.0361 J0.051
G1 X4.2044 Y0.338
G3 X4.2227 Y0.3822 I-0.0442 J0.0442
G1 Y0.6469
G3 X4.1602 Y0.7094 I-0.0625 J0.0
G1 X1.453
G1 Y1.1374
G1 Y3.8874
G3 X1.3905 Y3.9499 I-0.0625 J0.0
G1 X0.7539
G3 X0.6914 Y3.8874 I0.0 J-0.0625
G1 F10.0 Z-0.06
G1 F15.0 Y1.1999
G1 X0.377
G3 X0.3644 Y1.1986 I0.0 J-0.0625
G1 X0.313 Y1.1881
G3 X0.2924 Y1.1798 I0.0126 J-0.0612
G1 X0.2422 Y1.1484
G3 X0.2296 Y1.1379 I0.0332 J-0.053
G1 X0.1819 Y1.0865
G3 X0.1748 Y1.0772 I0.0459 J-0.0425
G1 X0.1308 Y1.0069
G3 X0.1268 Y0.9994 I0.053 J-0.0332
G1 X0.0876 Y0.9121
G3 X0.0832 Y0.898 I0.057 J-0.0256
G1 X-0.0614 Y0.1279
G3 X-0.0625 Y0.1164 I0.0614 J-0.0115
G1 Y0.0
G3 X0.0 Y-0.0625 I0.0625 J0.0
G1 X1.3905
G1 X3.6753
G3 X3.7114 Y-0.051 I0.0 J0.0625
G1 X4.0641 Y0.199
G3 X4.0721 Y0.2057 I-0.0361 J0.051
G1 X4.2044 Y0.338
G3 X4.2227 Y0.3822 I-0.0442 J0.0442
G1 Y0.6469
G3 X4.1602 Y0.7094 I-0.0625 J0.0
G1 X1.453
G1 Y1.1374
G1 Y3.8874
G3 X1.3905 Y3.9499 I-0.0625 J0.0
G1 X0.7539
G3 X0.6914 Y3.8874 I0.0 J-0.0625
G1 F10.0 Z-0.07
G1 F15.0 Y1.1999
G1 X0.377
G3 X0.3644 Y1.1986 I0.0 J-0.0625
G1 X0.313 Y1.1881
G3 X0.2924 Y1.1798 I0.0126 J-0.0612
G1 X0.2422 Y1.1484
G3 X0.2296 Y1.1379 I0.0332 J-0.053
G1 X0.1819 Y1.0865
G3 X0.1748 Y1.0772 I0.0459 J-0.0425
G1 X0.1308 Y1.0069
G3 X0.1268 Y0.9994 I0.053 J-0.0332
G1 X0.0876 Y0.9121
G3 X0.0832 Y0.898 I0.057 J-0.0256
G1 X-0.0614 Y0.1279
G3 X-0.0625 Y0.1164 I0.0614 J-0.0115
G1 Y0.0
G3 X0.0 Y-0.0625 I0.0625 J0.0
G1 X1.3905
G1 X3.6753
G3 X3.7114 Y-0.051 I0.0 J0.0625
G1 X4.0641 Y0.199
G3 X4.0721 Y0.2057 I-0.0361 J0.051
G1 X4.2044 Y0.338
G3 X4.2227 Y0.3822 I-0.0442 J0.0442
G1 Y0.6469
G3 X4.1602 Y0.7094 I-0.0625 J0.0
G1 X1.453
G1 Y1.1374
G1 Y3.8874
G3 X1.3905 Y3.9499 I-0.0625 J0.0
G1 X0.7539
G3 X0.6914 Y3.8874 I0.0 J-0.0625
G1 F10.0 Z-0.075
G1 F15.0 Y1.1999
G1 X0.377
G3 X0.3644 Y1.1986 I0.0 J-0.0625
G1 X0.313 Y1.1881
G3 X0.2924 Y1.1798 I0.0126 J-0.0612
G1 X0.2422 Y1.1484
G3 X0.2296 Y1.1379 I0.0332 J-0.053
G1 X0.1819 Y1.0865
G3 X0.1748 Y1.0772 I0.0459 J-0.0425
G1 X0.1308 Y1.0069
G3 X0.1268 Y0.9994 I0.053 J-0.0332
G1 X0.0876 Y0.9121
G3 X0.0832 Y0.898 I0.057 J-0.0256
G1 X-0.0614 Y0.1279
G3 X-0.0625 Y0.1164 I0.0614 J-0.0115
G1 Y0.0
G3 X0.0 Y-0.0625 I0.0625 J0.0
G1 X1.3905
G1 X3.6753
G3 X3.7114 Y-0.051 I0.0 J0.0625
G1 X4.0641 Y0.199
G3 X4.0721 Y0.2057 I-0.0361 J0.051
G1 X4.2044 Y0.338
G3 X4.2227 Y0.3822 I-0.0442 J0.0442
G1 Y0.6469
G3 X4.1602 Y0.7094 I-0.0625 J0.0
G1 X1.453
G1 Y1.1374
G1 Y3.8874
G3 X1.3905 Y3.9499 I-0.0625 J0.0
G1 X0.7539
G3 X0.6914 Y3.8874 I0.0 J-0.0625
G0 Z0.125
M5
M30
