; generated by Slic3r 1.1.7 on 2014-11-13 at 22:05:01

; perimeters extrusion width = 0.40mm
; infill extrusion width = 0.42mm
; solid infill extrusion width = 0.42mm
; top infill extrusion width = 0.42mm
; support material extrusion width = 0.40mm

G21 ; set units to millimeters
M104 S190 ; set temperature
G28
G29
G1 Z5 F5000 ; lift nozzle

M109 S190 ; wait for temperature to be reached
G90 ; use absolute coordinates
G92 E0
M82 ; use absolute distances for extrusion
M204 S1500
G1 F1800.000 E-1.00000
G92 E0
G1 Z0.350 F7800.000
G1 X92.565 Y126.246 F7800.000
G1 E1.00000 F1800.000
G1 X95.477 Y125.153 E1.28768 F1080.000
G1 X154.059 Y116.765 E6.76127
G1 X176.626 Y116.783 E8.84851
G1 X203.995 Y118.692 E11.38610 F1080.000
G1 X206.332 Y119.254 E11.60840
G1 X208.359 Y120.546 E11.83071
G1 X209.853 Y122.429 E12.05301
G1 X210.652 Y124.695 E12.27532
G1 X210.761 Y125.946 E12.39141
G1 X210.744 Y148.502 E14.47767
G1 X208.834 Y176.459 E17.06945
G1 X208.276 Y178.797 E17.29176
G1 X206.987 Y180.825 E17.51406
G1 X205.106 Y182.322 E17.73637
G1 X202.841 Y183.125 E17.95868
G1 X201.580 Y183.235 E18.07574
G1 X179.013 Y183.217 E20.16298
G1 X151.410 Y181.288 E22.72219
G1 X95.777 Y175.604 E27.89453
G1 X93.459 Y174.968 E28.11683
G1 X91.476 Y173.611 E28.33914
G1 X90.043 Y171.682 E28.56144
G1 X89.245 Y168.371 E28.87643
G1 X89.245 Y132.349 E32.20808
G1 X89.642 Y129.979 E32.43039
G1 X90.791 Y127.867 E32.65270
G1 X92.520 Y126.286 E32.86945
G1 X93.002 Y126.763 F7800.000
G1 X93.174 Y126.617 E32.89036 F1080.000
G1 X95.567 Y125.782 E33.12480
G1 X154.059 Y117.401 E38.58998
G1 X176.582 Y117.417 E40.67313
G1 X203.951 Y119.326 E43.21072 F1080.000
G1 X206.179 Y119.880 E43.42301
G1 X208.085 Y121.159 E43.63531
G1 X209.441 Y123.011 E43.84761
G1 X210.125 Y125.946 E44.12635
G1 X210.110 Y148.459 E46.20860
G1 X208.200 Y176.416 E48.80039
G1 X207.650 Y178.644 E49.01269
G1 X206.373 Y180.552 E49.22498
G1 X204.523 Y181.911 E49.43728
G1 X201.580 Y182.599 E49.71689
G1 X179.057 Y182.583 E51.80004
G1 X151.475 Y180.655 E54.35736
G1 X95.842 Y174.972 E59.52970
G1 X93.633 Y174.347 E59.74200
G1 X91.769 Y173.007 E59.95429
G1 X90.474 Y171.113 E60.16659
G1 X89.881 Y168.371 E60.42608
G1 X89.881 Y132.349 E63.75773
G1 X90.278 Y130.089 E63.97003
G1 X91.421 Y128.098 E64.18232
G1 X92.956 Y126.801 E64.36816
G1 F1800.000 E63.36816
G92 E0
G1 X147.830 Y149.360 F7800.000
G1 E1.00000 F1800.000
G1 X148.614 Y149.685 E1.07856 F1080.000
G1 X150.438 Y147.862 E1.31711
G1 X153.743 Y147.862 E1.62282
G1 X154.053 Y147.037 E1.70428
G1 X152.865 Y146.000 E1.85012
G1 X152.609 Y144.030 E2.03386
G1 X152.515 Y143.825 E2.05475
G1 X149.927 Y141.238 E2.39315
G1 X149.927 Y122.325 E4.14241
G1 X152.348 Y119.905 E4.45897
G1 X157.980 Y119.905 E4.97996
G1 X158.842 Y120.767 E5.09268
G1 X159.003 Y120.854 E5.10965
G1 X159.278 Y120.913 E5.13565
G1 X160.286 Y121.681 E5.25279
G1 X162.294 Y123.062 E5.47828
G1 X163.463 Y125.837 E5.75672
G1 X163.626 Y126.717 E5.83953
G1 X163.592 Y127.765 E5.93653
G1 X163.521 Y128.044 E5.96315
G1 X163.527 Y128.226 E5.98001
G1 X163.792 Y129.022 E6.05754
G1 X164.125 Y129.262 E6.09553
G1 X166.214 Y129.262 E6.28872
G1 X166.592 Y128.849 E6.34050
G1 X166.545 Y128.326 E6.38910
G1 X166.631 Y127.435 E6.47185
G1 X166.652 Y127.360 E6.47909
G1 X166.648 Y127.167 E6.49689
G1 X166.276 Y126.045 E6.60625
G1 X167.881 Y122.842 E6.93763
G1 X168.825 Y122.529 E7.02961
G1 X169.016 Y122.363 E7.05300
G1 X169.329 Y121.739 E7.11757
G1 X170.807 Y121.248 E7.26163
G1 X170.933 Y121.170 E7.27534
G1 X172.198 Y119.905 E7.44085
G1 X177.831 Y119.905 E7.96184
G1 X180.251 Y122.325 E8.27841
G1 X180.251 Y124.958 E8.52192
G1 X181.076 Y125.267 E8.60338
G1 X181.526 Y124.752 E8.66663
G1 X183.496 Y124.496 E8.85036
G1 X183.701 Y124.401 E8.87126
G1 X186.288 Y121.814 E9.20966
G1 X205.201 Y121.814 E10.95892
G1 X207.621 Y124.235 E11.27548
G1 X207.621 Y129.867 E11.79648
G1 X205.612 Y131.876 E12.05923
G1 X205.552 Y131.959 E12.06868
G1 X204.716 Y133.628 E12.24132
G1 X203.940 Y134.476 E12.34767
G1 X202.792 Y135.184 E12.47240
G1 X201.686 Y135.498 E12.57876
G1 X198.636 Y135.498 E12.86085
G1 X198.264 Y135.871 E12.90956
G1 X198.264 Y137.925 E13.09956
G1 X198.453 Y138.232 E13.13293
G1 X198.828 Y138.420 E13.17174
G1 X198.973 Y138.454 E13.18546
G1 X201.677 Y138.454 E13.43557
G1 X201.749 Y138.495 E13.44325
G1 X201.938 Y138.534 E13.46109
G1 X202.059 Y138.523 E13.47229
G1 X204.017 Y139.382 E13.67007
G1 X205.671 Y141.552 E13.92246
G1 X205.783 Y141.645 E13.93589
G1 X205.992 Y141.750 E13.95752
G1 X206.319 Y142.735 E14.05356
G1 X206.397 Y142.861 E14.06727
G1 X207.621 Y144.085 E14.22736
G1 X207.621 Y149.718 E14.74835
G1 X205.201 Y152.138 E15.06491
G1 X201.895 Y152.138 E15.37062
G1 X201.586 Y152.963 E15.45209
G1 X202.773 Y154.000 E15.59790
G1 X203.029 Y155.970 E15.78165
G1 X203.124 Y156.175 E15.80255
G1 X205.711 Y158.762 E16.14095
G1 X205.711 Y177.675 E17.89020
G1 X203.291 Y180.095 E18.20677
G1 X197.658 Y180.095 E18.72776
G1 X197.054 Y179.491 E18.80685
G1 X196.892 Y179.403 E18.82383
G1 X196.730 Y179.368 E18.83919
G1 X195.919 Y178.750 E18.93348
G1 X195.698 Y178.682 E18.95488
G1 X194.789 Y177.914 E19.06492
G1 X194.641 Y177.844 E19.08005
G1 X194.171 Y177.754 E19.12437
G1 X192.314 Y175.692 E19.38102
G1 X192.015 Y172.188 E19.70625
G1 X192.045 Y171.620 E19.75885
G1 X192.126 Y171.199 E19.79845
G1 X191.744 Y170.738 E19.85383
G1 X189.699 Y170.738 E20.04304
G1 X189.318 Y171.265 E20.10320
G1 X189.363 Y171.401 E20.11644
G1 X189.068 Y171.991 E20.17742
G1 X189.050 Y172.243 E20.20081
G1 X189.363 Y173.187 E20.29279
G1 X187.495 Y176.913 E20.67836
G1 X186.352 Y177.951 E20.82115
G1 X186.135 Y178.034 E20.84269
G1 X185.959 Y178.194 E20.86466
G1 X185.687 Y178.736 E20.92069
G1 X184.431 Y179.153 E21.04312
G1 X184.305 Y179.231 E21.05684
G1 X183.440 Y180.095 E21.16989
G1 X177.808 Y180.095 E21.69088
G1 X175.387 Y177.675 E22.00745
G1 X175.387 Y175.042 E22.25096
G1 X174.563 Y174.733 E22.33242
G1 X174.113 Y175.248 E22.39567
G1 X172.143 Y175.504 E22.57941
G1 X171.938 Y175.599 E22.60031
G1 X169.351 Y178.186 E22.93870
G1 X150.438 Y178.186 E24.68797
G1 X148.018 Y175.765 E25.00453
G1 X148.018 Y170.133 E25.52552
G1 X149.255 Y168.895 E25.68735
G1 X149.315 Y168.813 E25.69680
G1 X150.415 Y166.618 E25.92383
G1 X151.358 Y166.305 E26.01581
G1 X151.550 Y166.139 E26.03920
G1 X151.897 Y165.445 E26.11099
G1 X155.145 Y164.366 E26.42755
G1 X155.348 Y164.467 E26.44851
G1 X155.492 Y164.502 E26.46223
G1 X157.003 Y164.502 E26.60193
G1 X157.375 Y164.129 E26.65063
G1 X157.375 Y161.918 E26.85515
G1 X157.003 Y161.546 E26.90385
G1 X155.431 Y161.546 E27.04924
G1 X154.885 Y161.671 E27.10107
G1 X153.104 Y161.329 E27.26877
G1 X150.873 Y159.730 E27.52264
G1 X150.291 Y158.872 E27.61855
G1 X149.132 Y157.351 E27.79538
G1 X148.866 Y156.668 E27.86318
G1 X147.830 Y156.863 E27.96068
G1 X147.830 Y160.536 E28.30035
G1 X145.243 Y163.122 E28.63862
G1 X145.148 Y163.327 E28.65954
G1 X144.902 Y165.287 E28.84222
G1 X142.563 Y167.339 E29.13001
G1 X137.827 Y167.339 E29.56809
G1 X135.519 Y165.393 E29.84732
G1 X135.219 Y163.642 E30.01167
G1 X135.180 Y163.282 E30.04514
G1 X134.818 Y162.956 E30.09021
G1 X130.516 Y162.956 E30.48807
G1 X130.154 Y163.282 E30.53315
G1 X130.115 Y163.642 E30.56662
G1 X129.815 Y165.393 E30.73097
G1 X127.507 Y167.339 E31.01019
G1 X123.062 Y167.339 E31.42139
G1 X122.689 Y167.712 E31.47009
G1 X122.689 Y170.082 E31.68934
G1 X120.269 Y172.502 E32.00590
G1 X94.805 Y172.502 E34.36110
G1 X92.385 Y170.082 E34.67766
G1 X92.385 Y130.638 E38.32588
G1 X94.805 Y128.218 E38.64245
G1 X100.319 Y128.218 E39.15245
G1 X101.220 Y129.118 E39.27025
G1 X101.386 Y129.207 E39.28768
G1 X101.718 Y129.273 E39.31904
G1 X102.821 Y130.079 E39.44537
G1 X102.983 Y130.140 E39.46135
G1 X103.165 Y130.156 E39.47826
G1 X105.133 Y131.777 E39.71399
G1 X106.012 Y134.794 E40.00467
G1 X106.086 Y135.565 E40.07634
G1 X106.004 Y136.469 E40.16027
G1 X105.978 Y136.561 E40.16909
G1 X105.982 Y136.752 E40.18681
G1 X106.177 Y137.337 E40.24385
G1 X106.510 Y137.578 E40.28184
G1 X108.630 Y137.578 E40.47793
G1 X108.998 Y137.225 E40.52511
G1 X109.047 Y136.117 E40.62772
G1 X109.110 Y135.875 E40.65081
G1 X109.104 Y135.691 E40.66784
G1 X108.729 Y134.561 E40.77796
G1 X110.523 Y130.982 E41.14829
G1 X111.467 Y130.668 E41.24028
G1 X111.658 Y130.503 E41.26367
G1 X111.976 Y129.867 E41.32943
G1 X113.595 Y129.329 E41.48722
G1 X113.722 Y129.251 E41.50094
G1 X114.755 Y128.218 E41.63611
G1 X118.224 Y128.218 E41.95696
G1 X118.457 Y128.121 E41.98034
G1 X119.925 Y126.654 E42.17223
G1 X145.409 Y126.654 E44.52935
G1 X147.830 Y129.074 E44.84591
G1 X147.830 Y149.300 E46.71666
G1 F1800.000 E45.71666
G92 E0
G1 X122.054 Y166.858 F7800.000
G1 E1.00000 F1800.000
G1 X122.054 Y169.819 E1.27386 F1080.000
G1 X120.006 Y171.867 E1.54173
G1 X95.068 Y171.867 E3.84822
G1 X93.020 Y169.819 E4.11608
G1 X93.020 Y130.901 E7.71560
G1 X95.068 Y128.853 E7.98346
G1 X100.056 Y128.853 E8.44476
G1 X100.906 Y129.704 E8.55604
G1 X101.073 Y129.793 E8.57347
G1 X101.457 Y129.869 E8.60970
G1 X102.589 Y130.696 E8.73933
G1 X102.750 Y130.757 E8.75530
G1 X102.912 Y130.772 E8.77035
G1 X104.577 Y132.143 E8.96982
G1 X105.385 Y134.914 E9.23685
G1 X105.448 Y135.567 E9.29750
G1 X105.376 Y136.352 E9.37040
G1 X105.313 Y136.575 E9.39184
G1 X105.317 Y136.767 E9.40956
G1 X105.718 Y137.973 E9.52715
G1 X106.051 Y138.213 E9.56514
G1 X109.371 Y138.213 E9.87219
G1 X109.752 Y137.763 E9.92671
G1 X109.640 Y137.098 E9.98912
G1 X109.679 Y136.212 E10.07115
G1 X109.773 Y135.853 E10.10544
G1 X109.767 Y135.669 E10.12246
G1 X109.415 Y134.611 E10.22562
G1 X110.973 Y131.502 E10.54725
G1 X111.917 Y131.188 E10.63924
G1 X112.108 Y131.023 E10.66263
G1 X112.427 Y130.387 E10.72839
G1 X113.938 Y129.885 E10.87574
G1 X114.065 Y129.807 E10.88946
G1 X115.018 Y128.853 E11.01418
G1 X118.487 Y128.853 E11.33503
G1 X118.721 Y128.757 E11.35842
G1 X120.188 Y127.290 E11.55031
G1 X145.146 Y127.290 E13.85872
G1 X147.194 Y129.337 E14.12659
G1 X147.194 Y160.273 E16.98780
G1 X145.146 Y162.320 E17.25567
G1 X144.903 Y162.320 E17.27817
G1 X144.533 Y162.679 E17.32579
G1 X144.500 Y163.463 E17.39836
G1 X144.303 Y164.967 E17.53870
G1 X142.324 Y166.704 E17.78221
G1 X138.059 Y166.704 E18.17668
G1 X136.106 Y165.057 E18.41294
G1 X135.849 Y163.554 E18.55396
G1 X135.803 Y162.683 E18.63464
G1 X135.432 Y162.320 E18.68260
G1 X129.902 Y162.320 E19.19406
G1 X129.531 Y162.683 E19.24202
G1 X129.485 Y163.554 E19.32270
G1 X129.228 Y165.057 E19.46371
G1 X127.275 Y166.704 E19.69998
G1 X123.010 Y166.704 E20.09446
G1 X122.800 Y166.520 E20.12026
G1 X122.108 Y166.833 E20.19054
G1 X121.418 Y165.454 F7800.000
G1 X121.418 Y169.555 E20.56986 F1080.000
G1 X119.742 Y171.231 E20.78902
G1 X95.331 Y171.231 E23.04681
G1 X93.656 Y169.555 E23.26597
G1 X93.656 Y131.165 E26.81678
G1 X95.331 Y129.489 E27.03594
G1 X99.792 Y129.489 E27.44854
G1 X100.593 Y130.290 E27.55329
G1 X100.760 Y130.379 E27.57073
G1 X101.195 Y130.465 E27.61182
G1 X102.356 Y131.313 E27.74476
G1 X102.518 Y131.374 E27.76073
G1 X102.660 Y131.387 E27.77392
G1 X104.022 Y132.509 E27.93712
G1 X104.758 Y135.035 E28.18050
G1 X104.809 Y135.569 E28.23012
G1 X104.749 Y136.235 E28.29200
G1 X104.648 Y136.589 E28.32606
G1 X104.652 Y136.781 E28.34378
G1 X104.983 Y137.776 E28.44080
G1 X104.748 Y138.246 E28.48934
G1 X105.120 Y138.849 E28.55493
G1 X110.252 Y138.849 E29.02955
G1 X110.630 Y138.293 E29.09178
G1 X110.378 Y137.654 E29.15527
G1 X110.278 Y137.059 E29.21108
G1 X110.311 Y136.307 E29.28071
G1 X110.435 Y135.831 E29.32619
G1 X110.429 Y135.647 E29.34321
G1 X110.101 Y134.660 E29.43941
G1 X111.423 Y132.022 E29.71234
G1 X112.367 Y131.709 E29.80432
G1 X112.558 Y131.543 E29.82771
G1 X112.877 Y130.907 E29.89347
G1 X114.282 Y130.441 E30.03038
G1 X114.408 Y130.363 E30.04410
G1 X115.281 Y129.489 E30.15838
G1 X118.750 Y129.489 E30.47923
G1 X118.984 Y129.392 E30.50262
G1 X120.451 Y127.925 E30.69451
G1 X144.883 Y127.925 E32.95422
G1 X146.558 Y129.601 E33.17338
G1 X146.558 Y160.009 E35.98589
G1 X144.883 Y161.685 E36.20506
G1 X144.263 Y161.685 E36.26236
G1 X143.891 Y162.057 E36.31106
G1 X143.879 Y163.255 E36.42184
G1 X143.704 Y164.647 E36.55165
G1 X142.084 Y166.068 E36.75088
G1 X138.291 Y166.068 E37.10174
G1 X136.693 Y164.721 E37.29504
G1 X136.459 Y163.287 E37.42941
G1 X136.442 Y162.057 E37.54316
G1 X136.070 Y161.685 E37.59186
G1 X129.264 Y161.685 E38.22133
G1 X128.892 Y162.057 E38.27004
G1 X128.875 Y163.287 E38.38379
G1 X128.641 Y164.721 E38.51815
G1 X127.043 Y166.068 E38.71146
G1 X123.249 Y166.068 E39.06232
G1 X122.165 Y165.116 E39.19580
G1 X121.473 Y165.430 E39.26607
G1 X120.782 Y165.454 F7800.000
G1 X120.782 Y169.292 E39.62104 F1080.000
G1 X119.479 Y170.595 E39.79150
G1 X95.595 Y170.595 E42.00059
G1 X94.292 Y169.292 E42.17105
G1 X94.292 Y131.428 E45.67316
G1 X95.595 Y130.125 E45.84362
G1 X99.529 Y130.125 E46.20751
G1 X100.280 Y130.876 E46.30574
G1 X100.446 Y130.965 E46.32318
G1 X100.934 Y131.061 E46.36913
G1 X102.123 Y131.930 E46.50537
G1 X102.285 Y131.991 E46.52134
G1 X102.407 Y132.002 E46.53268
G1 X103.466 Y132.875 E46.65961
G1 X104.131 Y135.156 E46.87935
G1 X104.171 Y135.571 E46.91794
G1 X104.121 Y136.118 E46.96878
G1 X103.983 Y136.604 E47.01547
G1 X103.987 Y136.795 E47.03319
G1 X104.297 Y137.727 E47.12399
G1 X103.718 Y138.881 E47.24340
G1 X104.091 Y139.485 E47.30899
G1 X111.186 Y139.485 E47.96527
G1 X111.565 Y138.928 E48.02750
G1 X110.994 Y137.483 E48.17122
G1 X110.916 Y137.020 E48.21463
G1 X110.943 Y136.402 E48.27186
G1 X111.098 Y135.809 E48.32852
G1 X111.092 Y135.625 E48.34554
G1 X110.787 Y134.710 E48.43478
G1 X111.874 Y132.542 E48.65901
G1 X112.817 Y132.229 E48.75099
G1 X113.009 Y132.063 E48.77438
G1 X113.327 Y131.428 E48.84014
G1 X114.625 Y130.996 E48.96660
G1 X114.751 Y130.919 E48.98032
G1 X115.545 Y130.125 E49.08416
G1 X119.014 Y130.125 E49.40501
G1 X119.247 Y130.028 E49.42840
G1 X120.714 Y128.561 E49.62029
G1 X144.620 Y128.561 E51.83130
G1 X145.923 Y129.864 E52.00176 F1080.000
G1 X145.923 Y159.746 E54.76557
G1 X144.620 Y161.049 E54.93603
G1 X143.628 Y161.049 E55.02777
G1 X143.255 Y161.422 E55.07648
G1 X143.244 Y163.219 E55.24273
G1 X143.104 Y164.327 E55.34605
G1 X141.845 Y165.432 E55.50101
G1 X138.523 Y165.432 E55.80825
G1 X137.281 Y164.384 E55.95860
G1 X137.093 Y163.239 E56.06593
G1 X137.078 Y161.422 E56.23406
G1 X136.705 Y161.049 E56.28276
G1 X128.628 Y161.049 E57.02981
G1 X128.256 Y161.422 E57.07851
G1 X128.241 Y163.239 E57.24664
G1 X128.053 Y164.384 E57.35397
G1 X126.811 Y165.432 E57.50432
G1 X123.489 Y165.432 E57.81156
G1 X122.229 Y164.327 E57.96652
G1 X122.090 Y163.219 E58.06984
G1 X122.079 Y161.422 E58.23609
G1 X121.706 Y161.049 E58.28480
G1 X121.155 Y161.049 E58.33582
G1 X120.782 Y161.422 E58.38452
G1 X120.782 Y165.394 E58.75197
G1 F1800.000 E57.75197
G92 E0
G1 X102.835 Y140.120 F7800.000
G1 E1.00000 F1800.000
G1 X112.121 Y140.120 E1.85883 F1080.000
G1 X112.499 Y139.564 E1.92106
G1 X111.609 Y137.312 E2.14502
G1 X111.554 Y136.981 E2.17602
G1 X111.575 Y136.497 E2.22085
G1 X111.660 Y136.173 E2.25186
G1 X111.769 Y135.955 E2.27437
G1 X111.787 Y135.703 E2.29776
G1 X111.474 Y134.759 E2.38974
G1 X112.324 Y133.062 E2.56527
G1 X113.268 Y132.749 E2.65725
G1 X113.459 Y132.583 E2.68064
G1 X113.777 Y131.948 E2.74640
G1 X114.968 Y131.552 E2.86242
G1 X115.094 Y131.474 E2.87614
G1 X115.808 Y130.760 E2.96954
G1 X119.674 Y130.760 E3.32715
G1 X120.047 Y130.388 E3.37585
G1 X120.047 Y130.127 E3.39995
G1 X120.978 Y129.196 E3.52171
G1 X144.356 Y129.196 E5.68402
G1 X145.287 Y130.127 E5.80577
G1 X145.287 Y159.483 E8.52088
G1 X144.356 Y160.414 E8.64264
G1 X142.992 Y160.414 E8.76882
G1 X142.620 Y160.786 E8.81752
G1 X142.609 Y163.183 E9.03927
G1 X142.505 Y164.007 E9.11609
G1 X141.606 Y164.797 E9.22678
G1 X138.755 Y164.797 E9.49040
G1 X137.868 Y164.048 E9.59780
G1 X137.728 Y163.192 E9.67808
G1 X137.713 Y160.786 E9.90059
G1 X137.341 Y160.414 E9.94930
G1 X127.993 Y160.414 E10.81392
G1 X127.621 Y160.786 E10.86262
G1 X127.606 Y163.192 E11.08514
G1 X127.466 Y164.048 E11.16542
G1 X126.578 Y164.797 E11.27281
G1 X123.728 Y164.797 E11.53644
G1 X122.829 Y164.007 E11.64713
G1 X122.725 Y163.183 E11.72396
G1 X122.714 Y160.786 E11.94570
G1 X122.342 Y160.414 E11.99440
G1 X120.519 Y160.414 E12.16300
G1 X120.147 Y160.786 E12.21170
G1 X120.147 Y169.029 E12.97411
