; generated by Slic3r 1.1.7 on 2014-11-09 at 21:09:04

; perimeters extrusion width = 0.40mm
; infill extrusion width = 0.42mm
; solid infill extrusion width = 0.42mm
; top infill extrusion width = 0.42mm
; support material extrusion width = 0.40mm

G21 ; set units to millimeters
M104 S190 ; set temperature
G28
G29
G1 Z5 F5000 ; lift nozzle

M109 S190 ; wait for temperature to be reached
G90 ; use absolute coordinates
G92 E0
M82 ; use absolute distances for extrusion
M204 S1500
G1 F1800.000 E-1.00000
G92 E0
G1 Z0.350 F7800.000
G1 X48.306 Y54.814 F7800.000
G1 E1.00000 F1800.000
G1 X50.347 Y53.544 E1.22231 F1080.000
G1 X53.113 Y52.997 E1.48315
G1 X246.887 Y52.997 E19.40541
G1 X249.257 Y53.395 E19.62772
G1 X251.369 Y54.543 E19.85002 F1080.000
G1 X252.990 Y56.317 E20.07233
G1 X254.072 Y59.153 E20.35309
G1 X266.900 Y141.989 E28.10602
G1 X267.044 Y144.423 E28.33149
G1 X267.044 Y157.000 E29.49476
G1 X266.647 Y159.370 E29.71706
G1 X264.915 Y162.142 E30.01933
G1 X182.183 Y244.873 E40.84077
G1 X180.226 Y246.268 E41.06308
G1 X177.042 Y247.003 E41.36534
G1 X40.227 Y247.003 E54.01947
G1 X37.856 Y246.605 E54.24177
G1 X35.745 Y245.457 E54.46408
G1 X34.123 Y243.683 E54.68638
G1 X33.168 Y241.477 E54.90869
G1 X32.956 Y239.731 E55.07137
G1 X32.956 Y129.423 E65.27392
G1 X33.079 Y128.091 E65.39765
G1 X45.965 Y58.936 E71.90390
G1 X46.790 Y56.679 E72.12620
G1 X48.268 Y54.860 E72.34296
G1 X48.809 Y55.243 F7800.000
G1 X48.883 Y55.156 E72.35348 F1080.000
G1 X50.878 Y54.021 E72.56578
G1 X53.113 Y53.633 E72.77562
G1 X246.887 Y53.633 E90.69788
G1 X249.147 Y54.030 E90.91018
G1 X251.138 Y55.173 E91.12247 F1080.000
G1 X252.619 Y56.926 E91.33477
G1 X253.444 Y59.251 E91.56287
G1 X266.266 Y142.031 E99.31060
G1 X266.409 Y144.423 E99.53222
G1 X266.409 Y157.000 E100.69549
G1 X266.012 Y159.261 E100.90779
G1 X264.465 Y161.692 E101.17431
G1 X181.734 Y244.424 E111.99575
G1 X179.854 Y245.741 E112.20805
G1 X177.042 Y246.367 E112.47456
G1 X40.227 Y246.367 E125.12869
G1 X37.966 Y245.970 E125.34099
G1 X35.976 Y244.827 E125.55328
G1 X34.494 Y243.074 E125.76558
G1 X33.699 Y240.921 E125.97787
G1 X33.591 Y239.731 E126.08830
G1 X33.591 Y129.423 E136.29085
G1 X33.704 Y128.207 E136.40376
G1 X46.590 Y59.053 E142.91002
G1 X47.395 Y56.903 E143.12231
G1 X48.771 Y55.288 E143.31853
G1 F1800.000 E142.31853
G92 E0
G1 X51.901 Y58.335 F7800.000
G1 E1.00000 F1800.000
G1 X52.192 Y58.044 E1.03802 F1080.000
G1 X57.035 Y58.044 E1.48596
G1 X58.338 Y59.347 E1.65641
G1 X58.338 Y60.672 E1.77892 F1080.000
G1 X58.710 Y61.044 E1.82762
G1 X128.516 Y61.044 E8.28404
G1 X128.889 Y60.672 E8.33274
G1 X128.889 Y59.347 E8.45525
G1 X130.192 Y58.044 E8.62570
G1 X135.035 Y58.044 E9.07364
G1 X136.338 Y59.347 E9.24409
G1 X136.338 Y77.190 E10.89441
G1 X135.035 Y78.493 E11.06487
G1 X130.192 Y78.493 E11.51280
G1 X128.889 Y77.190 E11.68326
G1 X128.889 Y75.866 E11.80576
G1 X128.516 Y75.493 E11.85446
G1 X58.710 Y75.493 E18.31088
G1 X58.338 Y75.866 E18.35959
G1 X58.338 Y77.190 E18.48209
G1 X57.035 Y78.493 E18.65255
G1 X52.192 Y78.493 E19.10048
G1 X50.889 Y77.190 E19.27094
G1 X50.889 Y59.347 E20.92125
G1 X51.859 Y58.377 E21.04814
G1 X52.351 Y58.784 F7800.000
G1 X52.455 Y58.679 E21.06181 F1080.000
G1 X56.772 Y58.679 E21.46104
G1 X57.702 Y59.610 E21.58279 F1080.000
G1 X57.702 Y61.307 E21.73973
G1 X58.075 Y61.679 E21.78844
G1 X129.152 Y61.679 E28.36244
G1 X129.524 Y61.307 E28.41114
G1 X129.524 Y59.610 E28.56808
G1 X130.455 Y58.679 E28.68984
G1 X134.772 Y58.679 E29.08906
G1 X135.702 Y59.610 E29.21082
G1 X135.702 Y76.927 E30.81243
G1 X134.772 Y77.858 E30.93419
G1 X130.455 Y77.858 E31.33342
G1 X129.524 Y76.927 E31.45517
G1 X129.524 Y75.230 E31.61211
G1 X129.152 Y74.858 E31.66082
G1 X58.075 Y74.858 E38.23482
G1 X57.702 Y75.230 E38.28352
G1 X57.702 Y76.927 E38.44046
G1 X56.772 Y77.858 E38.56221
G1 X52.455 Y77.858 E38.96144
G1 X51.524 Y76.927 E39.08320
G1 X51.524 Y59.610 E40.68481
G1 X52.308 Y58.826 E40.78734
G1 X52.719 Y59.315 F7800.000
G1 X56.508 Y59.315 E41.13787 F1080.000
G1 X57.067 Y59.874 E41.21093
G1 X57.067 Y61.943 E41.40230 F1080.000
G1 X57.439 Y62.315 E41.45101
G1 X129.788 Y62.315 E48.14258
G1 X130.160 Y61.943 E48.19129
G1 X130.160 Y59.874 E48.38267
G1 X130.719 Y59.315 E48.45572
G1 X134.508 Y59.315 E48.80625
G1 X135.067 Y59.874 E48.87930
G1 X135.067 Y76.663 E50.43221
G1 X134.508 Y77.222 E50.50526
G1 X130.719 Y77.222 E50.85579
G1 X130.160 Y76.663 E50.92884
G1 X130.160 Y74.594 E51.12022
G1 X129.788 Y74.222 E51.16892
G1 X57.439 Y74.222 E57.86050
G1 X57.067 Y74.594 E57.90920
G1 X57.067 Y76.663 E58.10058
G1 X56.508 Y77.222 E58.17363
G1 X52.719 Y77.222 E58.52416
G1 X52.160 Y76.663 E58.59721
G1 X52.160 Y59.874 E60.15012
G1 X52.676 Y59.358 E60.21763
G1 X52.982 Y59.951 F7800.000
G1 X56.245 Y59.951 E60.51945 F1080.000
G1 X56.431 Y60.137 E60.54380
G1 X56.431 Y62.578 E60.76962
G1 X56.804 Y62.951 E60.81832
G1 X130.423 Y62.951 E67.62748
G1 X130.796 Y62.578 E67.67618
G1 X130.796 Y60.137 E67.90200
G1 X130.982 Y59.951 E67.92635
G1 X134.245 Y59.951 E68.22817
G1 X134.431 Y60.137 E68.25252
G1 X134.431 Y76.400 E69.75673
G1 X134.245 Y76.586 E69.78108
G1 X130.982 Y76.586 E70.08290
G1 X130.796 Y76.400 E70.10726
G1 X130.796 Y73.959 E70.33307
G1 X130.423 Y73.586 E70.38177
G1 X56.804 Y73.586 E77.19093
G1 X56.431 Y73.959 E77.23963
G1 X56.431 Y76.400 E77.46545
G1 X56.245 Y76.586 E77.48980
G1 X52.982 Y76.586 E77.79162
G1 X52.796 Y76.400 E77.81598
G1 X52.796 Y60.137 E79.32018
G1 X52.939 Y59.993 E79.33898
G1 F1800.000 E78.33898
G92 E0
G1 X150.775 Y128.501 F7800.000
G1 E1.00000 F1800.000
G1 X152.079 Y127.198 E1.17046 F1080.000
G1 X244.882 Y127.201 E9.75398
G1 X247.093 Y127.355 E9.95898 F1080.000
G1 X249.302 Y127.804 E10.16740
G1 X251.432 Y128.537 E10.37577
G1 X253.449 Y129.542 E10.58418
G1 X255.317 Y130.802 E10.79256
G1 X257.004 Y132.295 E11.00096
G1 X258.483 Y133.995 E11.20935
G1 X259.727 Y135.874 E11.41774
G1 X260.715 Y137.899 E11.62613
G1 X261.392 Y139.894 E11.82107
G1 X261.860 Y142.247 E12.04292
G1 X261.998 Y144.386 E12.24123
G1 X261.998 Y157.443 E13.44879
G1 X261.659 Y158.260 E13.53065
G1 X253.624 Y166.296 E14.58172
G1 X251.781 Y166.296 E14.75218
G1 X235.995 Y150.510 E16.81699
G1 X235.468 Y150.510 E16.86569
G1 X170.552 Y215.427 E25.35692
G1 X170.552 Y215.953 E25.40562
G1 X186.337 Y231.739 E27.47043
G1 X186.337 Y233.582 E27.64089
G1 X178.302 Y241.617 E28.69196
G1 X177.484 Y241.956 E28.77381
G1 X152.079 Y241.956 E31.12361
G1 X150.775 Y240.653 E31.29406
G1 X150.775 Y228.810 E32.38943
G1 X152.079 Y227.507 E32.55989
G1 X155.403 Y227.507 E32.86737
G1 X155.775 Y227.134 E32.91608
G1 X155.775 Y222.328 E33.36059
G1 X155.403 Y221.956 E33.40929
G1 X152.079 Y221.956 E33.71678
G1 X150.775 Y220.653 E33.88723
G1 X150.775 Y153.501 E40.09815
G1 X152.079 Y152.198 E40.26861
G1 X155.403 Y152.198 E40.57609
G1 X155.775 Y151.826 E40.62480
G1 X155.775 Y147.020 E41.06931
G1 X155.403 Y146.648 E41.11801
G1 X152.079 Y146.648 E41.42549
G1 X150.775 Y145.344 E41.59595
G1 X150.775 Y128.561 E43.14823
G1 X151.411 Y128.765 F7800.000
G1 X152.342 Y127.834 E43.26998 F1080.000
G1 X244.799 Y127.834 E51.82145
G1 X246.990 Y127.982 E52.02454 F1080.000
G1 X249.117 Y128.413 E52.22526
G1 X251.169 Y129.116 E52.42595
G1 X253.113 Y130.082 E52.62667
G1 X254.913 Y131.294 E52.82736
G1 X256.540 Y132.729 E53.02806
G1 X257.966 Y134.365 E53.22876
G1 X259.166 Y136.173 E53.42947
G1 X260.119 Y138.123 E53.63017
G1 X260.783 Y140.079 E53.82126
G1 X261.227 Y142.309 E54.03157
G1 X261.362 Y144.397 E54.22507
G1 X261.362 Y157.316 E55.41998
G1 X261.120 Y157.900 E55.47845
G1 X253.360 Y165.660 E56.49347
G1 X252.044 Y165.660 E56.61523
G1 X235.995 Y149.611 E58.71448
G1 X235.468 Y149.611 E58.76318
G1 X169.653 Y215.427 E67.37198
G1 X169.653 Y215.953 E67.42069
G1 X185.702 Y232.002 E69.51994
G1 X185.702 Y233.319 E69.64169
G1 X177.942 Y241.079 E70.65672
G1 X177.358 Y241.321 E70.71518
G1 X152.342 Y241.321 E73.02893
G1 X151.411 Y240.390 E73.15069
G1 X151.411 Y229.073 E74.19735
G1 X152.342 Y228.142 E74.31911
G1 X156.039 Y228.142 E74.66103
G1 X156.411 Y227.770 E74.70973
G1 X156.411 Y221.693 E75.27182
G1 X156.039 Y221.321 E75.32052
G1 X152.342 Y221.321 E75.66245
G1 X151.411 Y220.390 E75.78420
G1 X151.411 Y153.765 E81.94642
G1 X152.342 Y152.834 E82.06817
G1 X156.039 Y152.834 E82.41010
G1 X156.411 Y152.461 E82.45880
G1 X156.411 Y146.384 E83.02089
G1 X156.039 Y146.012 E83.06959
G1 X152.342 Y146.012 E83.41151
G1 X151.411 Y145.081 E83.53327
G1 X151.411 Y128.825 E85.03684
G1 X152.047 Y129.028 F7800.000
G1 X152.605 Y128.469 E85.10989 F1080.000
G1 X244.820 Y128.470 E93.63894
G1 X246.886 Y128.610 E93.83049 F1080.000
G1 X248.932 Y129.021 E94.02352
G1 X250.907 Y129.696 E94.21652
G1 X252.777 Y130.622 E94.40954
G1 X254.510 Y131.785 E94.60254
G1 X256.076 Y133.164 E94.79556
G1 X257.449 Y134.736 E94.98857
G1 X258.605 Y136.473 E95.18158
G1 X259.524 Y138.347 E95.37459
G1 X260.175 Y140.264 E95.56183
G1 X260.594 Y142.371 E95.76061
G1 X260.727 Y144.407 E95.94930
G1 X260.727 Y157.190 E97.13156
G1 X260.581 Y157.540 E97.16664
G1 X253.097 Y165.024 E98.14562
G1 X252.307 Y165.024 E98.21867
G1 X235.995 Y148.712 E100.35236
G1 X235.468 Y148.712 E100.40106
G1 X168.754 Y215.427 E109.12744
G1 X168.754 Y215.953 E109.17614
G1 X185.066 Y232.265 E111.30983
G1 X185.066 Y233.055 E111.38289
G1 X177.582 Y240.540 E112.36186
G1 X177.231 Y240.685 E112.39694
G1 X152.605 Y240.685 E114.67465
G1 X152.047 Y240.126 E114.74770
G1 X152.047 Y229.337 E115.74566
G1 X152.605 Y228.778 E115.81872
G1 X156.674 Y228.778 E116.19508
G1 X157.047 Y228.406 E116.24378
G1 X157.047 Y221.057 E116.92345
G1 X156.674 Y220.685 E116.97215
G1 X152.605 Y220.685 E117.34851
G1 X152.047 Y220.126 E117.42156
G1 X152.047 Y154.028 E123.53507
G1 X152.605 Y153.469 E123.60813
G1 X156.674 Y153.469 E123.98449
G1 X157.047 Y153.097 E124.03319
G1 X157.047 Y145.749 E124.71286
G1 X156.674 Y145.376 E124.76156
G1 X152.605 Y145.376 E125.13792
G1 X152.047 Y144.818 E125.21097
G1 X152.047 Y129.088 E126.66584
G1 X152.868 Y129.105 F7800.000
G1 X244.778 Y129.105 E135.16668 F1080.000
G1 X246.762 Y129.235 E135.35056
G1 X248.728 Y129.624 E135.53589
G1 X250.645 Y130.275 E135.72312
G1 X252.441 Y131.162 E135.90845
G1 X254.166 Y132.329 E136.10102
G1 X255.612 Y133.599 E136.27903
G1 X256.919 Y135.090 E136.46243
G1 X258.034 Y136.755 E136.64775
G1 X258.929 Y138.571 E136.83499
G1 X259.572 Y140.468 E137.02031
G1 X259.961 Y142.434 E137.20563
G1 X260.091 Y144.418 E137.38951
G1 X260.091 Y157.063 E138.55912
G1 X260.043 Y157.180 E138.57081
G1 X252.834 Y164.389 E139.51374
G1 X252.570 Y164.389 E139.53809
G1 X235.995 Y147.813 E141.70622
G1 X235.468 Y147.813 E141.75492
G1 X167.855 Y215.427 E150.59888
G1 X167.855 Y215.953 E150.64758
G1 X184.431 Y232.529 E152.81571
G1 X184.431 Y232.792 E152.84006
G1 X177.222 Y240.001 E153.78299
G1 X177.105 Y240.049 E153.79469
G1 X152.868 Y240.049 E156.03634
G1 X152.682 Y239.863 E156.06069
G1 X152.682 Y229.600 E157.00995
G1 X152.868 Y229.414 E157.03430
G1 X157.310 Y229.414 E157.44510
G1 X157.682 Y229.041 E157.49381
G1 X157.682 Y220.422 E158.29105
G1 X157.310 Y220.049 E158.33975
G1 X152.868 Y220.049 E158.75055
G1 X152.682 Y219.863 E158.77490
G1 X152.682 Y154.291 E164.83971
G1 X152.868 Y154.105 E164.86406
G1 X157.310 Y154.105 E165.27486
G1 X157.682 Y153.733 E165.32356
G1 X157.682 Y145.113 E166.12081
G1 X157.310 Y144.741 E166.16951
G1 X152.868 Y144.741 E166.58031
G1 X152.682 Y144.554 E166.60466
G1 X152.682 Y129.291 E168.01638
G1 X152.826 Y129.147 E168.03518
G1 F1800.000 E167.03518
G92 E0
G1 X164.965 Y78.493 F7800.000
G1 E1.00000 F1800.000
G1 X163.662 Y77.190 E1.17046 F1080.000
G1 X163.662 Y59.347 E2.82077
G1 X164.965 Y58.044 E2.99123
G1 X169.808 Y58.044 E3.43916
G1 X171.111 Y59.347 E3.60962
G1 X171.111 Y60.672 E3.73212 F1080.000
G1 X171.484 Y61.044 E3.78083
G1 X241.290 Y61.044 E10.23725
G1 X241.662 Y60.672 E10.28595
G1 X241.662 Y59.347 E10.40845
G1 X242.965 Y58.044 E10.57891
G1 X247.808 Y58.044 E11.02684
G1 X249.111 Y59.347 E11.19730
G1 X249.111 Y77.190 E12.84761
G1 X247.808 Y78.493 E13.01807
G1 X242.965 Y78.493 E13.46600
G1 X241.662 Y77.190 E13.63646
G1 X241.662 Y75.866 E13.75897
G1 X241.290 Y75.493 E13.80767
G1 X171.484 Y75.493 E20.26409
G1 X171.111 Y75.866 E20.31279
G1 X171.111 Y77.190 E20.43530
G1 X169.808 Y78.493 E20.60575
G1 X165.025 Y78.493 E21.04814
G1 X165.228 Y77.858 F7800.000
G1 X164.298 Y76.927 E21.16989 F1080.000
G1 X164.298 Y59.610 E22.77150
G1 X165.228 Y58.679 E22.89326
G1 X169.545 Y58.679 E23.29249
G1 X170.476 Y59.610 E23.41424 F1080.000
G1 X170.476 Y61.307 E23.57118
G1 X170.848 Y61.679 E23.61989
G1 X241.925 Y61.679 E30.19389
G1 X242.298 Y61.307 E30.24259
G1 X242.298 Y59.610 E30.39953
G1 X243.228 Y58.679 E30.52129
G1 X247.545 Y58.679 E30.92052
G1 X248.476 Y59.610 E31.04227
G1 X248.476 Y76.927 E32.64388
G1 X247.545 Y77.858 E32.76564
G1 X243.228 Y77.858 E33.16487
G1 X242.298 Y76.927 E33.28662
G1 X242.298 Y75.230 E33.44356
G1 X241.925 Y74.858 E33.49227
G1 X170.848 Y74.858 E40.06627
G1 X170.476 Y75.230 E40.11497
G1 X170.476 Y76.927 E40.27191
G1 X169.545 Y77.858 E40.39367
G1 X165.288 Y77.858 E40.78734
G1 X165.492 Y77.222 F7800.000
G1 X164.933 Y76.663 E40.86040 F1080.000
G1 X164.933 Y59.874 E42.41331
G1 X165.492 Y59.315 E42.48636
G1 X169.281 Y59.315 E42.83689
G1 X169.840 Y59.874 E42.90994
G1 X169.840 Y61.943 E43.10132 F1080.000
G1 X170.212 Y62.315 E43.15002
G1 X242.561 Y62.315 E49.84160
G1 X242.933 Y61.943 E49.89030
G1 X242.933 Y59.874 E50.08168
G1 X243.492 Y59.315 E50.15473
G1 X247.281 Y59.315 E50.50526
G1 X247.840 Y59.874 E50.57831
G1 X247.840 Y76.663 E52.13122
G1 X247.281 Y77.222 E52.20428
G1 X243.492 Y77.222 E52.55480
G1 X242.933 Y76.663 E52.62786
G1 X242.933 Y74.594 E52.81924
G1 X242.561 Y74.222 E52.86794
G1 X170.212 Y74.222 E59.55952
G1 X169.840 Y74.594 E59.60822
G1 X169.840 Y76.663 E59.79960
G1 X169.281 Y77.222 E59.87265
G1 X165.552 Y77.222 E60.21763
G1 X165.755 Y76.586 F7800.000
G1 X165.569 Y76.400 E60.24198 F1080.000
G1 X165.569 Y60.137 E61.74619
G1 X165.755 Y59.951 E61.77054
G1 X169.018 Y59.951 E62.07236
G1 X169.204 Y60.137 E62.09671
G1 X169.204 Y62.578 E62.32253
G1 X169.577 Y62.951 E62.37123
G1 X243.196 Y62.951 E69.18039
G1 X243.569 Y62.578 E69.22909
G1 X243.569 Y60.137 E69.45491
G1 X243.755 Y59.951 E69.47926
G1 X247.018 Y59.951 E69.78108
G1 X247.204 Y60.137 E69.80543
G1 X247.204 Y76.400 E71.30964
G1 X247.018 Y76.586 E71.33399
G1 X243.755 Y76.586 E71.63581
G1 X243.569 Y76.400 E71.66016
G1 X243.569 Y73.959 E71.88598
G1 X243.196 Y73.586 E71.93468
G1 X169.577 Y73.586 E78.74384
G1 X169.204 Y73.959 E78.79254
G1 X169.204 Y76.400 E79.01836
G1 X169.018 Y76.586 E79.04271
G1 X165.815 Y76.586 E79.33898
G1 F1800.000 E78.33898
G92 E0
G1 X139.847 Y129.123 F7800.000
G1 E1.00000 F1800.000
G1 X140.676 Y129.542 E1.08592 F1080.000
G1 X142.543 Y130.802 E1.29429
G1 X144.231 Y132.295 E1.50269
G1 X145.621 Y133.879 E1.69764
G1 X146.953 Y135.874 E1.91947
G1 X147.941 Y137.899 E2.12786
G1 X148.619 Y139.894 E2.32280
G1 X149.068 Y142.102 E2.53121
G1 X149.225 Y144.386 E2.74296
G1 X149.225 Y157.443 E3.95053
G1 X148.886 Y158.260 E4.03238
G1 X140.850 Y166.296 E5.08345
G1 X139.007 Y166.296 E5.25391
G1 X123.222 Y150.510 E7.31872
G1 X122.695 Y150.510 E7.36742
G1 X57.778 Y215.427 E15.85865
G1 X57.778 Y215.953 E15.90735
G1 X73.564 Y231.739 E17.97216
G1 X73.564 Y233.582 E18.14262
G1 X65.529 Y241.617 E19.19369
G1 X64.711 Y241.956 E19.27555
G1 X39.305 Y241.956 E21.62534
G1 X38.002 Y240.653 E21.79579
G1 X38.002 Y228.810 E22.89116
G1 X39.305 Y227.507 E23.06162
G1 X42.630 Y227.507 E23.36911
G1 X43.002 Y227.134 E23.41781
G1 X43.002 Y222.328 E23.86232
G1 X42.630 Y221.956 E23.91102
G1 X39.305 Y221.956 E24.21851
G1 X38.002 Y220.653 E24.38896
G1 X38.002 Y153.501 E30.59988
G1 X39.305 Y152.198 E30.77034
G1 X42.630 Y152.198 E31.07783
G1 X43.002 Y151.826 E31.12653
G1 X43.002 Y147.020 E31.57104
G1 X42.630 Y146.648 E31.61974
G1 X39.305 Y146.648 E31.92723
G1 X38.002 Y145.344 E32.09768
G1 X38.002 Y128.501 E33.65551
G1 X39.305 Y127.198 E33.82597
G1 X132.109 Y127.201 E42.40949
G1 X134.320 Y127.355 E42.61449 F1080.000
G1 X136.388 Y127.766 E42.80945
G1 X138.524 Y128.481 E43.01784
G1 X139.793 Y129.096 E43.14823
G1 X139.566 Y129.693 F7800.000
G1 X140.340 Y130.082 E43.22837 F1080.000
G1 X142.140 Y131.294 E43.42907
