; generated by Slic3r 1.1.7 on 2014-11-10 at 00:12:18

; perimeters extrusion width = 0.40mm
; infill extrusion width = 0.42mm
; solid infill extrusion width = 0.42mm
; top infill extrusion width = 0.42mm
; support material extrusion width = 0.40mm

G21 ; set units to millimeters
M104 S190 ; set temperature
G28
G29
G1 Z5 F5000 ; lift nozzle

M109 S190 ; wait for temperature to be reached
G90 ; use absolute coordinates
G92 E0
M82 ; use absolute distances for extrusion
M204 S1500
G1 F1800.000 E-1.00000
G92 E0
G1 Z0.350 F7800.000
G1 X105.548 Y130.896 F7800.000
G1 E1.00000 F1800.000
G1 X107.754 Y129.941 E1.22231 F1080.000
G1 X109.500 Y129.729 E1.38498
G1 X190.500 Y129.729 E8.87675
G1 X192.870 Y130.126 E9.09906
G1 X194.982 Y131.274 E9.32136 F1080.000
G1 X196.604 Y133.048 E9.54367
G1 X197.559 Y135.254 E9.76597
G1 X197.771 Y137.000 E9.92865
G1 X197.771 Y163.000 E12.33341
G1 X197.374 Y165.370 E12.55572
G1 X196.226 Y167.482 E12.77803
G1 X194.452 Y169.104 E13.00033
G1 X192.246 Y170.059 E13.22264
G1 X190.500 Y170.271 E13.38531
G1 X109.500 Y170.271 E20.87708
G1 X107.130 Y169.874 E21.09939
G1 X105.018 Y168.726 E21.32169
G1 X103.396 Y166.952 E21.54400
G1 X102.441 Y164.746 E21.76630
G1 X102.229 Y163.000 E21.92898
G1 X102.229 Y137.000 E24.33375
G1 X102.626 Y134.630 E24.55605
G1 X103.774 Y132.518 E24.77836
G1 X105.504 Y130.937 E24.99511
G1 X105.985 Y131.413 F7800.000
G1 X106.158 Y131.267 E25.01602 F1080.000
G1 X108.311 Y130.472 E25.22832
G1 X109.500 Y130.364 E25.33874
G1 X190.500 Y130.364 E32.83051
G1 X192.761 Y130.761 E33.04280
G1 X194.751 Y131.905 E33.25510 F1080.000
G1 X196.233 Y133.658 E33.46740
G1 X197.028 Y135.811 E33.67969
G1 X197.136 Y137.000 E33.79012
G1 X197.136 Y163.000 E36.19488
G1 X196.739 Y165.261 E36.40718
G1 X195.595 Y167.251 E36.61948
G1 X193.842 Y168.733 E36.83177
G1 X191.689 Y169.528 E37.04407
G1 X190.500 Y169.636 E37.15449
G1 X109.500 Y169.636 E44.64626
G1 X107.239 Y169.239 E44.85856
G1 X105.249 Y168.095 E45.07085
G1 X103.767 Y166.342 E45.28315
G1 X102.972 Y164.189 E45.49545
G1 X102.864 Y163.000 E45.60587
G1 X102.864 Y137.000 E48.01064
G1 X103.261 Y134.739 E48.22293
G1 X104.405 Y132.749 E48.43523
G1 X105.939 Y131.452 E48.62107
G1 F1800.000 E47.62107
G92 E0
G1 X107.615 Y133.043 F7800.000
G1 E1.00000 F1800.000
G1 X107.789 Y132.868 E1.02278 F1080.000
G1 X192.211 Y132.868 E8.83111
G1 X194.632 Y135.289 E9.14767
G1 X194.632 Y148.711 E10.38915 F1080.000
G1 X193.606 Y149.737 E10.52327
G1 X193.606 Y150.263 E10.57197
G1 X194.632 Y151.289 E10.70610
G1 X194.632 Y164.711 E11.94757
G1 X192.211 Y167.132 E12.26414
G1 X107.789 Y167.132 E20.07247
G1 X105.368 Y164.711 E20.38904
G1 X105.368 Y151.289 E21.63051
G1 X106.394 Y150.263 E21.76463
G1 X106.394 Y149.737 E21.81334
G1 X105.368 Y148.711 E21.94746
G1 X105.368 Y135.289 E23.18893
G1 X107.572 Y133.085 E23.47717
G1 X108.052 Y133.504 F7800.000
G1 X191.948 Y133.504 E31.23680 F1080.000
G1 X193.996 Y135.552 E31.50467 F1080.000
G1 X193.996 Y148.448 E32.69744
G1 X192.707 Y149.737 E32.86600
G1 X192.707 Y150.263 E32.91470
G1 X193.996 Y151.552 E33.08326
G1 X193.996 Y164.448 E34.27603
G1 X191.948 Y166.496 E34.54390
G1 X108.052 Y166.496 E42.30353
G1 X106.004 Y164.448 E42.57139
G1 X106.004 Y151.552 E43.76416
G1 X107.293 Y150.263 E43.93272
G1 X107.293 Y149.737 E43.98143
G1 X106.004 Y148.448 E44.14999
G1 X106.004 Y135.552 E45.34276
G1 X108.010 Y133.547 E45.60507
G1 X108.315 Y134.140 F7800.000
G1 X191.685 Y134.140 E53.31600 F1080.000
G1 X193.360 Y135.815 E53.53516
G1 X193.360 Y148.185 E54.67923 F1080.000
G1 X191.808 Y149.737 E54.88223
G1 X191.808 Y150.263 E54.93093
G1 X193.360 Y151.815 E55.13393
G1 X193.360 Y164.185 E56.27800
G1 X191.685 Y165.860 E56.49716
G1 X108.315 Y165.860 E64.20809
G1 X106.640 Y164.185 E64.42725
G1 X106.640 Y151.815 E65.57132
G1 X108.192 Y150.263 E65.77432
G1 X108.192 Y149.737 E65.82302
G1 X106.640 Y148.185 E66.02602
G1 X106.640 Y135.815 E67.17009
G1 X108.273 Y134.182 E67.38370
G1 X108.579 Y134.775 F7800.000
G1 X191.421 Y134.775 E75.04592 F1080.000
G1 X192.725 Y136.079 E75.21638 F1080.000
G1 X192.725 Y147.921 E76.31175
G1 X191.421 Y149.225 E76.48221
G1 X108.579 Y149.225 E84.14443
G1 X107.275 Y147.921 E84.31489
G1 X107.275 Y136.079 E85.41026
G1 X108.536 Y134.818 E85.57517
G1 X108.842 Y135.411 F7800.000
G1 X191.158 Y135.411 E93.18869 F1080.000
G1 X192.089 Y136.342 E93.31045
G1 X192.089 Y147.658 E94.35711 F1080.000
G1 X191.158 Y148.589 E94.47887
G1 X108.842 Y148.589 E102.09239
G1 X107.911 Y147.658 E102.21415
G1 X107.911 Y136.342 E103.26081
G1 X108.799 Y135.453 E103.37702
G1 X109.105 Y136.047 F7800.000
G1 X190.895 Y136.047 E110.94184 F1080.000
G1 X191.453 Y136.605 E111.01489 F1080.000
G1 X191.453 Y147.395 E112.01286
G1 X190.895 Y147.953 E112.08591
G1 X109.105 Y147.953 E119.65073
G1 X108.547 Y147.395 E119.72379
G1 X108.547 Y136.605 E120.72175
G1 X109.063 Y136.089 E120.78925
G1 X109.368 Y136.682 F7800.000
G1 X190.632 Y136.682 E128.30537 F1080.000
G1 X190.818 Y136.868 E128.32972
G1 X190.818 Y147.132 E129.27898
G1 X190.632 Y147.318 E129.30333
G1 X109.368 Y147.318 E136.81945
G1 X109.182 Y147.132 E136.84380
G1 X109.182 Y136.868 E137.79306
G1 X109.326 Y136.725 E137.81187
G1 F1800.000 E136.81187
G92 E0
G1 X109.368 Y150.775 F7800.000
G1 E1.00000 F1800.000
G1 X191.421 Y150.775 E8.58917 F1080.000
G1 X192.725 Y152.079 E8.75963 F1080.000
G1 X192.725 Y163.921 E9.85500
G1 X191.421 Y165.225 E10.02546
G1 X108.579 Y165.225 E17.68768
G1 X107.275 Y163.921 E17.85814
G1 X107.275 Y152.079 E18.95351
G1 X108.579 Y150.775 E19.12397
G1 X109.308 Y150.775 E19.19147
G1 X109.368 Y151.411 F7800.000
G1 X191.158 Y151.411 E26.75629 F1080.000
G1 X192.089 Y152.342 E26.87805
G1 X192.089 Y163.658 E27.92471 F1080.000
G1 X191.158 Y164.589 E28.04647
G1 X108.842 Y164.589 E35.65999
G1 X107.911 Y163.658 E35.78175
G1 X107.911 Y152.342 E36.82841
G1 X108.842 Y151.411 E36.95017
G1 X109.308 Y151.411 E36.99332
G1 X109.368 Y152.047 F7800.000
G1 X190.895 Y152.047 E44.53379 F1080.000
G1 X191.453 Y152.605 E44.60684 F1080.000
G1 X191.453 Y163.395 E45.60481
G1 X190.895 Y163.953 E45.67786
G1 X109.105 Y163.953 E53.24268
G1 X108.547 Y163.395 E53.31574
G1 X108.547 Y152.605 E54.31370
G1 X109.105 Y152.047 E54.38675
G1 X109.308 Y152.047 E54.40555
G1 X109.368 Y152.682 F7800.000
G1 X190.632 Y152.682 E61.92167 F1080.000
G1 X190.818 Y152.868 E61.94602
G1 X190.818 Y163.132 E62.89528
G1 X190.632 Y163.318 E62.91963
G1 X109.368 Y163.318 E70.43575
G1 X109.182 Y163.132 E70.46010
G1 X109.182 Y152.868 E71.40936
G1 X109.326 Y152.725 E71.42817
G1 F1800.000 E70.42817
G92 E0
G1 X190.150 Y146.650 F7800.000
G1 E1.00000 F1800.000
G1 X109.850 Y146.650 E8.42702 F378.000
G1 X109.850 Y137.350 E9.28719
G1 X190.150 Y137.350 E16.71421
G1 X190.150 Y146.590 E17.56883
G1 X189.804 Y146.450 F7800.000
G1 X189.514 Y146.014 F7800.000
G1 X169.845 Y146.014 E19.38808 F540.000
G1 X169.760 Y145.610 E19.42628
G1 X170.687 Y145.204 E19.51988
G1 X171.450 Y144.594 E19.61028
G1 X172.030 Y143.806 E19.70068
G1 X172.385 Y142.896 E19.79109
G1 X172.493 Y141.924 E19.88149
G1 X172.238 Y140.248 E20.03831
G1 X172.035 Y140.248 E20.05708
G1 X171.954 Y140.063 E20.07579
G1 X171.344 Y139.300 E20.16619
G1 X170.556 Y138.720 E20.25659
G1 X169.736 Y138.400 E20.33802
G1 X169.814 Y137.986 E20.37701
G1 X189.514 Y137.986 E22.19909
G1 X189.514 Y145.954 E22.93613
G1 X167.764 Y145.600 F7800.000
G1 X167.686 Y146.014 E22.97513 F540.000
G1 X132.306 Y146.014 E26.24739
G1 X132.245 Y145.576 E26.28830
G1 X132.738 Y145.436 E26.33572
G1 X133.577 Y144.933 E26.42612
G1 X134.257 Y144.231 E26.51652
G1 X134.732 Y143.377 E26.60692
G1 X134.969 Y142.429 E26.69733
G1 X134.954 Y141.452 E26.78773
G1 X134.686 Y140.512 E26.87813
G1 X134.183 Y139.673 E26.96853
G1 X133.481 Y138.993 E27.05894
G1 X132.627 Y138.518 E27.14933
G1 X132.282 Y138.432 E27.18224
G1 X132.337 Y137.986 E27.22382
G1 X167.655 Y137.986 E30.49041
G1 X167.740 Y138.390 E30.52861
G1 X166.813 Y138.796 E30.62221
G1 X166.050 Y139.406 E30.71261
G1 X165.470 Y140.194 E30.80301
G1 X165.115 Y141.104 E30.89341
G1 X165.007 Y142.076 E30.98382
G1 X165.262 Y143.752 E31.14064
G1 X165.465 Y143.752 E31.15941
G1 X165.546 Y143.937 E31.17812
G1 X166.156 Y144.700 E31.26852
G1 X166.944 Y145.280 E31.35891
G1 X167.708 Y145.578 E31.43480
G1 X130.218 Y145.568 F7800.000
G1 X130.163 Y146.014 E31.47637 F540.000
G1 X110.486 Y146.014 E33.29634
G1 X110.486 Y137.986 E34.03892
G1 X130.194 Y137.986 E35.86174
G1 X130.255 Y138.424 E35.90265
G1 X129.762 Y138.564 E35.95007
G1 X128.923 Y139.067 E36.04047
G1 X128.243 Y139.769 E36.13087
G1 X127.768 Y140.623 E36.22127
G1 X127.531 Y141.571 E36.31167
G1 X127.546 Y142.548 E36.40207
G1 X127.767 Y143.323 E36.47661
G1 X127.814 Y143.488 E36.49248
G1 X128.317 Y144.327 E36.58288
G1 X129.019 Y145.007 E36.67329
G1 X129.873 Y145.482 E36.76368
G1 X130.160 Y145.554 E36.79104
G1 X165.648 Y142.063 F7800.000
G1 X165.737 Y141.258 E36.86596 F378.000
G1 X165.769 Y141.176 E36.87410
G1 X166.032 Y140.503 E36.94089
G1 X166.512 Y139.851 E37.01581
G1 X167.145 Y139.345 E37.09073
G1 X167.887 Y139.020 E37.16565
G1 X168.687 Y138.898 E37.24057
G1 X169.405 Y138.977 E37.30736
G1 X169.492 Y138.987 E37.31550 F378.000
G1 X170.247 Y139.282 E37.39042
G1 X170.899 Y139.762 E37.46534
G1 X171.405 Y140.395 E37.54026
G1 X171.620 Y140.884 E37.58967
G1 X171.692 Y140.884 E37.59635
G1 X171.852 Y141.937 E37.69491
G1 X171.763 Y142.742 E37.76984
G1 X171.468 Y143.497 E37.84476
G1 X170.988 Y144.149 E37.91968
G1 X170.355 Y144.655 E37.99460
G1 X169.613 Y144.980 E38.06953
G1 X168.813 Y145.102 E38.14445
G1 X168.008 Y145.013 E38.21937
G1 X167.253 Y144.718 E38.29430
G1 X166.601 Y144.238 E38.36922
G1 X166.095 Y143.605 E38.44414
G1 X165.880 Y143.116 E38.49354
G1 X165.808 Y143.116 E38.50022
G1 X165.657 Y142.122 E38.59324
G1 F1800.000 E37.59324
G92 E0
G1 X169.432 Y138.894 F7800.000
G1 X134.333 Y142.356 F7800.000
G1 E1.00000 F1800.000
G1 X134.136 Y143.141 E1.07492 F378.000
G1 X133.742 Y143.849 E1.14985
G1 X133.178 Y144.431 E1.22477
G1 X132.483 Y144.847 E1.29969
G1 X131.704 Y145.070 E1.37461
G1 X130.894 Y145.083 E1.44954
G1 X130.109 Y144.885 E1.52446
G1 X129.401 Y144.492 E1.59938
G1 X128.819 Y143.928 E1.67430
G1 X128.403 Y143.233 E1.74922
G1 X128.180 Y142.454 E1.82415
G1 X128.167 Y141.644 E1.89907
G1 X128.364 Y140.859 E1.97399
G1 X128.758 Y140.151 E2.04891
G1 X129.322 Y139.569 E2.12384
G1 X130.017 Y139.153 E2.19876
G1 X130.796 Y138.930 E2.27368
G1 X131.606 Y138.917 E2.34860
G1 X132.306 Y139.093 E2.41539
G1 X132.391 Y139.115 E2.42353 F378.000
G1 X133.099 Y139.508 E2.49845
G1 X133.681 Y140.072 E2.57337
G1 X134.097 Y140.767 E2.64829
G1 X134.320 Y141.546 E2.72322
G1 X134.332 Y142.296 E2.79259
G1 F1800.000 E1.79259
G92 E0
G1 X132.300 Y139.005 F7800.000
G1 X171.487 Y138.426 F7800.000
G1 E1.00000 F1800.000
G1 X178.634 Y145.574 E1.93486 F1080.000
G1 X179.558 Y145.574 E2.02028
G1 X172.411 Y138.426 E2.95514
G1 X173.334 Y138.426 E3.04055
G1 X180.481 Y145.574 E3.97542
G1 X181.405 Y145.574 E4.06083
G1 X174.258 Y138.426 E4.99569
G1 X175.181 Y138.426 E5.08111
G1 X182.328 Y145.574 E6.01597
G1 X183.252 Y145.574 E6.10139
G1 X176.105 Y138.426 E7.03625
G1 X177.028 Y138.426 E7.12166
G1 X184.175 Y145.574 E8.05652
G1 X185.099 Y145.574 E8.14194
G1 X177.952 Y138.426 E9.07680
G1 X178.875 Y138.426 E9.16222
G1 X186.022 Y145.574 E10.09708
G1 X186.946 Y145.574 E10.18249
G1 X179.799 Y138.426 E11.11736
G1 X180.722 Y138.426 E11.20277
G1 X187.869 Y145.574 E12.13763
G1 X188.793 Y145.574 E12.22305
G1 X181.646 Y138.426 E13.15791
G1 X182.569 Y138.426 E13.24333
G1 X189.074 Y144.931 E14.09413
G1 X189.074 Y144.007 E14.17954
G1 X183.493 Y138.426 E14.90955
G1 X184.416 Y138.426 E14.99497
G1 X189.074 Y143.084 E15.60418
G1 X189.074 Y142.160 E15.68959
G1 X185.340 Y138.426 E16.17801
G1 X186.263 Y138.426 E16.26342
G1 X189.074 Y141.237 E16.63104
G1 X189.074 Y140.313 E16.71646
G1 X187.187 Y138.426 E16.96328
G1 X188.110 Y138.426 E17.04870
G1 X189.074 Y139.390 E17.17473
G1 X189.074 Y138.466 E17.26014
G1 X189.034 Y138.426 E17.26537
G1 X172.738 Y140.601 F7800.000
G1 X177.711 Y145.574 E17.91585 F1080.000
G1 X176.787 Y145.574 E18.00127
G1 X172.904 Y141.690 E18.50926
G1 X172.865 Y142.574 E18.59116
G1 X175.864 Y145.574 E18.98344
G1 X174.940 Y145.574 E19.06886
G1 X172.691 Y143.324 E19.36304
G1 X172.432 Y143.989 E19.42898
G1 X174.017 Y145.574 E19.63631
G1 X173.093 Y145.574 E19.72173
G1 X172.047 Y144.527 E19.85862
G1 X171.619 Y145.023 E19.91919
G1 X172.170 Y145.574 E19.99120
G1 X171.246 Y145.574 E20.07662
G1 X171.194 Y145.521 E20.08350
G1 F1800.000 E19.08350
G92 E0
G1 X166.254 Y138.426 F7800.000
G1 E1.00000 F1800.000
G1 X166.306 Y138.479 E1.00689 F1080.000
G1 X165.894 Y138.967 E1.06599
G1 X165.353 Y138.426 E1.13667
G1 X164.453 Y138.426 E1.21996
G1 X165.473 Y139.447 E1.35341
G1 X165.091 Y139.965 E1.41298
G1 X163.552 Y138.426 E1.61429
G1 X162.652 Y138.426 E1.69758
G1 X164.835 Y140.610 E1.98314
G1 X164.647 Y141.322 E2.05132
G1 X161.751 Y138.426 E2.43011
G1 X160.850 Y138.426 E2.51341
G1 X164.572 Y142.148 E3.00018
G1 X164.733 Y143.210 E3.09956
G1 X159.950 Y138.426 E3.72528
G1 X159.049 Y138.426 E3.80858
G1 X166.196 Y145.574 E4.74344
G1 X165.296 Y145.574 E4.82673
G1 X158.149 Y138.426 E5.76159
G1 X157.248 Y138.426 E5.84489
G1 X164.395 Y145.574 E6.77975
G1 X163.495 Y145.574 E6.86305
G1 X156.347 Y138.426 E7.79791
G1 X155.447 Y138.426 E7.88120
G1 X162.594 Y145.574 E8.81606
G1 X161.693 Y145.574 E8.89936
G1 X154.546 Y138.426 E9.83422
G1 X153.646 Y138.426 E9.91752
G1 X160.793 Y145.574 E10.85238
G1 X159.892 Y145.574 E10.93567
G1 X152.745 Y138.426 E11.87053
G1 X151.845 Y138.426 E11.95383
G1 X158.992 Y145.574 E12.88869
G1 X158.091 Y145.574 E12.97199
G1 X150.944 Y138.426 E13.90685
G1 X150.043 Y138.426 E13.99014
G1 X157.191 Y145.574 E14.92500
G1 X156.290 Y145.574 E15.00830
G1 X149.143 Y138.426 E15.94316
G1 X148.242 Y138.426 E16.02645
G1 X155.389 Y145.574 E16.96132
G1 X154.489 Y145.574 E17.04461
G1 X147.342 Y138.426 E17.97947
G1 X146.441 Y138.426 E18.06277
G1 X153.588 Y145.574 E18.99763
G1 X152.688 Y145.574 E19.08092
G1 X145.541 Y138.426 E20.01579
G1 X144.640 Y138.426 E20.09908
G1 X151.787 Y145.574 E21.03394
G1 X150.887 Y145.574 E21.11724
G1 X143.739 Y138.426 E22.05210
G1 X142.839 Y138.426 E22.13539
G1 X149.986 Y145.574 E23.07026
G1 X149.085 Y145.574 E23.15355
G1 X141.938 Y138.426 E24.08841
G1 X141.038 Y138.426 E24.17171
G1 X148.185 Y145.574 E25.10657
G1 X147.284 Y145.574 E25.18986
G1 X140.137 Y138.426 E26.12473
G1 X139.237 Y138.426 E26.20802
G1 X146.384 Y145.574 E27.14288
G1 X145.483 Y145.574 E27.22618
G1 X138.336 Y138.426 E28.16104
G1 X137.435 Y138.426 E28.24433
G1 X144.583 Y145.574 E29.17920
G1 X143.682 Y145.574 E29.26249
G1 X136.535 Y138.426 E30.19735
G1 X135.634 Y138.426 E30.28065
G1 X142.781 Y145.574 E31.21551
G1 X141.881 Y145.574 E31.29880
G1 X134.734 Y138.426 E32.23367
G1 X133.833 Y138.426 E32.31696
G1 X140.980 Y145.574 E33.25182
G1 X140.080 Y145.574 E33.33512
G1 X135.194 Y140.688 E33.97413
G1 X135.400 Y141.795 E34.07821
G1 X139.179 Y145.574 E34.57252
G1 X138.279 Y145.574 E34.65581
G1 X135.366 Y142.661 E35.03681
G1 X135.185 Y143.381 E35.10546
G1 X137.378 Y145.574 E35.39229
G1 X136.477 Y145.574 E35.47558
G1 X134.895 Y143.991 E35.68260
G1 X134.558 Y144.554 E35.74333
G1 X135.577 Y145.574 E35.87666
G1 X134.676 Y145.574 E35.95996
G1 X134.114 Y145.012 E36.03345
G1 X133.727 Y145.525 E36.09292
G1 X133.776 Y145.574 E36.09928
G1 F1800.000 E35.09928
G92 E0
G1 X128.724 Y138.426 F7800.000
G1 E1.00000 F1800.000
G1 X128.773 Y138.475 E1.00637 F1080.000
G1 X128.375 Y138.999 E1.06726
G1 X127.802 Y138.426 E1.14219
G1 X126.879 Y138.426 E1.22751
G1 X127.921 Y139.468 E1.36374
G1 X127.582 Y140.051 E1.42615
G1 X125.957 Y138.426 E1.63868
G1 X125.035 Y138.426 E1.72399
G1 X127.297 Y140.689 E2.01995
G1 X127.112 Y141.426 E2.09027
G1 X124.112 Y138.426 E2.48268
G1 X123.190 Y138.426 E2.56800
G1 X127.102 Y142.339 E3.07971
G1 X127.367 Y143.526 E3.19220
G1 X122.267 Y138.426 E3.85918
G1 X121.345 Y138.426 E3.94450
G1 X128.492 Y145.574 E4.87936
G1 X127.570 Y145.574 E4.96467
G1 X120.423 Y138.426 E5.89954
G1 X119.500 Y138.426 E5.98485
G1 X126.647 Y145.574 E6.91971
G1 X125.725 Y145.574 E7.00503
G1 X118.578 Y138.426 E7.93989
G1 X117.655 Y138.426 E8.02520
G1 X124.803 Y145.574 E8.96006
G1 X123.880 Y145.574 E9.04538
