; generated by Slic3r 1.1.7 on 2014-11-09 at 21:07:52

; perimeters extrusion width = 0.40mm
; infill extrusion width = 0.42mm
; solid infill extrusion width = 0.42mm
; top infill extrusion width = 0.42mm
; support material extrusion width = 0.40mm

G21 ; set units to millimeters
M104 S190 ; set temperature
G28
G29
G1 Z5 F5000 ; lift nozzle

M109 S190 ; wait for temperature to be reached
G90 ; use absolute coordinates
G92 E0
M82 ; use absolute distances for extrusion
M204 S1500
G1 F1800.000 E-1.00000
G92 E0
G1 Z0.350 F7800.000
G1 X90.888 Y90.364 F7800.000
G1 E1.00000 F1800.000
G1 X92.662 Y88.742 E1.22231 F1080.000
G1 X94.867 Y87.787 E1.44461
G1 X96.613 Y87.574 E1.60729
G1 X188.862 Y87.590 E10.13946
G1 X191.762 Y87.842 E10.40873 F1080.000
G1 X194.606 Y88.471 E10.67810
G1 X197.342 Y89.466 E10.94737
G1 X199.926 Y90.809 E11.21673
G1 X202.312 Y92.479 E11.48605
G1 X204.460 Y94.445 E11.75537
G1 X205.708 Y95.868 E11.93050
G1 X206.333 Y96.675 E12.02481
G1 X207.385 Y98.249 E12.19996
G1 X207.898 Y99.130 E12.29424
G1 X209.130 Y101.768 E12.56356
G1 X210.007 Y104.545 E12.83288
G1 X210.376 Y106.402 E13.00803
G1 X210.514 Y107.412 E13.10232
G1 X210.658 Y109.846 E13.32778
G1 X210.658 Y122.423 E14.49105
G1 X210.261 Y124.793 E14.71336
G1 X208.528 Y127.564 E15.01562
G1 X125.797 Y210.296 E25.83706
G1 X123.840 Y211.691 E26.05937
G1 X120.655 Y212.426 E26.36164
G1 X96.613 Y212.426 E28.58527
G1 X94.243 Y212.028 E28.80757
G1 X92.131 Y210.880 E29.02988
G1 X90.510 Y209.106 E29.25218
G1 X89.555 Y206.900 E29.47449
G1 X89.342 Y205.154 E29.63717
G1 X89.342 Y94.846 E39.83972
G1 X89.739 Y92.475 E40.06203
G1 X90.859 Y90.416 E40.27878
G1 X91.462 Y90.693 F7800.000
G1 X91.518 Y90.595 E40.28931 F1080.000
G1 X93.271 Y89.113 E40.50160
G1 X95.424 Y88.317 E40.71390
G1 X96.613 Y88.210 E40.82432
G1 X188.821 Y88.224 E49.35265
G1 X191.639 Y88.466 E49.61424 F1080.000
G1 X194.402 Y89.073 E49.87593
G1 X197.061 Y90.036 E50.13752
G1 X199.573 Y91.338 E50.39920
G1 X201.893 Y92.956 E50.66083
G1 X203.982 Y94.864 E50.92247
G1 X205.231 Y96.287 E51.09760
G1 X205.804 Y97.028 E51.18421
G1 X206.856 Y98.602 E51.35937
G1 X207.328 Y99.411 E51.44596
G1 X208.528 Y101.972 E51.70760
G1 X209.384 Y104.669 E51.96923
G1 X209.753 Y106.526 E52.14438
G1 X209.880 Y107.454 E52.23098
G1 X210.022 Y109.846 E52.45260
G1 X210.022 Y122.423 E53.61587
G1 X209.625 Y124.684 E53.82817
G1 X208.079 Y127.115 E54.09468
G1 X125.347 Y209.846 E64.91613
G1 X123.468 Y211.164 E65.12842
G1 X120.655 Y211.790 E65.39494
G1 X96.613 Y211.790 E67.61857
G1 X94.353 Y211.393 E67.83087
G1 X92.362 Y210.250 E68.04316
G1 X90.881 Y208.496 E68.25546
G1 X90.085 Y206.343 E68.46776
G1 X89.978 Y205.154 E68.57818
G1 X89.978 Y94.846 E78.78073
G1 X90.375 Y92.585 E78.99303
G1 X91.432 Y90.745 E79.18925
G1 F1800.000 E78.18925
G92 E0
G1 X94.541 Y93.772 F7800.000
G1 E1.00000 F1800.000
G1 X95.692 Y92.621 E1.15060 F1080.000
G1 X188.496 Y92.623 E9.73412
G1 X190.707 Y92.778 E9.93912 F1080.000
G1 X192.915 Y93.227 E10.14754
G1 X195.045 Y93.960 E10.35591
G1 X197.062 Y94.965 E10.56433
G1 X198.930 Y96.225 E10.77271
G1 X200.618 Y97.717 E10.98110
G1 X202.096 Y99.418 E11.18949
G1 X203.340 Y101.296 E11.39789
G1 X204.328 Y103.321 E11.60628
G1 X205.005 Y105.317 E11.80122
G1 X205.473 Y107.670 E12.02306
G1 X205.611 Y109.809 E12.22137
G1 X205.611 Y122.865 E13.42894
G1 X205.273 Y123.683 E13.51080
G1 X197.237 Y131.719 E14.56186
G1 X195.394 Y131.719 E14.73232
G1 X179.608 Y115.933 E16.79713
G1 X179.082 Y115.933 E16.84584
G1 X114.165 Y180.849 E25.33706
G1 X114.165 Y181.376 E25.38576
G1 X129.951 Y197.162 E27.45058
G1 X129.951 Y199.005 E27.62103
G1 X121.915 Y207.040 E28.67210
G1 X121.098 Y207.379 E28.75396
G1 X95.692 Y207.379 E31.10375
G1 X94.389 Y206.076 E31.27421
G1 X94.389 Y194.233 E32.36958
G1 X95.692 Y192.930 E32.54003
G1 X99.016 Y192.930 E32.84752
G1 X99.389 Y192.557 E32.89622
G1 X99.389 Y187.751 E33.34073
G1 X99.016 Y187.379 E33.38943
G1 X95.692 Y187.379 E33.69692
G1 X94.389 Y186.076 E33.86738
G1 X94.389 Y118.924 E40.07830
G1 X95.692 Y117.621 E40.24875
G1 X99.016 Y117.621 E40.55624
G1 X99.389 Y117.249 E40.60494
G1 X99.389 Y112.443 E41.04945
G1 X99.016 Y112.070 E41.09815
G1 X95.692 Y112.070 E41.40564
G1 X94.389 Y110.767 E41.57610
G1 X94.389 Y93.924 E43.13392
G1 X94.498 Y93.815 E43.14823
G1 X95.024 Y94.187 F7800.000
G1 X95.955 Y93.257 E43.26998 F1080.000
G1 X188.413 Y93.257 E51.82145
G1 X190.603 Y93.405 E52.02454 F1080.000
G1 X192.730 Y93.835 E52.22526
G1 X194.783 Y94.539 E52.42595
G1 X196.726 Y95.505 E52.62667
G1 X198.527 Y96.716 E52.82736
G1 X200.154 Y98.152 E53.02806
G1 X201.579 Y99.788 E53.22876
G1 X202.779 Y101.596 E53.42947
G1 X203.733 Y103.545 E53.63017
G1 X204.397 Y105.502 E53.82126
G1 X204.840 Y107.732 E54.03157
G1 X204.976 Y109.820 E54.22507
G1 X204.976 Y122.739 E55.41998
G1 X204.734 Y123.323 E55.47845
G1 X196.974 Y131.083 E56.49347
G1 X195.657 Y131.083 E56.61523
G1 X179.608 Y115.034 E58.71448
G1 X179.082 Y115.034 E58.76318
G1 X113.266 Y180.849 E67.37198
G1 X113.266 Y181.376 E67.42069
G1 X129.315 Y197.425 E69.51994
G1 X129.315 Y198.741 E69.64169
G1 X121.555 Y206.501 E70.65672
G1 X120.971 Y206.743 E70.71518
G1 X95.955 Y206.743 E73.02893
G1 X95.024 Y205.813 E73.15069
G1 X95.024 Y194.496 E74.19735
G1 X95.955 Y193.565 E74.31911
G1 X99.652 Y193.565 E74.66103
G1 X100.024 Y193.193 E74.70973
G1 X100.024 Y187.116 E75.27182
G1 X99.652 Y186.743 E75.32052
G1 X95.955 Y186.743 E75.66245
G1 X95.024 Y185.813 E75.78420
G1 X95.024 Y119.187 E81.94642
G1 X95.955 Y118.257 E82.06817
G1 X99.652 Y118.257 E82.41010
G1 X100.024 Y117.884 E82.45880
G1 X100.024 Y111.807 E83.02089
G1 X99.652 Y111.435 E83.06959
G1 X95.955 Y111.435 E83.41151
G1 X95.024 Y110.504 E83.53327
G1 X95.024 Y94.247 E85.03684
G1 X95.660 Y94.451 F7800.000
G1 X96.219 Y93.892 E85.10989 F1080.000
G1 X188.433 Y93.893 E93.63894
G1 X190.500 Y94.033 E93.83049 F1080.000
G1 X192.546 Y94.444 E94.02352
G1 X194.520 Y95.119 E94.21652
G1 X196.390 Y96.045 E94.40954
G1 X198.123 Y97.208 E94.60254
G1 X199.689 Y98.587 E94.79556
G1 X201.062 Y100.159 E94.98857
G1 X202.218 Y101.896 E95.18158
G1 X203.138 Y103.769 E95.37459
G1 X203.788 Y105.686 E95.56183
G1 X204.208 Y107.794 E95.76061
G1 X204.340 Y109.830 E95.94930
G1 X204.340 Y122.612 E97.13156
G1 X204.195 Y122.963 E97.16664
G1 X196.710 Y130.447 E98.14562
G1 X195.921 Y130.447 E98.21867
G1 X179.608 Y114.135 E100.35236
G1 X179.082 Y114.135 E100.40106
G1 X112.367 Y180.849 E109.12744
G1 X112.367 Y181.376 E109.17614
G1 X128.680 Y197.688 E111.30983
G1 X128.680 Y198.478 E111.38289
G1 X121.195 Y205.963 E112.36186
G1 X120.845 Y206.108 E112.39694
G1 X96.219 Y206.108 E114.67465
G1 X95.660 Y205.549 E114.74770
G1 X95.660 Y194.759 E115.74566
G1 X96.219 Y194.201 E115.81872
G1 X100.288 Y194.201 E116.19508
G1 X100.660 Y193.829 E116.24378
G1 X100.660 Y186.480 E116.92345
G1 X100.288 Y186.108 E116.97215
G1 X96.219 Y186.108 E117.34851
G1 X95.660 Y185.549 E117.42156
G1 X95.660 Y119.451 E123.53507
G1 X96.219 Y118.892 E123.60813
G1 X100.288 Y118.892 E123.98449
G1 X100.660 Y118.520 E124.03319
G1 X100.660 Y111.171 E124.71286
G1 X100.288 Y110.799 E124.76156
G1 X96.219 Y110.799 E125.13792
G1 X95.660 Y110.241 E125.21097
G1 X95.660 Y94.511 E126.66584
G1 X96.482 Y94.528 F7800.000
G1 X188.392 Y94.528 E135.16668 F1080.000
G1 X190.376 Y94.658 E135.35056
G1 X192.341 Y95.047 E135.53589
G1 X194.258 Y95.698 E135.72312
G1 X196.054 Y96.585 E135.90845
G1 X197.779 Y97.752 E136.10102
G1 X199.225 Y99.022 E136.27903
G1 X200.533 Y100.513 E136.46243
G1 X201.647 Y102.178 E136.64775
G1 X202.542 Y103.993 E136.83499
G1 X203.185 Y105.891 E137.02031
G1 X203.575 Y107.857 E137.20563
G1 X203.704 Y109.840 E137.38951
G1 X203.704 Y122.486 E138.55912
G1 X203.656 Y122.603 E138.57081
G1 X196.447 Y129.812 E139.51374
G1 X196.184 Y129.812 E139.53809
G1 X179.608 Y113.236 E141.70622
G1 X179.082 Y113.236 E141.75492
G1 X111.468 Y180.849 E150.59888
G1 X111.468 Y181.376 E150.64758
G1 X128.044 Y197.952 E152.81571
G1 X128.044 Y198.215 E152.84006
G1 X120.835 Y205.424 E153.78299
G1 X120.718 Y205.472 E153.79469
G1 X96.482 Y205.472 E156.03634
G1 X96.296 Y205.286 E156.06069
G1 X96.296 Y195.023 E157.00995
G1 X96.482 Y194.837 E157.03430
G1 X100.923 Y194.837 E157.44510
G1 X101.296 Y194.464 E157.49381
G1 X101.296 Y185.844 E158.29105
G1 X100.923 Y185.472 E158.33975
G1 X96.482 Y185.472 E158.75055
G1 X96.296 Y185.286 E158.77490
G1 X96.296 Y119.714 E164.83971
G1 X96.482 Y119.528 E164.86406
G1 X100.923 Y119.528 E165.27486
G1 X101.296 Y119.156 E165.32356
G1 X101.296 Y110.536 E166.12081
G1 X100.923 Y110.163 E166.16951
G1 X96.482 Y110.163 E166.58031
G1 X96.296 Y109.977 E166.60466
G1 X96.296 Y94.714 E168.01638
G1 X96.439 Y94.570 E168.03518
G1 F1800.000 E167.03518
G92 E0
G1 X179.345 Y112.028 F7800.000
G1 E1.00000 F1800.000
G1 X110.261 Y181.113 E10.03637 F378.000
G1 X127.231 Y198.083 E12.25615
G1 X120.510 Y204.804 E13.13528
G1 X96.963 Y204.804 E15.31313
G1 X96.963 Y195.504 E16.17330
G1 X101.963 Y195.504 E16.63575
G1 X101.963 Y184.804 E17.62540
G1 X96.963 Y184.804 E18.08786
G1 X96.963 Y120.196 E24.06358
G1 X101.963 Y120.196 E24.52603
G1 X101.963 Y109.496 E25.51568
G1 X96.963 Y109.496 E25.97814
G1 X96.963 Y95.196 E27.30076
G1 X188.375 Y95.196 E35.75551
G1 X190.299 Y95.322 E35.93381
G1 X192.178 Y95.696 E36.11104
G1 X194.034 Y96.332 E36.29247
G1 X195.711 Y97.159 E36.46547
G1 X197.304 Y98.224 E36.64270
G1 X198.745 Y99.487 E36.81993
G1 X200.009 Y100.928 E36.99716
G1 X201.073 Y102.521 E37.17440
G1 X201.921 Y104.240 E37.35163
G1 X202.537 Y106.054 E37.52886
G1 X202.910 Y107.934 E37.70609
G1 X203.037 Y109.857 E37.88439
G1 X203.037 Y122.278 E39.03319
G1 X196.315 Y128.999 E39.91232
G1 X179.387 Y112.071 E42.12656
G1 X179.062 Y111.746 F7800.000
G1 X179.345 Y111.129 F7800.000
G1 X109.362 Y181.113 E51.28050 F540.000
G1 X126.332 Y198.083 E53.50028
G1 X120.247 Y204.169 E54.29627
G1 X97.599 Y204.169 E56.39098
G1 X97.599 Y196.140 E57.13357
G1 X102.599 Y196.140 E57.59603
G1 X102.599 Y184.169 E58.70326
G1 X97.599 Y184.169 E59.16571
G1 X97.599 Y120.831 E65.02385
G1 X102.599 Y120.831 E65.48631
G1 X102.599 Y108.860 E66.59354
G1 X97.599 Y108.860 E67.05599
G1 X97.599 Y95.831 E68.26103
G1 X188.354 Y95.831 E76.65507
G1 X190.216 Y95.953 E76.82759
G1 X192.013 Y96.311 E76.99711
G1 X193.749 Y96.900 E77.16664
G1 X195.393 Y97.711 E77.33616
G1 X196.917 Y98.729 E77.50569
G1 X198.295 Y99.938 E77.67522
G1 X199.503 Y101.316 E77.84474
G1 X200.522 Y102.840 E78.01427
G1 X201.332 Y104.483 E78.18380
G1 X201.921 Y106.219 E78.35332
G1 X202.279 Y108.017 E78.52285
G1 X202.401 Y109.878 E78.69537
G1 X202.401 Y122.015 E79.81789
G1 X196.315 Y128.100 E80.61388
G1 X179.387 Y111.172 E82.82812
G1 X161.654 Y109.496 F7800.000
G1 X111.263 Y159.887 E89.41935 F378.000
G1 X111.263 Y109.496 E94.08005
G1 X161.594 Y109.496 E98.73521
G1 X162.001 Y109.696 F7800.000
G1 X163.189 Y108.860 F7800.000
G1 X110.628 Y161.421 E105.61030 F540.000
G1 X110.628 Y108.860 E110.47173
G1 X163.129 Y108.860 E115.32760
G1 X163.593 Y109.079 F7800.000
G1 X172.183 Y117.668 E116.45110 F1080.000
G1 X171.733 Y118.118 E116.50995
G1 X163.143 Y109.529 E117.63345
G1 X162.694 Y109.979 E117.69230
G1 X171.283 Y118.568 E118.81580
G1 X170.833 Y119.018 E118.87464
G1 X162.244 Y110.429 E119.99815
G1 X161.794 Y110.879 E120.05699
G1 X170.383 Y119.468 E121.18049
G1 X169.933 Y119.918 E121.23934
G1 X161.344 Y111.328 E122.36284
G1 X160.894 Y111.778 E122.42169
G1 X169.483 Y120.368 E123.54519
G1 X169.033 Y120.818 E123.60404
G1 X160.444 Y112.228 E124.72754
G1 X159.994 Y112.678 E124.78638
G1 X168.583 Y121.268 E125.90989
G1 X168.134 Y121.717 E125.96873
G1 X159.544 Y113.128 E127.09223
G1 X159.094 Y113.578 E127.15108
G1 X167.684 Y122.167 E128.27458
G1 X167.234 Y122.617 E128.33343
G1 X158.644 Y114.028 E129.45693
G1 X158.195 Y114.478 E129.51578
G1 X166.784 Y123.067 E130.63928
G1 X166.334 Y123.517 E130.69813
G1 X157.745 Y114.928 E131.82163
G1 X157.295 Y115.378 E131.88047
G1 X165.884 Y123.967 E133.00397
G1 X165.434 Y124.417 E133.06282
G1 X156.845 Y115.827 E134.18632
G1 X156.395 Y116.277 E134.24517
G1 X164.984 Y124.867 E135.36867
G1 X164.534 Y125.317 E135.42752
G1 X155.945 Y116.727 E136.55102
G1 X155.495 Y117.177 E136.60987
G1 X164.085 Y125.766 E137.73337
G1 X163.635 Y126.216 E137.79221
G1 X155.045 Y117.627 E138.91571
G1 X154.595 Y118.077 E138.97456
G1 X163.185 Y126.666 E140.09806
G1 X162.735 Y127.116 E140.15691
G1 X154.146 Y118.527 E141.28041
G1 X153.696 Y118.977 E141.33926
G1 X162.285 Y127.566 E142.46276
G1 X161.835 Y128.016 E142.52161
G1 X153.246 Y119.427 E143.64511
G1 X152.796 Y119.876 E143.70395
G1 X161.385 Y128.466 E144.82746
G1 X160.935 Y128.916 E144.88630
G1 X152.346 Y120.326 E146.00980
G1 X151.896 Y120.776 E146.06865
G1 X160.485 Y129.366 E147.19215
G1 X160.036 Y129.815 E147.25100
G1 X151.446 Y121.226 E148.37450
G1 X150.996 Y121.676 E148.43335
G1 X159.586 Y130.265 E149.55685
G1 X159.136 Y130.715 E149.61570
G1 X150.546 Y122.126 E150.73920
G1 X150.096 Y122.576 E150.79804
G1 X158.686 Y131.165 E151.92154
G1 X158.236 Y131.615 E151.98039
G1 X149.647 Y123.026 E153.10389
G1 X149.197 Y123.476 E153.16274
G1 X157.786 Y132.065 E154.28624
G1 X157.336 Y132.515 E154.34509
G1 X148.747 Y123.926 E155.46859
G1 X148.297 Y124.375 E155.52744
G1 X156.886 Y132.965 E156.65094
G1 X156.436 Y133.415 E156.70978
G1 X147.847 Y124.825 E157.83329
G1 X147.397 Y125.275 E157.89213
G1 X155.986 Y133.865 E159.01563
G1 X155.537 Y134.314 E159.07448
G1 X146.947 Y125.725 E160.19798
G1 X146.497 Y126.175 E160.25683
G1 X155.087 Y134.764 E161.38033
G1 X154.637 Y135.214 E161.43918
G1 X146.047 Y126.625 E162.56268
G1 X145.598 Y127.075 E162.62153
G1 X154.187 Y135.664 E163.74503
G1 X153.737 Y136.114 E163.80387
G1 X145.148 Y127.525 E164.92737
G1 X144.698 Y127.975 E164.98622
G1 X153.287 Y136.564 E166.10972
G1 X152.837 Y137.014 E166.16857
G1 X144.248 Y128.424 E167.29207
G1 X143.798 Y128.874 E167.35092
G1 X152.387 Y137.464 E168.47442
G1 X151.937 Y137.914 E168.53327
G1 X143.348 Y129.324 E169.65677
G1 X142.898 Y129.774 E169.71561
G1 X151.488 Y138.363 E170.83912
G1 X151.038 Y138.813 E170.89796
G1 X142.448 Y130.224 E172.02146
G1 X141.998 Y130.674 E172.08031
G1 X150.588 Y139.263 E173.20381
G1 X150.138 Y139.713 E173.26266
G1 X141.549 Y131.124 E174.38616
G1 X141.099 Y131.574 E174.44501
G1 X149.688 Y140.163 E175.56851
G1 X149.238 Y140.613 E175.62736
G1 X140.649 Y132.024 E176.75086
G1 X140.199 Y132.474 E176.80970
G1 X148.788 Y141.063 E177.93321
G1 X148.338 Y141.513 E177.99205
G1 X139.749 Y132.923 E179.11555
G1 X139.299 Y133.373 E179.17440
G1 X147.888 Y141.963 E180.29790
G1 X147.438 Y142.413 E180.35675
G1 X138.849 Y133.823 E181.48025
G1 X138.399 Y134.273 E181.53910
G1 X146.989 Y142.862 E182.66260
G1 X146.539 Y143.312 E182.72145
G1 X137.949 Y134.723 E183.84495
G1 X137.499 Y135.173 E183.90379
G1 X146.089 Y143.762 E185.02730
G1 X145.639 Y144.212 E185.08614
G1 X137.050 Y135.623 E186.20964
G1 X136.600 Y136.073 E186.26849
G1 X145.189 Y144.662 E187.39199
G1 X144.739 Y145.112 E187.45084
G1 X136.150 Y136.523 E188.57434
G1 X135.700 Y136.972 E188.63319
G1 X144.289 Y145.562 E189.75669
G1 X143.839 Y146.012 E189.81554
G1 X135.250 Y137.422 E190.93904
G1 X134.800 Y137.872 E190.99788
G1 X143.389 Y146.462 E192.12139
G1 X142.940 Y146.911 E192.18023
G1 X134.350 Y138.322 E193.30373
G1 X133.900 Y138.772 E193.36258
G1 X142.490 Y147.361 E194.48608
G1 X142.040 Y147.811 E194.54493
G1 X133.450 Y139.222 E195.66843
G1 X133.001 Y139.672 E195.72728
G1 X141.590 Y148.261 E196.85078
G1 X141.140 Y148.711 E196.90963
G1 X132.551 Y140.122 E198.03313
G1 X132.101 Y140.572 E198.09198
G1 X140.690 Y149.161 E199.21548
G1 X140.240 Y149.611 E199.27432
G1 X131.651 Y141.022 E200.39783
G1 X131.201 Y141.471 E200.45667
G1 X139.790 Y150.061 E201.58017
G1 X139.340 Y150.511 E201.63902
G1 X130.751 Y141.921 E202.76252
G1 X130.301 Y142.371 E202.82137
G1 X138.890 Y150.961 E203.94487
G1 X138.441 Y151.410 E204.00372
G1 X129.851 Y142.821 E205.12722
G1 X129.401 Y143.271 E205.18607
G1 X137.991 Y151.860 E206.30957
G1 X137.541 Y152.310 E206.36841
G1 X128.951 Y143.721 E207.49192
G1 X128.502 Y144.171 E207.55076
G1 X137.091 Y152.760 E208.67426
G1 X136.641 Y153.210 E208.73311
G1 X128.052 Y144.621 E209.85661
G1 X127.602 Y145.071 E209.91546
G1 X136.191 Y153.660 E211.03896
