; generated by Slic3r 1.1.7 on 2014-11-30 at 02:58:56

; perimeters extrusion width = 0.40mm
; infill extrusion width = 0.42mm
; solid infill extrusion width = 0.42mm
; top infill extrusion width = 0.42mm
; support material extrusion width = 0.40mm

G21 ; set units to millimeters
M104 S190 ; set temperature
G28
G29
G1 Z5 F5000 ; lift nozzle

M109 S190 ; wait for temperature to be reached
G90 ; use absolute coordinates
G92 E0
M82 ; use absolute distances for extrusion
M204 S1500
G1 F1800.000 E-1.00000
G92 E0
G1 Z0.350 F7800.000
G1 X72.109 Y72.049 F7800.000
G1 E1.00000 F1800.000
G1 X72.403 Y71.756 E1.03840 F1080.000
G1 X73.309 Y71.044 E1.14506
G1 X74.308 Y70.451 E1.25246
G1 X75.372 Y69.995 E1.35958
G1 X76.490 Y69.681 E1.46693
G1 X159.220 Y54.564 E9.24544
G1 X159.764 Y54.545 E9.29576
G1 X163.466 Y54.545 E9.63815
G1 X197.939 Y54.640 E12.82664
G1 X198.087 Y54.664 E12.84047 F1080.000
G1 X199.605 Y55.086 E12.98620
G1 X199.864 Y55.191 E13.01205
G1 X235.980 Y70.361 E16.63517
G1 X236.986 Y70.927 E16.74191
G1 X237.915 Y71.622 E16.84925
G1 X238.745 Y72.433 E16.95658
G1 X239.462 Y73.344 E17.06382
G1 X240.054 Y74.343 E17.17118
G1 X240.511 Y75.409 E17.27847
G1 X240.578 Y75.607 E17.29784
G1 X240.902 Y76.995 E17.42967
G1 X240.955 Y77.399 E17.46727
G1 X241.018 Y78.359 E17.55630
G1 X241.018 Y216.346 E30.31883
G1 X240.621 Y218.716 E30.54114
G1 X239.075 Y221.294 E30.81917
G1 X234.665 Y226.035 E31.41802
G1 X232.330 Y228.370 E31.72343
G1 X230.407 Y229.749 E31.94229
G1 X199.744 Y244.859 E35.10399
G1 X199.605 Y244.914 E35.11783
G1 X198.066 Y245.339 E35.26544
G1 X196.764 Y245.455 E35.38639
G1 X118.094 Y245.455 E42.66264
G1 X113.379 Y245.445 E43.09879
G1 X113.229 Y245.437 E43.11262
G1 X111.678 Y245.182 E43.25799
G1 X111.534 Y245.142 E43.27183
G1 X110.261 Y244.656 E43.39791
G1 X80.063 Y229.748 E46.51268
G1 X78.141 Y228.370 E46.73150
G1 X75.619 Y225.842 E47.06172
G1 X71.396 Y221.294 E47.63576
G1 X69.726 Y218.323 E47.95102
G1 X58.681 Y179.226 E51.70866
G1 X58.407 Y177.249 E51.89324
G1 X58.410 Y162.782 E53.23131
G1 X59.788 Y108.244 E58.27720
G1 X59.955 Y106.864 E58.40578
G1 X60.162 Y106.069 E58.48174
G1 X69.958 Y75.414 E61.45834
G1 X70.324 Y74.531 E61.54673
G1 X70.892 Y73.519 E61.65406
G1 X71.587 Y72.590 E61.76134
G1 X72.066 Y72.092 E61.82526
G1 X72.557 Y72.498 F7800.000
G1 X72.822 Y72.234 E61.85979 F1080.000
G1 X73.662 Y71.572 E61.95878
G1 X74.589 Y71.021 E62.05847
G1 X75.577 Y70.597 E62.15792
G1 X76.614 Y70.305 E62.25758
G1 X159.255 Y55.198 E70.02774
G1 X159.764 Y55.180 E70.07487
G1 X163.466 Y55.180 E70.41726
G1 X197.836 Y55.268 E73.59625
G1 X197.984 Y55.292 E73.61008 F1080.000
G1 X199.369 Y55.677 E73.74307
G1 X199.618 Y55.777 E73.76786
G1 X235.699 Y70.931 E77.38741
G1 X236.633 Y71.455 E77.48647
G1 X237.496 Y72.100 E77.58611
G1 X238.267 Y72.852 E77.68575
G1 X238.933 Y73.698 E77.78531
G1 X239.484 Y74.624 E77.88498
G1 X239.909 Y75.613 E77.98458
G1 X239.976 Y75.812 E78.00395
G1 X240.271 Y77.078 E78.12425
G1 X240.324 Y77.482 E78.16185
G1 X240.383 Y78.359 E78.24319
G1 X240.383 Y216.346 E91.00573
G1 X239.986 Y218.607 E91.21802
G1 X238.609 Y220.862 E91.46239
G1 X234.215 Y225.586 E92.05907
G1 X231.881 Y227.920 E92.36448
G1 X230.126 Y229.179 E92.56420
G1 X199.508 Y244.268 E95.72127
G1 X199.369 Y244.324 E95.73510
G1 X197.964 Y244.712 E95.86998
G1 X196.764 Y244.820 E95.98139
G1 X118.094 Y244.820 E103.25764
G1 X113.413 Y244.810 E103.69060
G1 X113.264 Y244.802 E103.70443
G1 X111.848 Y244.570 E103.83710
G1 X111.704 Y244.530 E103.85093
G1 X110.542 Y244.086 E103.96599
G1 X80.345 Y229.178 E107.08077
G1 X78.590 Y227.920 E107.28046
G1 X76.085 Y225.409 E107.60851
G1 X71.861 Y220.862 E108.18255
G1 X70.338 Y218.150 E108.47025
G1 X59.293 Y179.053 E112.22789
G1 X59.043 Y177.249 E112.39633
G1 X59.045 Y162.798 E113.73291
G1 X60.423 Y108.260 E118.77881
G1 X60.576 Y107.000 E118.89615
G1 X60.768 Y106.262 E118.96667
G1 X70.560 Y75.618 E121.94221
G1 X70.894 Y74.812 E122.02291
G1 X71.421 Y73.872 E122.12256
G1 X72.065 Y73.009 E122.22215
G1 X72.515 Y72.540 E122.28225
G1 F1800.000 E121.28225
G92 E0
G1 X212.300 Y212.237 F7800.000
G1 E1.00000 F1800.000
G1 X212.701 Y211.880 E1.04962 F1080.000
G1 X212.915 Y211.716 E1.07461
G1 X213.315 Y211.449 E1.11908
G1 X213.979 Y211.102 E1.18838
G1 X214.362 Y210.953 E1.22638
G1 X214.944 Y210.774 E1.28273
G1 X215.482 Y210.667 E1.33346
G1 X215.886 Y210.627 E1.37100
G1 X232.558 Y210.627 E2.91301
G1 X232.963 Y210.667 E2.95060
G1 X233.499 Y210.774 E3.00120 F1080.000
G1 X234.215 Y210.998 E3.07056
G1 X234.895 Y211.314 E3.13995
G1 X235.130 Y211.449 E3.16500
G1 X235.529 Y211.716 E3.20940
G1 X236.104 Y212.197 E3.27872
G1 X236.610 Y212.747 E3.34788
G1 X236.776 Y212.963 E3.37303
G1 X237.178 Y213.597 E3.44248
G1 X237.391 Y214.027 E3.48688
G1 X237.670 Y214.795 E3.56248
G1 X237.762 Y215.191 E3.60004
G1 X238.088 Y217.663 E3.83063
G1 X235.619 Y220.477 E4.17691
G1 X234.040 Y220.477 E4.32299
G1 X233.663 Y220.880 E4.37397
G1 X233.769 Y222.491 E4.52334
G1 X228.786 Y227.473 E5.17503
G1 X225.050 Y227.229 E5.52130
G1 X224.535 Y226.558 E5.59953
G1 X223.909 Y226.558 E5.65751
G1 X223.394 Y227.229 E5.73576
G1 X219.658 Y227.473 E6.08202
G1 X214.676 Y222.491 E6.73369
G1 X214.781 Y220.880 E6.88306
G1 X214.405 Y220.477 E6.93404
G1 X212.825 Y220.477 E7.08012
G1 X210.357 Y217.663 E7.42641
G1 X210.682 Y215.191 E7.65697
G1 X210.774 Y214.796 E7.69452
G1 X210.950 Y214.277 E7.74521
G1 X211.266 Y213.597 E7.81453
G1 X211.401 Y213.362 E7.83956
G1 X211.833 Y212.749 E7.90894
G1 X212.258 Y212.279 E7.96752
G1 X212.750 Y212.686 F7800.000
G1 X213.286 Y212.233 E8.03249 F1080.000
G1 X213.651 Y211.989 E8.07309
G1 X214.242 Y211.681 E8.13471
G1 X214.567 Y211.555 E8.16699
G1 X215.089 Y211.393 E8.21753
G1 X215.576 Y211.296 E8.26343
G1 X215.917 Y211.263 E8.29519
G1 X232.527 Y211.263 E9.83142
G1 X232.869 Y211.296 E9.86323 F1080.000
G1 X233.576 Y211.452 E9.93021
G1 X234.202 Y211.681 E9.99183
G1 X234.596 Y211.875 E10.03239
G1 X235.159 Y212.233 E10.09410
G1 X235.341 Y212.373 E10.11539
G1 X235.669 Y212.661 E10.15577
G1 X236.119 Y213.151 E10.21727
G1 X236.259 Y213.333 E10.23855
G1 X236.617 Y213.896 E10.30029
G1 X236.899 Y214.501 E10.36198
G1 X237.058 Y214.970 E10.40779
G1 X237.136 Y215.305 E10.43958
G1 X237.420 Y217.460 E10.64063
G1 X235.331 Y219.842 E10.93364
G1 X233.361 Y219.842 E11.11586
G1 X232.984 Y220.244 E11.16683
G1 X233.115 Y222.245 E11.35233
G1 X228.540 Y226.820 E11.95075
G1 X225.379 Y226.613 E12.24375
G1 X224.536 Y225.514 E12.37195
G1 X223.909 Y225.513 E12.42993
G1 X223.065 Y226.613 E12.55815
G1 X219.904 Y226.820 E12.85113
G1 X215.329 Y222.245 E13.44954
G1 X215.460 Y220.244 E13.63504
G1 X215.083 Y219.842 E13.68601
G1 X213.113 Y219.842 E13.86823
G1 X211.024 Y217.460 E14.16124
G1 X211.308 Y215.305 E14.36228
G1 X211.386 Y214.970 E14.39405
G1 X211.546 Y214.501 E14.43993
G1 X211.827 Y213.897 E14.50156
G1 X211.941 Y213.698 E14.52274
G1 X212.324 Y213.152 E14.58443
G1 X212.707 Y212.729 E14.63724
G1 X213.199 Y213.136 F7800.000
G1 X213.656 Y212.750 E14.69259 F1080.000
G1 X213.987 Y212.529 E14.72934
G1 X214.504 Y212.260 E14.78327
G1 X215.233 Y212.012 E14.85452
G1 X215.669 Y211.926 E14.89559
G1 X215.949 Y211.898 E14.92158
G1 X232.496 Y211.898 E16.45203
G1 X232.776 Y211.926 E16.47805
G1 X233.210 Y212.012 E16.51905 F1080.000
G1 X233.767 Y212.188 E16.57302
G1 X234.458 Y212.529 E16.64431
G1 X234.788 Y212.750 E16.68101
G1 X235.235 Y213.125 E16.73496
G1 X235.742 Y213.704 E16.80617
G1 X236.056 Y214.196 E16.86021
G1 X236.232 Y214.552 E16.89690
G1 X236.446 Y215.145 E16.95520
G1 X236.510 Y215.419 E16.98121
G1 X236.752 Y217.257 E17.15274
G1 X235.043 Y219.206 E17.39247
G1 X232.682 Y219.206 E17.61082
G1 X232.306 Y219.608 E17.66179
G1 X232.462 Y222.000 E17.88343
G1 X228.295 Y226.167 E18.42857
G1 X225.708 Y225.998 E18.66830
G1 X224.536 Y224.469 E18.84647
G1 X223.909 Y224.469 E18.90445
G1 X222.736 Y225.998 E19.08264
G1 X220.150 Y226.167 E19.32235
G1 X215.982 Y222.000 E19.86748
G1 X216.139 Y219.608 E20.08912
G1 X215.762 Y219.206 E20.14009
G1 X213.401 Y219.206 E20.35844
G1 X211.692 Y217.257 E20.59818
G1 X211.934 Y215.419 E20.76969
G1 X211.998 Y215.145 E20.79569
G1 X212.141 Y214.725 E20.83674
G1 X212.481 Y214.034 E20.90797
G1 X212.816 Y213.556 E20.96196
G1 X213.157 Y213.178 E21.00900
G1 F1800.000 E20.00900
G92 E0
G1 X216.877 Y218.571 F7800.000
G1 E1.00000 F1800.000
G1 X213.689 Y218.571 E1.29482 F1080.000
G1 X212.360 Y217.055 E1.48128
G1 X212.560 Y215.533 E1.62327
G1 X212.610 Y215.320 E1.64349
G1 X212.792 Y214.815 E1.69316
G1 X213.021 Y214.370 E1.73945
G1 X213.219 Y214.075 E1.77231
G1 X213.644 Y213.590 E1.83194
G1 X213.911 Y213.355 E1.86485
G1 X214.322 Y213.069 E1.91117
G1 X214.901 Y212.784 E1.97083
G1 X215.378 Y212.632 E2.01714
G1 X215.762 Y212.555 E2.05339
G1 X215.980 Y212.534 E2.07361
G1 X232.464 Y212.534 E3.59828
G1 X232.682 Y212.555 E3.61852
G1 X233.207 Y212.669 E3.66819
G1 X233.677 Y212.839 E3.71444
G1 X234.122 Y213.069 E3.76076
G1 X234.534 Y213.356 E3.80714
G1 X234.800 Y213.589 E3.83987
G1 X235.136 Y213.958 E3.88605
G1 X235.423 Y214.370 E3.93244
G1 X235.653 Y214.815 E3.97875
G1 X235.834 Y215.320 E4.02840
G1 X235.884 Y215.533 E4.04863
G1 X236.084 Y217.055 E4.19063
G1 X234.755 Y218.571 E4.37709
G1 X231.568 Y218.571 E4.67191
G1 X231.275 Y219.433 E4.75617
G1 X231.677 Y219.742 E4.80311
G1 X231.809 Y221.754 E4.98957
G1 X228.049 Y225.514 E5.48143
G1 X226.037 Y225.382 E5.66789
G1 X225.072 Y224.125 E5.81446
G1 X224.927 Y223.872 E5.84144
G1 X224.647 Y223.197 E5.90907
G1 X223.797 Y223.197 E5.98763
G1 X223.518 Y223.872 E6.05524
G1 X223.372 Y224.125 E6.08222
G1 X222.407 Y225.382 E6.22883
G1 X220.395 Y225.514 E6.41527
G1 X216.635 Y221.754 E6.90713
G1 X216.767 Y219.742 E7.09359
G1 X217.169 Y219.433 E7.14053
G1 X216.896 Y218.627 E7.21923
G1 F1800.000 E6.21923
G92 E0
G1 X225.104 Y218.320 F7800.000
G1 E1.00000 F1800.000
G1 X224.733 Y217.950 E1.04844 F1080.000
G1 X224.019 Y217.949 E1.11450
G1 X223.711 Y217.950 E1.14303
G1 X223.341 Y218.320 E1.19146
G1 X223.328 Y222.117 E1.54261
G1 X223.245 Y222.799 E1.60618
G1 X223.191 Y223.000 E1.62542
G1 X222.946 Y223.591 E1.68453
G1 X222.842 Y223.771 E1.70381
G1 X222.078 Y224.767 E1.81991
G1 X220.641 Y224.861 E1.95309
G1 X217.288 Y221.508 E2.39167
G1 X217.382 Y220.071 E2.52486
G1 X218.368 Y219.315 E2.63979
G1 X218.499 Y219.049 E2.66721
G1 X218.499 Y218.307 E2.73579
G1 X218.127 Y217.935 E2.78449
G1 X213.977 Y217.935 E3.16831
G1 X213.028 Y216.852 E3.30149
G1 X213.186 Y215.647 E3.41396
G1 X213.222 Y215.495 E3.42840
G1 X213.331 Y215.173 E3.45982
G1 X213.509 Y214.796 E3.49840
G1 X213.799 Y214.363 E3.54660
G1 X214.006 Y214.127 E3.57565
G1 X214.315 Y213.847 E3.61419
G1 X214.748 Y213.557 E3.66242
G1 X215.125 Y213.379 E3.70096
G1 X215.422 Y213.278 E3.72998
G1 X215.856 Y213.185 E3.77100
G1 X216.011 Y213.169 E3.78544
G1 X232.433 Y213.169 E5.30433
G1 X232.589 Y213.185 E5.31878
G1 X233.022 Y213.278 E5.35980
G1 X233.415 Y213.418 E5.39837
G1 X233.786 Y213.609 E5.43699
G1 X234.130 Y213.847 E5.47565
G1 X234.439 Y214.127 E5.51418
G1 X234.708 Y214.445 E5.55274
G1 X234.935 Y214.796 E5.59137
G1 X235.113 Y215.173 E5.62997
G1 X235.222 Y215.495 E5.66136
G1 X235.258 Y215.647 E5.67581
G1 X235.417 Y216.852 E5.78829
G1 X234.467 Y217.935 E5.92147
G1 X230.317 Y217.935 E6.30529
G1 X229.945 Y218.307 E6.35399
G1 X229.945 Y219.049 E6.42257
G1 X230.076 Y219.315 E6.44998
G1 X231.062 Y220.071 E6.56492
G1 X231.156 Y221.508 E6.69810
G1 X227.803 Y224.861 E7.13669
G1 X226.366 Y224.767 E7.26988
G1 X225.602 Y223.771 E7.38596
G1 X225.498 Y223.591 E7.40523
G1 X225.253 Y223.000 E7.46438
G1 X225.199 Y222.799 E7.48363
G1 X225.116 Y222.117 E7.54717
G1 X225.104 Y218.380 E7.89277
G1 X225.739 Y218.318 F7800.000
G1 X225.738 Y217.872 E7.93409 F1080.000
G1 X225.683 Y217.692 E7.95143
G1 X225.592 Y217.561 E7.96620
G1 X225.460 Y217.437 E7.98296
G1 X225.362 Y217.371 E7.99391
G1 X225.183 Y217.316 E8.01122
G1 X223.262 Y217.316 E8.18891
G1 X223.083 Y217.371 E8.20622
G1 X222.951 Y217.462 E8.22100
G1 X222.852 Y217.561 E8.23395
G1 X222.761 Y217.692 E8.24872
G1 X222.707 Y217.872 E8.26606
G1 X222.693 Y222.094 E8.65664
G1 X222.620 Y222.675 E8.71073
G1 X222.588 Y222.795 E8.72228
G1 X222.375 Y223.309 E8.77369
G1 X222.313 Y223.417 E8.78526
G1 X221.749 Y224.151 E8.87086
G1 X220.887 Y224.208 E8.95077
G1 X217.941 Y221.262 E9.33608
G1 X217.998 Y220.400 E9.41599
G1 X218.732 Y219.837 E9.50160
G1 X218.964 Y219.702 E9.52643
G1 X219.135 Y219.407 E9.55794
G1 X219.135 Y217.672 E9.71848
G1 X218.763 Y217.299 E9.76718
G1 X214.265 Y217.299 E10.18314
G1 X213.695 Y216.650 E10.26306
G1 X213.813 Y215.761 E10.34600
G1 X213.950 Y215.339 E10.38698
G1 X214.102 Y215.042 E10.41788
G1 X214.291 Y214.766 E10.44879
G1 X214.514 Y214.518 E10.47967
G1 X214.768 Y214.300 E10.51060
G1 X215.048 Y214.118 E10.54153
G1 X215.349 Y213.974 E10.57240
G1 X215.667 Y213.870 E10.60332
G1 X216.042 Y213.805 E10.63855
G1 X232.402 Y213.805 E12.15166
G1 X232.838 Y213.887 E12.19265 F1080.000
G1 X233.152 Y213.998 E12.22354
G1 X233.396 Y214.118 E12.24869
G1 X233.726 Y214.339 E12.28540
G1 X233.930 Y214.518 E12.31050
G1 X234.153 Y214.766 E12.34136
G1 X234.374 Y215.096 E12.37807
G1 X234.518 Y215.397 E12.40898
G1 X234.610 Y215.669 E12.43556
G1 X234.749 Y216.650 E12.52714
G1 X234.179 Y217.299 E12.60705
G1 X229.682 Y217.299 E13.02302
G1 X229.309 Y217.672 E13.07172
G1 X229.309 Y219.407 E13.23226
G1 X229.480 Y219.702 E13.26376
G1 X229.712 Y219.837 E13.28861
G1 X230.447 Y220.400 E13.37420
G1 X230.503 Y221.262 E13.45411
G1 X227.557 Y224.208 E13.83943
G1 X226.695 Y224.151 E13.91934
G1 X226.132 Y223.417 E14.00494
G1 X226.069 Y223.309 E14.01650
G1 X225.856 Y222.795 E14.06793
G1 X225.824 Y222.675 E14.07948
G1 X225.752 Y222.094 E14.13355
G1 X225.739 Y218.378 E14.47727
G1 F1800.000 E13.47727
G92 E0
G1 X229.850 Y221.016 F7800.000
G1 E1.00000 F1800.000
G1 X227.311 Y223.555 E1.33204 F1080.000
G1 X227.024 Y223.536 E1.35868
G1 X226.661 Y223.063 E1.41379
G1 X226.449 Y222.550 E1.46515
G1 X226.387 Y222.072 E1.50974
G1 X226.373 Y217.847 E1.90051
G1 X226.334 Y217.635 E1.92042
G1 X226.196 Y217.316 E1.95257
G1 X226.010 Y217.074 E1.98089
G1 X225.848 Y216.931 E2.00083
G1 X225.583 Y216.778 E2.02916
G1 X225.268 Y216.687 E2.05950
G1 X223.237 Y216.681 E2.24727
G1 X223.026 Y216.720 E2.26719
G1 X222.707 Y216.858 E2.29933
G1 X222.434 Y217.074 E2.33148
G1 X222.227 Y217.352 E2.36362
G1 X222.110 Y217.635 E2.39195
G1 X222.071 Y217.847 E2.41186
G1 X222.057 Y222.072 E2.80262
G1 X221.995 Y222.550 E2.84723
G1 X221.783 Y223.063 E2.89858
G1 X221.420 Y223.536 E2.95369
G1 X221.133 Y223.555 E2.98033
G1 X218.594 Y221.016 E3.31237
G1 X218.613 Y220.729 E3.33901
G1 X219.086 Y220.366 E3.39412
G1 X219.556 Y220.166 E3.44142
G1 X219.770 Y219.845 E3.47708
G1 X219.770 Y217.036 E3.73688
G1 X219.398 Y216.664 E3.78558
G1 X214.553 Y216.664 E4.23370
G1 X214.363 Y216.447 E4.26034
G1 X214.446 Y215.844 E4.31663
G1 X214.521 Y215.621 E4.33841
G1 X214.631 Y215.395 E4.36162
G1 X214.782 Y215.169 E4.38676
G1 X214.934 Y214.996 E4.40807
G1 X215.122 Y214.830 E4.43127
G1 X215.348 Y214.679 E4.45641
G1 X215.573 Y214.569 E4.47962
G1 X215.791 Y214.495 E4.50092
G1 X216.043 Y214.444 E4.52462
G1 X232.371 Y214.441 E6.03482
G1 X232.653 Y214.495 E6.06140
G1 X232.890 Y214.577 E6.08461
G1 X233.096 Y214.679 E6.10590
G1 X233.323 Y214.830 E6.13105
G1 X233.496 Y214.982 E6.15233
G1 X233.662 Y215.169 E6.17553
G1 X233.813 Y215.395 E6.20068
G1 X233.923 Y215.621 E6.22390
G1 X233.999 Y215.844 E6.24567
G1 X234.081 Y216.447 E6.30197
G1 X233.891 Y216.664 E6.32861
G1 X229.046 Y216.664 E6.77673
G1 X228.674 Y217.036 E6.82543
G1 X228.674 Y219.845 E7.08522
G1 X228.888 Y220.166 E7.12089
G1 X229.358 Y220.366 E7.16820
G1 X229.831 Y220.729 E7.22330
G1 X229.846 Y220.956 E7.24439
G1 F1800.000 E6.24439
G92 E0
G1 X228.786 Y89.487 F7800.000
G1 E1.00000 F1800.000
G1 X225.050 Y89.242 E1.34628 F1080.000
G1 X224.535 Y88.571 E1.42450
G1 X223.909 Y88.571 E1.48248
G1 X223.394 Y89.242 E1.56074
G1 X219.658 Y89.487 E1.90699
G1 X214.676 Y84.504 E2.55866
G1 X214.781 Y82.893 E2.70804
G1 X214.405 Y82.491 E2.75901
G1 X212.825 Y82.491 E2.90510
G1 X210.357 Y79.676 E3.25138
G1 X210.682 Y77.204 E3.48194
G1 X210.774 Y76.809 E3.51949
G1 X211.054 Y76.040 E3.59513
G1 X211.401 Y75.376 E3.66450
G1 X211.833 Y74.762 E3.73388
