; generated by Slic3r 1.1.7 on 2014-10-25 at 00:35:28

; perimeters extrusion width = 0.40mm
; infill extrusion width = 0.42mm
; solid infill extrusion width = 0.42mm
; top infill extrusion width = 0.42mm
; support material extrusion width = 0.40mm

G21 ; set units to millimeters
M107
M104 S185 ; set temperature
G28
G29
G1 Z5 F5000 ; lift nozzle

M109 S185 ; wait for temperature to be reached
G90 ; use absolute coordinates
G92 E0
M82 ; use absolute distances for extrusion
M204 S9000
G1 F1800.000 E-1.00000
G92 E0
G1 Z0.350 F7800.000
G1 X133.784 Y134.164 F7800.000
G1 E1.00000 F1800.000
G1 X134.698 Y133.280 E1.11760 F1080.000
G1 X135.528 Y132.556 E1.21952
G1 X136.145 Y132.062 E1.29261
G1 X136.781 Y131.589 E1.36588
G1 X137.431 Y131.139 E1.43903
G1 X138.097 Y130.712 E1.51220
G1 X138.777 Y130.308 E1.58533
G1 X139.472 Y129.928 E1.65856
G1 X140.178 Y129.573 E1.73167
G1 X140.897 Y129.243 E1.80483
G1 X141.628 Y128.937 E1.87813
G1 X142.368 Y128.658 E1.95125
G1 X143.117 Y128.405 E2.02441
G1 X143.874 Y128.178 E2.09752
G1 X145.109 Y127.869 E2.21524
G1 X146.189 Y127.657 E2.31707
G1 X147.449 Y127.479 E2.43471
G1 X148.546 Y127.381 E2.53663
G1 X149.335 Y127.344 E2.60972
G1 X150.608 Y127.343 E2.72741
G1 X151.708 Y127.399 E2.82931 F1080.000
G1 X152.495 Y127.472 E2.90237
G1 X153.280 Y127.573 E2.97558
G1 X154.061 Y127.701 E3.04877
G1 X154.837 Y127.857 E3.12198
G1 X155.607 Y128.039 E3.19517
G1 X156.828 Y128.388 E3.31268
G1 X157.870 Y128.745 E3.41455
G1 X158.609 Y129.033 E3.48783
G1 X159.771 Y129.549 E3.60546
G1 X160.753 Y130.048 E3.70732
G1 X161.442 Y130.435 E3.78044
G1 X162.118 Y130.846 E3.85363
G1 X163.173 Y131.556 E3.97119
G1 X164.054 Y132.218 E4.07312
G1 X164.665 Y132.719 E4.14623
G1 X165.261 Y133.242 E4.21958
G1 X165.836 Y133.784 E4.29265
G1 X166.391 Y134.346 E4.36573
G1 X166.929 Y134.929 E4.43906
G1 X167.444 Y135.528 E4.51218
G1 X167.938 Y136.146 E4.58530
G1 X168.411 Y136.781 E4.65855
G1 X169.123 Y137.835 E4.77619
G1 X169.692 Y138.777 E4.87799
G1 X170.290 Y139.900 E4.99564
G1 X170.757 Y140.897 E5.09745
G1 X171.063 Y141.628 E5.17076
G1 X171.342 Y142.368 E5.24391
G1 X171.595 Y143.117 E5.31702
G1 X171.947 Y144.339 E5.43467
G1 X172.196 Y145.412 E5.53654
G1 X172.343 Y146.189 E5.60971
G1 X172.462 Y146.972 E5.68294
G1 X172.596 Y148.235 E5.80046
G1 X172.656 Y149.336 E5.90237
G1 X172.665 Y150.127 E5.97558
G1 X172.647 Y150.917 E6.04869
G1 X172.559 Y152.187 E6.16639
G1 X172.427 Y153.280 E6.26822
G1 X172.299 Y154.061 E6.34140
G1 X172.143 Y154.837 E6.41463
G1 X171.961 Y155.607 E6.48778
G1 X171.752 Y156.369 E6.56094
G1 X171.517 Y157.124 E6.63405
G1 X171.255 Y157.870 E6.70720
G1 X170.967 Y158.609 E6.78050
G1 X170.654 Y159.335 E6.85364
G1 X170.316 Y160.050 E6.92676
G1 X169.719 Y161.173 E7.04442
G1 X169.154 Y162.118 E7.14629
G1 X168.719 Y162.779 E7.21944
G1 X168.262 Y163.425 E7.29266
G1 X167.782 Y164.054 E7.36580
G1 X167.281 Y164.665 E7.43891
G1 X166.758 Y165.261 E7.51223
G1 X166.216 Y165.836 E7.58533
G1 X165.654 Y166.391 E7.65840
G1 X165.071 Y166.929 E7.73174
G1 X164.098 Y167.746 E7.84925
G1 X163.219 Y168.411 E7.95120
G1 X162.569 Y168.861 E8.02433
G1 X161.903 Y169.288 E8.09752
G1 X161.223 Y169.692 E8.17067
G1 X160.101 Y170.290 E8.28828
G1 X159.103 Y170.757 E8.39013
G1 X158.372 Y171.063 E8.46343
G1 X157.632 Y171.342 E8.53658
G1 X156.424 Y171.735 E8.65413
G1 X155.361 Y172.022 E8.75597
G1 X154.588 Y172.196 E8.82921
G1 X153.811 Y172.343 E8.90239
G1 X152.551 Y172.521 E9.02004
G1 X151.454 Y172.619 E9.12192
G1 X150.664 Y172.656 E9.19504
G1 X149.873 Y172.665 E9.26825
G1 X148.603 Y172.622 E9.38581
G1 X147.505 Y172.528 E9.48768
G1 X146.720 Y172.427 E9.56089
G1 X145.939 Y172.299 E9.63408
G1 X145.163 Y172.143 E9.70730
G1 X144.393 Y171.961 E9.78046
G1 X143.171 Y171.612 E9.89803
G1 X142.130 Y171.255 E9.99985
G1 X141.391 Y170.967 E10.07316
G1 X140.665 Y170.654 E10.14629
G1 X139.950 Y170.316 E10.21942
G1 X139.247 Y169.952 E10.29263
G1 X138.146 Y169.318 E10.41023
G1 X137.221 Y168.719 E10.51208
G1 X136.575 Y168.262 E10.58534
G1 X135.946 Y167.782 E10.65845
G1 X134.971 Y166.965 E10.77613
G1 X134.164 Y166.216 E10.87797
G1 X133.609 Y165.654 E10.95103
G1 X133.071 Y165.071 E11.02437
G1 X132.556 Y164.472 E11.09750
G1 X132.062 Y163.854 E11.17060
G1 X131.589 Y163.219 E11.24386
G1 X131.139 Y162.569 E11.31700
G1 X130.712 Y161.903 E11.39019
G1 X130.075 Y160.803 E11.50776
G1 X129.573 Y159.822 E11.60963
G1 X129.243 Y159.103 E11.68280
G1 X128.937 Y158.372 E11.75609
G1 X128.658 Y157.632 E11.82922
G1 X128.405 Y156.883 E11.90237
G1 X128.054 Y155.662 E12.01989
G1 X127.804 Y154.588 E12.12187
G1 X127.657 Y153.811 E12.19504
G1 X127.538 Y153.028 E12.26827
G1 X127.446 Y152.244 E12.34132
G1 X127.381 Y151.454 E12.41461
G1 X127.336 Y150.183 E12.53221
G1 X127.353 Y149.083 E12.63401
G1 X127.399 Y148.292 E12.70729
G1 X127.472 Y147.505 E12.78035
G1 X127.648 Y146.244 E12.89812
G1 X127.857 Y145.163 E12.99994
G1 X128.039 Y144.393 E13.07313
G1 X128.248 Y143.631 E13.14624
G1 X128.640 Y142.421 E13.26384
G1 X129.033 Y141.391 E13.36580
G1 X129.346 Y140.665 E13.43895
G1 X129.684 Y139.951 E13.51207
G1 X130.048 Y139.247 E13.58530
G1 X130.682 Y138.146 E13.70289
G1 X131.280 Y137.221 E13.80473
G1 X131.738 Y136.575 E13.87800
G1 X132.520 Y135.572 E13.99557
G1 X133.242 Y134.739 E14.09754
G1 X133.743 Y134.208 E14.16507
G1 X134.234 Y134.614 F7800.000
G1 X135.132 Y133.745 E14.28061 F1080.000
G1 X135.928 Y133.050 E14.37843
G1 X136.528 Y132.570 E14.44948
G1 X137.145 Y132.109 E14.52069
G1 X137.777 Y131.672 E14.59179
G1 X138.424 Y131.256 E14.66291
G1 X139.085 Y130.864 E14.73399
G1 X139.760 Y130.495 E14.80516
G1 X140.447 Y130.149 E14.87623
G1 X141.145 Y129.828 E14.94733
G1 X141.856 Y129.531 E15.01858
G1 X142.574 Y129.259 E15.08965
G1 X143.303 Y129.013 E15.16075
G1 X144.039 Y128.792 E15.23182
G1 X145.252 Y128.488 E15.34747
G1 X146.289 Y128.285 E15.44521
G1 X147.526 Y128.110 E15.56079
G1 X148.579 Y128.016 E15.65861
G1 X149.347 Y127.980 E15.72965
G1 X150.597 Y127.979 E15.84528
G1 X151.653 Y128.032 E15.94308 F1080.000
G1 X152.417 Y128.103 E16.01409
G1 X153.180 Y128.201 E16.08525
G1 X153.939 Y128.325 E16.15639
G1 X154.694 Y128.476 E16.22755
G1 X155.442 Y128.653 E16.29868
G1 X156.643 Y128.996 E16.41414
G1 X157.643 Y129.338 E16.51191
G1 X158.360 Y129.618 E16.58314
G1 X159.502 Y130.125 E16.69870
G1 X160.445 Y130.604 E16.79647
G1 X161.115 Y130.980 E16.86754
G1 X161.772 Y131.379 E16.93868
G1 X162.808 Y132.077 E17.05419
G1 X163.654 Y132.712 E17.15201
G1 X164.248 Y133.198 E17.22308
G1 X164.827 Y133.707 E17.29436
G1 X165.386 Y134.234 E17.36539
G1 X165.927 Y134.780 E17.43642
G1 X166.449 Y135.346 E17.50769
G1 X166.950 Y135.928 E17.57876
G1 X167.431 Y136.528 E17.64983
G1 X167.891 Y137.145 E17.72102
G1 X168.590 Y138.181 E17.83661
G1 X169.136 Y139.085 E17.93432
G1 X169.724 Y140.188 E18.04991
G1 X170.172 Y141.145 E18.14763
G1 X170.469 Y141.856 E18.21887
G1 X170.741 Y142.575 E18.28997
G1 X170.987 Y143.302 E18.36104
G1 X171.333 Y144.504 E18.47663
G1 X171.572 Y145.533 E18.57440
G1 X171.715 Y146.289 E18.64552
G1 X171.831 Y147.049 E18.71669
G1 X171.963 Y148.291 E18.83216
G1 X172.020 Y149.347 E18.92997
G1 X172.030 Y150.116 E19.00112
G1 X172.012 Y150.884 E19.07219
G1 X171.926 Y152.131 E19.18782
G1 X171.799 Y153.180 E19.28556
G1 X171.675 Y153.939 E19.35669
G1 X171.524 Y154.694 E19.42786
G1 X171.347 Y155.442 E19.49896
G1 X171.144 Y156.184 E19.57007
G1 X170.916 Y156.917 E19.64114
G1 X170.662 Y157.643 E19.71223
G1 X170.382 Y158.360 E19.78347
G1 X170.078 Y159.066 E19.85456
G1 X169.749 Y159.761 E19.92564
G1 X169.164 Y160.865 E20.04124
G1 X168.621 Y161.772 E20.13901
G1 X168.199 Y162.415 E20.21011
G1 X167.754 Y163.043 E20.28127
G1 X167.288 Y163.654 E20.35236
G1 X166.802 Y164.249 E20.42342
G1 X166.293 Y164.827 E20.49468
G1 X165.766 Y165.386 E20.56573
G1 X165.220 Y165.927 E20.63676
G1 X164.654 Y166.449 E20.70803
G1 X163.698 Y167.252 E20.82350
G1 X162.855 Y167.891 E20.92134
G1 X162.223 Y168.328 E20.99242
G1 X161.576 Y168.744 E21.06356
G1 X160.915 Y169.136 E21.13466
G1 X159.812 Y169.723 E21.25022
G1 X158.855 Y170.172 E21.34797
G1 X158.144 Y170.469 E21.41921
G1 X157.425 Y170.741 E21.49031
G1 X156.238 Y171.128 E21.60581
G1 X155.218 Y171.403 E21.70356
G1 X154.467 Y171.572 E21.77474
G1 X153.711 Y171.715 E21.84586
G1 X152.474 Y171.890 E21.96145
G1 X151.421 Y171.984 E22.05924
G1 X150.653 Y172.020 E22.13031
G1 X149.884 Y172.030 E22.20146
G1 X148.636 Y171.987 E22.31697
G1 X147.583 Y171.897 E22.41475
G1 X146.820 Y171.799 E22.48590
G1 X146.061 Y171.675 E22.55703
G1 X145.306 Y171.524 E22.62820
G1 X144.558 Y171.347 E22.69931
G1 X143.357 Y171.004 E22.81482
G1 X142.357 Y170.662 E22.91255
G1 X141.640 Y170.382 E22.98380
G1 X140.934 Y170.078 E23.05488
G1 X140.239 Y169.749 E23.12596
G1 X139.555 Y169.397 E23.19712
G1 X138.473 Y168.773 E23.31266
G1 X137.585 Y168.199 E23.41042
G1 X136.957 Y167.754 E23.48161
G1 X136.346 Y167.288 E23.55268
G1 X135.388 Y166.486 E23.66829
G1 X134.614 Y165.766 E23.76604
G1 X134.074 Y165.220 E23.83706
G1 X133.551 Y164.654 E23.90834
G1 X133.050 Y164.072 E23.97941
G1 X132.569 Y163.472 E24.05047
G1 X132.109 Y162.855 E24.12167
G1 X131.672 Y162.223 E24.19277
G1 X131.256 Y161.576 E24.26389
G1 X130.631 Y160.494 E24.37941
G1 X130.149 Y159.553 E24.47719
G1 X129.828 Y158.855 E24.54831
G1 X129.531 Y158.144 E24.61954
G1 X129.259 Y157.426 E24.69061
G1 X129.013 Y156.697 E24.76172
G1 X128.668 Y155.498 E24.87719
G1 X128.428 Y154.467 E24.97506
G1 X128.285 Y153.711 E25.04618
G1 X128.169 Y152.951 E25.11735
G1 X128.079 Y152.188 E25.18836
G1 X128.016 Y151.421 E25.25959
G1 X127.971 Y150.172 E25.37513
G1 X127.988 Y149.116 E25.47284
G1 X128.032 Y148.347 E25.54406
G1 X128.103 Y147.583 E25.61508
G1 X128.276 Y146.344 E25.73078
G1 X128.476 Y145.306 E25.82851
G1 X128.653 Y144.558 E25.89965
G1 X128.856 Y143.817 E25.97071
G1 X129.241 Y142.628 E26.08625
G1 X129.618 Y141.640 E26.18411
G1 X129.922 Y140.934 E26.25521
G1 X130.251 Y140.239 E26.32628
G1 X130.604 Y139.555 E26.39745
G1 X131.227 Y138.473 E26.51299
G1 X131.801 Y137.586 E26.61073
G1 X132.246 Y136.957 E26.68194
G1 X133.014 Y135.972 E26.79746
G1 X133.707 Y135.173 E26.89532
G1 X134.193 Y134.657 E26.96081
G1 F1800.000 E25.96081
G92 E0
G1 X138.701 Y139.081 F7800.000
G1 E1.00000 F1800.000
G1 X139.484 Y138.325 E1.10067 F1080.000
G1 X139.902 Y137.962 E1.15191
G1 X140.762 Y137.290 E1.25283
G1 X141.216 Y136.972 E1.30407
G1 X142.141 Y136.394 E1.40500
G1 X142.626 Y136.125 E1.45624
G1 X143.606 Y135.647 E1.55716
G1 X144.111 Y135.432 E1.60789
G1 X144.629 Y135.234 E1.65913
G1 X145.666 Y134.897 E1.76006
G1 X146.201 Y134.753 E1.81130
G1 X147.269 Y134.526 E1.91223
G1 X147.816 Y134.440 E1.96346
G1 X148.901 Y134.326 E2.06439
G1 X149.454 Y134.297 E2.11563
G1 X150.486 Y134.296 E2.21100
G1 X151.640 Y134.373 E2.31799 F1080.000
G1 X152.731 Y134.526 E2.41994
G1 X153.270 Y134.631 E2.47067
G1 X154.328 Y134.895 E2.57159
G1 X155.377 Y135.236 E2.67354
G1 X155.889 Y135.432 E2.72427
G1 X156.886 Y135.876 E2.82520
G1 X157.859 Y136.394 E2.92714
G1 X158.329 Y136.676 E2.97787
G1 X159.234 Y137.286 E3.07880
G1 X160.102 Y137.965 E3.18075
G1 X160.516 Y138.325 E3.23148
G1 X161.301 Y139.083 E3.33240
G1 X162.038 Y139.902 E3.43435
G1 X162.714 Y140.766 E3.53579
G1 X163.291 Y141.621 E3.63116
G1 X163.606 Y142.141 E3.68744
G1 X164.124 Y143.114 E3.78939
G1 X164.544 Y144.056 E3.88476
G1 X164.764 Y144.623 E3.94104
G1 X165.105 Y145.672 E4.04299
G1 X165.355 Y146.672 E4.13837
G1 X165.474 Y147.269 E4.19465
G1 X165.627 Y148.360 E4.29660
G1 X165.675 Y148.907 E4.34732
G1 X165.713 Y149.997 E4.44825
G1 X165.674 Y151.099 E4.55020
G1 X165.626 Y151.645 E4.60093
G1 X165.484 Y152.666 E4.69630
G1 X165.247 Y153.799 E4.80328
G1 X164.943 Y154.858 E4.90524
G1 X164.591 Y155.827 E5.00060
G1 X164.355 Y156.388 E5.05688
G1 X163.872 Y157.379 E5.15884
G1 X163.358 Y158.273 E5.25421
G1 X163.028 Y158.784 E5.31048
G1 X162.380 Y159.676 E5.41244
G1 X161.675 Y160.516 E5.51388
G1 X160.917 Y161.301 E5.61480
G1 X160.516 Y161.675 E5.66553
G1 X159.672 Y162.384 E5.76748
G1 X159.234 Y162.714 E5.81821
G1 X158.329 Y163.324 E5.91914
G1 X157.374 Y163.875 E6.02109
G1 X156.394 Y164.353 E6.12201
G1 X155.889 Y164.568 E6.17274
G1 X154.853 Y164.945 E6.27469
G1 X154.328 Y165.105 E6.32541
G1 X153.328 Y165.355 E6.42078
G1 X152.190 Y165.560 E6.52777
G1 X151.093 Y165.675 E6.62973
G1 X150.003 Y165.713 E6.73065
G1 X149.454 Y165.703 E6.78138
G1 X148.355 Y165.626 E6.88333
G1 X147.810 Y165.560 E6.93405
G1 X146.736 Y165.370 E7.03498
G1 X145.666 Y165.103 E7.13693
G1 X145.142 Y164.943 E7.18766
G1 X144.173 Y164.591 E7.28303
G1 X143.114 Y164.124 E7.39002
G1 X142.141 Y163.606 E7.49197
G1 X141.671 Y163.324 E7.54269
G1 X140.766 Y162.714 E7.64362
G1 X139.898 Y162.035 E7.74557
G1 X139.484 Y161.675 E7.79630
G1 X138.699 Y160.917 E7.89722
G1 X137.962 Y160.098 E7.99917
G1 X137.290 Y159.238 E8.10010
G1 X136.975 Y158.789 E8.15083
G1 X136.391 Y157.854 E8.25277
G1 X136.125 Y157.374 E8.30351
G1 X135.647 Y156.394 E8.40443
G1 X135.234 Y155.371 E8.50638
G1 X135.055 Y154.853 E8.55711
G1 X134.755 Y153.804 E8.65803
G1 X134.525 Y152.726 E8.75999
G1 X134.440 Y152.184 E8.81071
G1 X134.331 Y151.159 E8.90608
G1 X134.287 Y150.003 E9.01307
G1 X134.326 Y148.901 E9.11502
G1 X134.374 Y148.355 E9.16574
G1 X134.516 Y147.334 E9.26112
G1 X134.755 Y146.196 E9.36862
G1 X134.897 Y145.666 E9.41935
G1 X135.214 Y144.685 E9.51472
G1 X135.644 Y143.612 E9.62170
G1 X136.128 Y142.621 E9.72365
G1 X136.642 Y141.727 E9.81902
G1 X136.972 Y141.216 E9.87530
G1 X137.620 Y140.324 E9.97726
G1 X137.965 Y139.898 E10.02798
G1 X138.660 Y139.125 E10.12413
G1 F1800.000 E9.12413
G92 E0
G1 X160.451 Y160.822 F7800.000
G1 E1.00000 F1800.000
G1 X159.671 Y161.525 E1.09712 F378.000
G1 X158.843 Y162.172 E1.19425
G1 X158.016 Y162.731 E1.28664
G1 X157.522 Y163.029 E1.33994
G1 X156.595 Y163.522 E1.43707
G1 X155.683 Y163.929 E1.52947
G1 X155.146 Y164.138 E1.58277
G1 X154.147 Y164.462 E1.67989
G1 X153.178 Y164.705 E1.77229
G1 X152.613 Y164.816 E1.82559
G1 X151.573 Y164.963 E1.92271
G1 X150.525 Y165.036 E2.01984
G1 X150.000 Y165.045 E2.06841
G1 X148.951 Y165.008 E2.16554
G1 X147.906 Y164.899 E2.26267
G1 X146.872 Y164.716 E2.35979
G1 X145.853 Y164.462 E2.45692
G1 X144.854 Y164.138 E2.55405
G1 X144.364 Y163.949 E2.60262
G1 X143.405 Y163.522 E2.69975
G1 X142.478 Y163.029 E2.79687
G1 X141.587 Y162.473 E2.89400
G1 X141.157 Y162.172 E2.94257
G1 X140.329 Y161.525 E3.03970
G1 X139.549 Y160.822 E3.13682
G1 X138.854 Y160.104 E3.22922
G1 X138.475 Y159.671 E3.28252
G1 X137.828 Y158.843 E3.37965
G1 X137.241 Y157.973 E3.47677
G1 X136.741 Y157.108 E3.56917
G1 X136.478 Y156.595 E3.62246
G1 X136.051 Y155.636 E3.71959
G1 X135.691 Y154.649 E3.81672
G1 X135.402 Y153.640 E3.91385
G1 X135.284 Y153.128 E3.96242
G1 X135.101 Y152.094 E4.05955
G1 X134.992 Y151.049 E4.15667
G1 X134.956 Y150.051 E4.24907
G1 X134.964 Y149.475 E4.30237
G1 X135.037 Y148.427 E4.39950
G1 X135.101 Y147.906 E4.44807
G1 X135.284 Y146.872 E4.54519
G1 X135.538 Y145.853 E4.64232
G1 X135.862 Y144.854 E4.73945
G1 X136.256 Y143.881 E4.83657
G1 X136.716 Y142.937 E4.93370
G1 X137.215 Y142.071 E5.02609
G1 X137.527 Y141.587 E5.07940
G1 X138.144 Y140.737 E5.17652
G1 X138.786 Y139.972 E5.26891
G1 X139.178 Y139.549 E5.32222
G1 X139.933 Y138.819 E5.41934
G1 X140.329 Y138.475 E5.46792
G1 X141.157 Y137.828 E5.56505
G1 X142.027 Y137.241 E5.66217
G1 X142.937 Y136.716 E5.75930
G1 X143.881 Y136.256 E5.85643
G1 X144.364 Y136.051 E5.90499
G1 X145.351 Y135.691 E6.00212
G1 X146.360 Y135.402 E6.09925
G1 X147.387 Y135.184 E6.19637
G1 X148.427 Y135.037 E6.29350
G1 X149.475 Y134.964 E6.39063
G1 X150.474 Y134.963 E6.48302
G1 X151.573 Y135.037 E6.58488 F378.000
G1 X152.612 Y135.184 E6.68200
G1 X153.640 Y135.402 E6.77913
G1 X154.649 Y135.691 E6.87626
G1 X155.636 Y136.051 E6.97338
G1 X156.595 Y136.478 E7.07051
G1 X157.522 Y136.971 E7.16764
G1 X158.413 Y137.527 E7.26477
G1 X159.263 Y138.144 E7.36189
G1 X160.067 Y138.819 E7.45901
G1 X160.822 Y139.549 E7.55615
G1 X161.525 Y140.329 E7.65327
G1 X162.172 Y141.157 E7.75040
G1 X162.759 Y142.027 E7.84752
G1 X163.284 Y142.937 E7.94465
G1 X163.522 Y143.405 E7.99322
G1 X163.949 Y144.364 E8.09035
G1 X164.309 Y145.351 E8.18747
G1 X164.598 Y146.360 E8.28460
G1 X164.816 Y147.387 E8.38173
G1 X164.899 Y147.906 E8.43030
