( Made using CamBam - http://www.cambam.co.uk )
( L_Bracket 5/30/2015 10:52:18 PM )
( T0 : 0.125 )
G20 G90 G64 G40
G0 Z0.125
( T0 : 0.125 )
T0 M6
( holes )
G17
M3 S1000
G0 X0.5625 Y2.5
G0 Z0.0625
G1 F10.0 Z-0.14
G2 F30.0 X0.4688 Y2.4459 I-0.0625 J0.0
G2 Y2.5541 I0.0312 J0.0541
G2 X0.5625 Y2.5 I0.0313 J-0.0541
G1 F10.0 Z-0.27
G2 F30.0 X0.4688 Y2.4459 I-0.0625 J0.0
G2 Y2.5541 I0.0312 J0.0541
G2 X0.5625 Y2.5 I0.0313 J-0.0541
G0 Z0.125
G0 X0.5039 Y1.5624
G0 Z0.0625
G1 F10.0 Z-0.14
G2 F30.0 X0.5625 Y1.5 I-0.0039 J-0.0624
G2 X0.4688 Y1.4459 I-0.0625 J0.0
G2 Y1.5541 I0.0312 J0.0541
G2 X0.5039 Y1.5624 I0.0313 J-0.0541
G1 F10.0 Z-0.27
G2 F30.0 X0.5625 Y1.5 I-0.0039 J-0.0624
G2 X0.4688 Y1.4459 I-0.0625 J0.0
G2 Y1.5541 I0.0312 J0.0541
G2 X0.5039 Y1.5624 I0.0313 J-0.0541
G0 Z0.125
G0 X0.5002 Y0.5625
G0 Z0.0625
G1 F10.0 Z-0.14
G2 F30.0 X0.5625 Y0.5 I-0.0002 J-0.0625
G2 X0.4688 Y0.4459 I-0.0625 J0.0
G2 Y0.5541 I0.0313 J0.0541
G2 X0.5002 Y0.5625 I0.0313 J-0.0541
G1 F10.0 Z-0.27
G2 F30.0 X0.5625 Y0.5 I-0.0002 J-0.0625
G2 X0.4688 Y0.4459 I-0.0625 J0.0
G2 Y0.5541 I0.0313 J0.0541
G2 X0.5002 Y0.5625 I0.0313 J-0.0541
G0 Z0.125
G0 X1.4376 Y0.5039
G0 Z0.0625
G1 F10.0 Z-0.14
G2 F30.0 X1.4688 Y0.5541 I0.0624 J-0.0039
G2 X1.5625 Y0.5 I0.0313 J-0.0541
G2 X1.4688 Y0.4459 I-0.0625 J0.0
G2 X1.4376 Y0.5039 I0.0313 J0.0541
G1 F10.0 Z-0.27
G2 F30.0 X1.4688 Y0.5541 I0.0624 J-0.0039
G2 X1.5625 Y0.5 I0.0313 J-0.0541
G2 X1.4688 Y0.4459 I-0.0625 J0.0
G2 X1.4376 Y0.5039 I0.0313 J0.0541
G0 Z0.125
G0 X2.4375 Y0.5002
G0 Z0.0625
G1 F10.0 Z-0.14
G2 F30.0 X2.4688 Y0.5541 I0.0625 J-0.0002
G2 X2.5625 Y0.5 I0.0313 J-0.0541
G2 X2.4688 Y0.4459 I-0.0625 J0.0
G2 X2.4375 Y0.5002 I0.0313 J0.0541
G1 F10.0 Z-0.27
G2 F30.0 X2.4688 Y0.5541 I0.0625 J-0.0002
G2 X2.5625 Y0.5 I0.0313 J-0.0541
G2 X2.4688 Y0.4459 I-0.0625 J0.0
G2 X2.4375 Y0.5002 I0.0313 J0.0541
( outline )
S1000
G0 Z0.125
G0 X-0.0625 Y3.0
G0 Z0.0625
G1 F10.0 Z-0.14
G1 F30.0 Y0.0
G3 X0.0 Y-0.0625 I0.0625 J0.0
G1 X3.0
G3 X3.0625 Y0.0 I0.0 J0.0625
G1 Y1.0
G3 X3.0 Y1.0625 I-0.0625 J0.0
G1 X2.0259
G1 X1.0625 Y2.0259
G1 Y3.0
G3 X1.0 Y3.0625 I-0.0625 J0.0
G1 X0.0
G3 X-0.0625 Y3.0 I0.0 J-0.0625
G1 F10.0 Z-0.27
G1 F30.0 Y0.0
G3 X0.0 Y-0.0625 I0.0625 J0.0
G1 X3.0
G3 X3.0625 Y0.0 I0.0 J0.0625
G1 Y1.0
G3 X3.0 Y1.0625 I-0.0625 J0.0
G1 X2.0259
G1 X1.0625 Y2.0259
G1 Y3.0
G3 X1.0 Y3.0625 I-0.0625 J0.0
G1 X0.0
G3 X-0.0625 Y3.0 I0.0 J-0.0625
G0 Z0.125
M5
M30
