( Made using CamBam - http://www.cambam.co.uk )
( l_bracket_x12 5/30/2015 10:54:11 PM )
( T0 : 0.125 )
G20 G90 G64 G40
G0 Z0.125
( T0 : 0.125 )
T0 M6
( holes )
G17
M3 S1000
G0 X0.5625 Y2.5
G0 Z0.0625
G1 F10.0 Z-0.14
G2 F30.0 X0.4688 Y2.4459 I-0.0625 J0.0
G2 Y2.5541 I0.0312 J0.0541
G2 X0.5625 Y2.5 I0.0313 J-0.0541
G1 F10.0 Z-0.27
G2 F30.0 X0.4688 Y2.4459 I-0.0625 J0.0
G2 Y2.5541 I0.0312 J0.0541
G2 X0.5625 Y2.5 I0.0313 J-0.0541
G0 Z0.125
G0 X0.5039 Y1.5624
G0 Z0.0625
G1 F10.0 Z-0.14
G2 F30.0 X0.5625 Y1.5 I-0.0039 J-0.0624
G2 X0.4688 Y1.4459 I-0.0625 J0.0
G2 Y1.5541 I0.0312 J0.0541
G2 X0.5039 Y1.5624 I0.0313 J-0.0541
G1 F10.0 Z-0.27
G2 F30.0 X0.5625 Y1.5 I-0.0039 J-0.0624
G2 X0.4688 Y1.4459 I-0.0625 J0.0
G2 Y1.5541 I0.0312 J0.0541
G2 X0.5039 Y1.5624 I0.0313 J-0.0541
G0 Z0.125
G0 X0.5002 Y0.5625
G0 Z0.0625
G1 F10.0 Z-0.14
G2 F30.0 X0.5625 Y0.5 I-0.0002 J-0.0625
G2 X0.4688 Y0.4459 I-0.0625 J0.0
G2 Y0.5541 I0.0313 J0.0541
G2 X0.5002 Y0.5625 I0.0313 J-0.0541
G1 F10.0 Z-0.27
G2 F30.0 X0.5625 Y0.5 I-0.0002 J-0.0625
G2 X0.4688 Y0.4459 I-0.0625 J0.0
G2 Y0.5541 I0.0313 J0.0541
G2 X0.5002 Y0.5625 I0.0313 J-0.0541
G0 Z0.125
G0 X1.4376 Y0.5039
G0 Z0.0625
G1 F10.0 Z-0.14
G2 F30.0 X1.4688 Y0.5541 I0.0624 J-0.0039
G2 X1.5625 Y0.5 I0.0313 J-0.0541
G2 X1.4688 Y0.4459 I-0.0625 J0.0
G2 X1.4376 Y0.5039 I0.0313 J0.0541
G1 F10.0 Z-0.27
G2 F30.0 X1.4688 Y0.5541 I0.0624 J-0.0039
G2 X1.5625 Y0.5 I0.0313 J-0.0541
G2 X1.4688 Y0.4459 I-0.0625 J0.0
G2 X1.4376 Y0.5039 I0.0313 J0.0541
G0 Z0.125
G0 X2.4375 Y0.5002
G0 Z0.0625
G1 F10.0 Z-0.14
G2 F30.0 X2.4688 Y0.5541 I0.0625 J-0.0002
G2 X2.5625 Y0.5 I0.0313 J-0.0541
G2 X2.4688 Y0.4459 I-0.0625 J0.0
G2 X2.4375 Y0.5002 I0.0313 J0.0541
G1 F10.0 Z-0.27
G2 F30.0 X2.4688 Y0.5541 I0.0625 J-0.0002
G2 X2.5625 Y0.5 I0.0313 J-0.0541
G2 X2.4688 Y0.4459 I-0.0625 J0.0
G2 X2.4375 Y0.5002 I0.0313 J0.0541
G0 Z0.125
G0 X3.9375 Y0.5
G0 Z0.0625
G1 F10.0 Z-0.14
G2 F30.0 X3.9688 Y0.5541 I0.0625 J0.0
G2 X4.0625 Y0.5 I0.0313 J-0.0541
G2 X3.9688 Y0.4459 I-0.0625 J0.0
G2 X3.9375 Y0.5 I0.0313 J0.0541
G1 F10.0 Z-0.27
G2 F30.0 X3.9688 Y0.5541 I0.0625 J0.0
G2 X4.0625 Y0.5 I0.0313 J-0.0541
G2 X3.9688 Y0.4459 I-0.0625 J0.0
G2 X3.9375 Y0.5 I0.0313 J0.0541
G0 Z0.125
G0 X3.9961 Y1.4376
G0 Z0.0625
G1 F10.0 Z-0.14
G2 F30.0 X3.9688 Y1.4459 I0.0039 J0.0624
G2 Y1.5541 I0.0313 J0.0541
G2 X4.0625 Y1.5 I0.0313 J-0.0541
G2 X3.9961 Y1.4376 I-0.0625 J0.0
G1 F10.0 Z-0.27
G2 F30.0 X3.9688 Y1.4459 I0.0039 J0.0624
G2 Y1.5541 I0.0313 J0.0541
G2 X4.0625 Y1.5 I0.0313 J-0.0541
G2 X3.9961 Y1.4376 I-0.0625 J0.0
G0 Z0.125
G0 X3.9998 Y2.4375
G0 Z0.0625
G1 F10.0 Z-0.14
G2 F30.0 X3.9688 Y2.4459 I0.0002 J0.0625
G2 Y2.5541 I0.0313 J0.0541
G2 X4.0625 Y2.5 I0.0313 J-0.0541
G2 X3.9998 Y2.4375 I-0.0625 J0.0
G1 F10.0 Z-0.27
G2 F30.0 X3.9688 Y2.4459 I0.0002 J0.0625
G2 Y2.5541 I0.0313 J0.0541
G2 X4.0625 Y2.5 I0.0313 J-0.0541
G2 X3.9998 Y2.4375 I-0.0625 J0.0
G0 Z0.125
G0 X3.0624 Y2.4961
G0 Z0.0625
G1 F10.0 Z-0.14
G2 F30.0 X2.9688 Y2.4459 I-0.0624 J0.0039
G2 Y2.5541 I0.0313 J0.0541
G2 X3.0625 Y2.5 I0.0313 J-0.0541
G2 X3.0624 Y2.4961 I-0.0625 J0.0
G1 F10.0 Z-0.27
G2 F30.0 X2.9688 Y2.4459 I-0.0624 J0.0039
G2 Y2.5541 I0.0313 J0.0541
G2 X3.0625 Y2.5 I0.0313 J-0.0541
G2 X3.0624 Y2.4961 I-0.0625 J0.0
G0 Z0.125
G0 X2.0625 Y2.4998
G0 Z0.0625
G1 F10.0 Z-0.14
G2 F30.0 X1.9688 Y2.4459 I-0.0625 J0.0002
G2 Y2.5541 I0.0312 J0.0541
G2 X2.0625 Y2.5 I0.0313 J-0.0541
G2 Y2.4998 I-0.0625 J0.0
G1 F10.0 Z-0.27
G2 F30.0 X1.9688 Y2.4459 I-0.0625 J0.0002
G2 Y2.5541 I0.0312 J0.0541
G2 X2.0625 Y2.5 I0.0313 J-0.0541
G2 Y2.4998 I-0.0625 J0.0
G0 Z0.125
G0 X2.4825 Y3.94
G0 Z0.0625
G1 F10.0 Z-0.14
G2 F30.0 X2.4688 Y3.9459 I0.0175 J0.06
G2 Y4.0541 I0.0313 J0.0541
G2 X2.5625 Y4.0 I0.0312 J-0.0541
G2 X2.4825 Y3.94 I-0.0625 J0.0
G1 F10.0 Z-0.27
G2 F30.0 X2.4688 Y3.9459 I0.0175 J0.06
G2 Y4.0541 I0.0313 J0.0541
G2 X2.5625 Y4.0 I0.0312 J-0.0541
G2 X2.4825 Y3.94 I-0.0625 J0.0
G0 Z0.125
G0 X1.5624 Y3.9962
G0 Z0.0625
G1 F10.0 Z-0.14
G2 F30.0 X1.4688 Y3.9459 I-0.0624 J0.0038
G2 Y4.0541 I0.0313 J0.0541
G2 X1.5625 Y4.0 I0.0312 J-0.0541
G2 X1.5624 Y3.9962 I-0.0625 J0.0
G1 F10.0 Z-0.27
G2 F30.0 X1.4688 Y3.9459 I-0.0624 J0.0038
G2 Y4.0541 I0.0313 J0.0541
G2 X1.5625 Y4.0 I0.0312 J-0.0541
G2 X1.5624 Y3.9962 I-0.0625 J0.0
G0 Z0.125
G0 X0.5625 Y3.9998
G0 Z0.0625
G1 F10.0 Z-0.14
G2 F30.0 X0.4688 Y3.9459 I-0.0625 J0.0002
G2 Y4.0541 I0.0313 J0.0541
G2 X0.5625 Y4.0 I0.0312 J-0.0541
G2 Y3.9998 I-0.0625 J0.0
G1 F10.0 Z-0.27
G2 F30.0 X0.4688 Y3.9459 I-0.0625 J0.0002
G2 Y4.0541 I0.0313 J0.0541
G2 X0.5625 Y4.0 I0.0312 J-0.0541
G2 Y3.9998 I-0.0625 J0.0
G0 Z0.125
G0 X0.5039 Y4.9376
G0 Z0.0625
G1 F10.0 Z-0.14
G2 F30.0 X0.4688 Y4.9459 I-0.0039 J0.0624
G2 Y5.0541 I0.0313 J0.0541
G2 X0.5625 Y5.0 I0.0312 J-0.0541
G2 X0.5039 Y4.9376 I-0.0625 J0.0
G1 F10.0 Z-0.27
G2 F30.0 X0.4688 Y4.9459 I-0.0039 J0.0624
G2 Y5.0541 I0.0313 J0.0541
G2 X0.5625 Y5.0 I0.0312 J-0.0541
G2 X0.5039 Y4.9376 I-0.0625 J0.0
G0 Z0.125
G0 X0.5002 Y5.9375
G0 Z0.0625
G1 F10.0 Z-0.14
G2 F30.0 X0.4688 Y5.9459 I-0.0002 J0.0625
G2 Y6.0541 I0.0313 J0.0541
G2 X0.5625 Y6.0 I0.0312 J-0.0541
G2 X0.5002 Y5.9375 I-0.0625 J0.0
G1 F10.0 Z-0.27
G2 F30.0 X0.4688 Y5.9459 I-0.0002 J0.0625
G2 Y6.0541 I0.0313 J0.0541
G2 X0.5625 Y6.0 I0.0312 J-0.0541
G2 X0.5002 Y5.9375 I-0.0625 J0.0
G0 Z0.125
G0 X1.9376 Y5.9974
G0 Z0.0625
G1 F10.0 Z-0.14
G2 F30.0 X1.9688 Y6.0541 I0.0624 J0.0026
G2 X2.0625 Y6.0 I0.0312 J-0.0541
G2 X1.9688 Y5.9459 I-0.0625 J0.0
G2 X1.9376 Y5.9974 I0.0313 J0.0541
G1 F10.0 Z-0.27
G2 F30.0 X1.9688 Y6.0541 I0.0624 J0.0026
G2 X2.0625 Y6.0 I0.0312 J-0.0541
G2 X1.9688 Y5.9459 I-0.0625 J0.0
G2 X1.9376 Y5.9974 I0.0313 J0.0541
G0 Z0.125
G0 X2.9375 Y5.9998
G0 Z0.0625
G1 F10.0 Z-0.14
G2 F30.0 X2.9688 Y6.0541 I0.0625 J0.0002
G2 X3.0625 Y6.0 I0.0312 J-0.0541
G2 X2.9688 Y5.9459 I-0.0625 J0.0
G2 X2.9375 Y5.9998 I0.0313 J0.0541
G1 F10.0 Z-0.27
G2 F30.0 X2.9688 Y6.0541 I0.0625 J0.0002
G2 X3.0625 Y6.0 I0.0312 J-0.0541
G2 X2.9688 Y5.9459 I-0.0625 J0.0
G2 X2.9375 Y5.9998 I0.0313 J0.0541
G0 Z0.125
G0 X3.9375 Y6.0
G0 Z0.0625
G1 F10.0 Z-0.14
G2 F30.0 X3.9688 Y6.0541 I0.0625 J0.0
G2 X4.0625 Y6.0 I0.0312 J-0.0541
G2 X3.9688 Y5.9459 I-0.0625 J0.0
G2 X3.9375 Y6.0 I0.0313 J0.0541
G1 F10.0 Z-0.27
G2 F30.0 X3.9688 Y6.0541 I0.0625 J0.0
G2 X4.0625 Y6.0 I0.0312 J-0.0541
G2 X3.9688 Y5.9459 I-0.0625 J0.0
G2 X3.9375 Y6.0 I0.0313 J0.0541
G0 Z0.125
G0 X3.9961 Y5.0624
G0 Z0.0625
G1 F10.0 Z-0.14
G2 F30.0 X4.0625 Y5.0 I0.0039 J-0.0624
G2 X3.9688 Y4.9459 I-0.0625 J0.0
G2 Y5.0541 I0.0313 J0.0541
G2 X3.9961 Y5.0624 I0.0313 J-0.0541
G1 F10.0 Z-0.27
G2 F30.0 X4.0625 Y5.0 I0.0039 J-0.0624
G2 X3.9688 Y4.9459 I-0.0625 J0.0
G2 Y5.0541 I0.0313 J0.0541
G2 X3.9961 Y5.0624 I0.0313 J-0.0541
G0 Z0.125
G0 X3.9998 Y4.0625
G0 Z0.0625
G1 F10.0 Z-0.14
G2 F30.0 X4.0625 Y4.0 I0.0002 J-0.0625
G2 X3.9688 Y3.9459 I-0.0625 J0.0
G2 Y4.0541 I0.0313 J0.0541
G2 X3.9998 Y4.0625 I0.0312 J-0.0541
G1 F10.0 Z-0.27
G2 F30.0 X4.0625 Y4.0 I0.0002 J-0.0625
G2 X3.9688 Y3.9459 I-0.0625 J0.0
G2 Y4.0541 I0.0313 J0.0541
G2 X3.9998 Y4.0625 I0.0312 J-0.0541
G0 Z0.125
G0 X5.4376 Y4.0026
G0 Z0.0625
G1 F10.0 Z-0.14
G2 F30.0 X5.4688 Y4.0541 I0.0624 J-0.0026
G2 X5.5625 Y4.0 I0.0313 J-0.0541
G2 X5.4688 Y3.9459 I-0.0625 J0.0
G2 X5.4376 Y4.0026 I0.0313 J0.0541
G1 F10.0 Z-0.27
G2 F30.0 X5.4688 Y4.0541 I0.0624 J-0.0026
G2 X5.5625 Y4.0 I0.0313 J-0.0541
G2 X5.4688 Y3.9459 I-0.0625 J0.0
G2 X5.4376 Y4.0026 I0.0313 J0.0541
G0 Z0.125
G0 X5.4961 Y4.9376
G0 Z0.0625
G1 F10.0 Z-0.14
G2 F30.0 X5.4688 Y4.9459 I0.0039 J0.0624
G2 Y5.0541 I0.0313 J0.0541
G2 X5.5625 Y5.0 I0.0313 J-0.0541
G2 X5.4961 Y4.9376 I-0.0625 J0.0
G1 F10.0 Z-0.27
G2 F30.0 X5.4688 Y4.9459 I0.0039 J0.0624
G2 Y5.0541 I0.0313 J0.0541
G2 X5.5625 Y5.0 I0.0313 J-0.0541
G2 X5.4961 Y4.9376 I-0.0625 J0.0
G0 Z0.125
G0 X5.4998 Y5.9375
G0 Z0.0625
G1 F10.0 Z-0.14
G2 F30.0 X5.4688 Y5.9459 I0.0002 J0.0625
G2 Y6.0541 I0.0313 J0.0541
G2 X5.5625 Y6.0 I0.0313 J-0.0541
G2 X5.4998 Y5.9375 I-0.0625 J0.0
G1 F10.0 Z-0.27
G2 F30.0 X5.4688 Y5.9459 I0.0002 J0.0625
G2 Y6.0541 I0.0313 J0.0541
G2 X5.5625 Y6.0 I0.0313 J-0.0541
G2 X5.4998 Y5.9375 I-0.0625 J0.0
G0 Z0.125
G0 X6.9376 Y5.9974
G0 Z0.0625
G1 F10.0 Z-0.14
G2 F30.0 X6.9688 Y6.0541 I0.0624 J0.0026
G2 X7.0625 Y6.0 I0.0313 J-0.0541
G2 X6.9688 Y5.9459 I-0.0625 J0.0
G2 X6.9376 Y5.9974 I0.0313 J0.0541
G1 F10.0 Z-0.27
G2 F30.0 X6.9688 Y6.0541 I0.0624 J0.0026
G2 X7.0625 Y6.0 I0.0313 J-0.0541
G2 X6.9688 Y5.9459 I-0.0625 J0.0
G2 X6.9376 Y5.9974 I0.0313 J0.0541
G0 Z0.125
G0 X7.9375 Y5.9998
G0 Z0.0625
G1 F10.0 Z-0.14
G2 F30.0 X7.9688 Y6.0541 I0.0625 J0.0002
G2 X8.0625 Y6.0 I0.0313 J-0.0541
G2 X7.9688 Y5.9459 I-0.0625 J0.0
G2 X7.9375 Y5.9998 I0.0313 J0.0541
G1 F10.0 Z-0.27
G2 F30.0 X7.9688 Y6.0541 I0.0625 J0.0002
G2 X8.0625 Y6.0 I0.0313 J-0.0541
G2 X7.9688 Y5.9459 I-0.0625 J0.0
G2 X7.9375 Y5.9998 I0.0313 J0.0541
G0 Z0.125
G0 X8.9375 Y6.0
G0 Z0.0625
G1 F10.0 Z-0.14
G2 F30.0 X8.9688 Y6.0541 I0.0625 J0.0
G2 X9.0625 Y6.0 I0.0313 J-0.0541
G2 X8.9688 Y5.9459 I-0.0625 J0.0
G2 X8.9375 Y6.0 I0.0313 J0.0541
G1 F10.0 Z-0.27
G2 F30.0 X8.9688 Y6.0541 I0.0625 J0.0
G2 X9.0625 Y6.0 I0.0313 J-0.0541
G2 X8.9688 Y5.9459 I-0.0625 J0.0
G2 X8.9375 Y6.0 I0.0313 J0.0541
G0 Z0.125
G0 X8.9961 Y5.0624
G0 Z0.0625
G1 F10.0 Z-0.14
G2 F30.0 X9.0625 Y5.0 I0.0039 J-0.0624
G2 X8.9688 Y4.9459 I-0.0625 J0.0
G2 Y5.0541 I0.0313 J0.0541
G2 X8.9961 Y5.0624 I0.0313 J-0.0541
G1 F10.0 Z-0.27
G2 F30.0 X9.0625 Y5.0 I0.0039 J-0.0624
G2 X8.9688 Y4.9459 I-0.0625 J0.0
G2 Y5.0541 I0.0313 J0.0541
G2 X8.9961 Y5.0624 I0.0313 J-0.0541
G0 Z0.125
G0 X8.9998 Y4.0625
G0 Z0.0625
G1 F10.0 Z-0.14
G2 F30.0 X9.0625 Y4.0 I0.0002 J-0.0625
G2 X8.9688 Y3.9459 I-0.0625 J0.0
G2 Y4.0541 I0.0313 J0.0541
G2 X8.9998 Y4.0625 I0.0312 J-0.0541
G1 F10.0 Z-0.27
G2 F30.0 X9.0625 Y4.0 I0.0002 J-0.0625
G2 X8.9688 Y3.9459 I-0.0625 J0.0
G2 Y4.0541 I0.0313 J0.0541
G2 X8.9998 Y4.0625 I0.0312 J-0.0541
G0 Z0.125
G0 X7.5624 Y4.0026
G0 Z0.0625
G1 F10.0 Z-0.14
G2 F30.0 X7.5625 Y4.0 I-0.0624 J-0.0026
G2 X7.4688 Y3.9459 I-0.0625 J0.0
G2 Y4.0541 I0.0313 J0.0541
G2 X7.5624 Y4.0026 I0.0313 J-0.0541
G1 F10.0 Z-0.27
G2 F30.0 X7.5625 Y4.0 I-0.0624 J-0.0026
G2 X7.4688 Y3.9459 I-0.0625 J0.0
G2 Y4.0541 I0.0313 J0.0541
G2 X7.5624 Y4.0026 I0.0313 J-0.0541
G0 Z0.125
G0 X6.5625 Y4.0002
G0 Z0.0625
G1 F10.0 Z-0.14
G2 F30.0 Y4.0 I-0.0625 J-0.0002
G2 X6.4688 Y3.9459 I-0.0625 J0.0
G2 Y4.0541 I0.0313 J0.0541
G2 X6.5625 Y4.0002 I0.0313 J-0.0541
G1 F10.0 Z-0.27
G2 F30.0 Y4.0 I-0.0625 J-0.0002
G2 X6.4688 Y3.9459 I-0.0625 J0.0
G2 Y4.0541 I0.0313 J0.0541
G2 X6.5625 Y4.0002 I0.0313 J-0.0541
G0 Z0.125
G0 X6.9825 Y2.56
G0 Z0.0625
G1 F10.0 Z-0.14
G2 F30.0 X7.0625 Y2.5 I0.0175 J-0.06
G2 X6.9688 Y2.4459 I-0.0625 J0.0
G2 Y2.5541 I0.0313 J0.0541
G2 X6.9825 Y2.56 I0.0313 J-0.0541
G1 F10.0 Z-0.27
G2 F30.0 X7.0625 Y2.5 I0.0175 J-0.06
G2 X6.9688 Y2.4459 I-0.0625 J0.0
G2 Y2.5541 I0.0313 J0.0541
G2 X6.9825 Y2.56 I0.0313 J-0.0541
G0 Z0.125
G0 X7.9376 Y2.5037
G0 Z0.0625
G1 F10.0 Z-0.14
G2 F30.0 X7.9688 Y2.5541 I0.0624 J-0.0037
G2 X8.0625 Y2.5 I0.0313 J-0.0541
G2 X7.9688 Y2.4459 I-0.0625 J0.0
G2 X7.9376 Y2.5037 I0.0313 J0.0541
G1 F10.0 Z-0.27
G2 F30.0 X7.9688 Y2.5541 I0.0624 J-0.0037
G2 X8.0625 Y2.5 I0.0313 J-0.0541
G2 X7.9688 Y2.4459 I-0.0625 J0.0
G2 X7.9376 Y2.5037 I0.0313 J0.0541
G0 Z0.125
G0 X8.9375 Y2.5002
G0 Z0.0625
G1 F10.0 Z-0.14
G2 F30.0 X8.9688 Y2.5541 I0.0625 J-0.0002
G2 X9.0625 Y2.5 I0.0313 J-0.0541
G2 X8.9688 Y2.4459 I-0.0625 J0.0
G2 X8.9375 Y2.5002 I0.0313 J0.0541
G1 F10.0 Z-0.27
G2 F30.0 X8.9688 Y2.5541 I0.0625 J-0.0002
G2 X9.0625 Y2.5 I0.0313 J-0.0541
G2 X8.9688 Y2.4459 I-0.0625 J0.0
G2 X8.9375 Y2.5002 I0.0313 J0.0541
G0 Z0.125
G0 X8.9961 Y1.5624
G0 Z0.0625
G1 F10.0 Z-0.14
G2 F30.0 X9.0625 Y1.5 I0.0039 J-0.0624
G2 X8.9688 Y1.4459 I-0.0625 J0.0
G2 Y1.5541 I0.0313 J0.0541
G2 X8.9961 Y1.5624 I0.0313 J-0.0541
G1 F10.0 Z-0.27
G2 F30.0 X9.0625 Y1.5 I0.0039 J-0.0624
G2 X8.9688 Y1.4459 I-0.0625 J0.0
G2 Y1.5541 I0.0313 J0.0541
G2 X8.9961 Y1.5624 I0.0313 J-0.0541
G0 Z0.125
G0 X8.9998 Y0.5625
G0 Z0.0625
G1 F10.0 Z-0.14
G2 F30.0 X9.0625 Y0.5 I0.0002 J-0.0625
G2 X8.9688 Y0.4459 I-0.0625 J0.0
G2 Y0.5541 I0.0313 J0.0541
G2 X8.9998 Y0.5625 I0.0313 J-0.0541
G1 F10.0 Z-0.27
G2 F30.0 X9.0625 Y0.5 I0.0002 J-0.0625
G2 X8.9688 Y0.4459 I-0.0625 J0.0
G2 Y0.5541 I0.0313 J0.0541
G2 X8.9998 Y0.5625 I0.0313 J-0.0541
G0 Z0.125
G0 X7.5624 Y0.5026
G0 Z0.0625
G1 F10.0 Z-0.14
G2 F30.0 X7.5625 Y0.5 I-0.0624 J-0.0026
G2 X7.4688 Y0.4459 I-0.0625 J0.0
G2 Y0.5541 I0.0313 J0.0541
G2 X7.5624 Y0.5026 I0.0313 J-0.0541
G1 F10.0 Z-0.27
G2 F30.0 X7.5625 Y0.5 I-0.0624 J-0.0026
G2 X7.4688 Y0.4459 I-0.0625 J0.0
G2 Y0.5541 I0.0313 J0.0541
G2 X7.5624 Y0.5026 I0.0313 J-0.0541
G0 Z0.125
G0 X6.5625 Y0.5002
G0 Z0.0625
G1 F10.0 Z-0.14
G2 F30.0 Y0.5 I-0.0625 J-0.0002
G2 X6.4688 Y0.4459 I-0.0625 J0.0
G2 Y0.5541 I0.0313 J0.0541
G2 X6.5625 Y0.5002 I0.0313 J-0.0541
G1 F10.0 Z-0.27
G2 F30.0 Y0.5 I-0.0625 J-0.0002
G2 X6.4688 Y0.4459 I-0.0625 J0.0
G2 Y0.5541 I0.0313 J0.0541
G2 X6.5625 Y0.5002 I0.0313 J-0.0541
G0 Z0.125
G0 X5.5625 Y0.5
G0 Z0.0625
G1 F10.0 Z-0.14
G2 F30.0 X5.4688 Y0.4459 I-0.0625 J0.0
G2 Y0.5541 I0.0313 J0.0541
G2 X5.5625 Y0.5 I0.0313 J-0.0541
G1 F10.0 Z-0.27
G2 F30.0 X5.4688 Y0.4459 I-0.0625 J0.0
G2 Y0.5541 I0.0313 J0.0541
G2 X5.5625 Y0.5 I0.0313 J-0.0541
G0 Z0.125
G0 X5.5039 Y1.4376
G0 Z0.0625
G1 F10.0 Z-0.14
G2 F30.0 X5.4688 Y1.4459 I-0.0039 J0.0624
G2 Y1.5541 I0.0313 J0.0541
G2 X5.5625 Y1.5 I0.0313 J-0.0541
G2 X5.5039 Y1.4376 I-0.0625 J0.0
G1 F10.0 Z-0.27
G2 F30.0 X5.4688 Y1.4459 I-0.0039 J0.0624
G2 Y1.5541 I0.0313 J0.0541
G2 X5.5625 Y1.5 I0.0313 J-0.0541
G2 X5.5039 Y1.4376 I-0.0625 J0.0
G0 Z0.125
G0 X5.5002 Y2.4375
G0 Z0.0625
G1 F10.0 Z-0.14
G2 F30.0 X5.4688 Y2.4459 I-0.0002 J0.0625
G2 Y2.5541 I0.0313 J0.0541
G2 X5.5625 Y2.5 I0.0313 J-0.0541
G2 X5.5002 Y2.4375 I-0.0625 J0.0
G1 F10.0 Z-0.27
G2 F30.0 X5.4688 Y2.4459 I-0.0002 J0.0625
G2 Y2.5541 I0.0313 J0.0541
G2 X5.5625 Y2.5 I0.0313 J-0.0541
G2 X5.5002 Y2.4375 I-0.0625 J0.0
G0 Z0.125
G0 X10.4375 Y2.4992
G0 Z0.0625
G1 F10.0 Z-0.14
G2 F30.0 X10.4688 Y2.5541 I0.0625 J0.0008
G2 X10.5625 Y2.5 I0.0313 J-0.0541
G2 X10.4688 Y2.4459 I-0.0625 J0.0
G2 X10.4375 Y2.4992 I0.0313 J0.0541
G1 F10.0 Z-0.27
G2 F30.0 X10.4688 Y2.5541 I0.0625 J0.0008
G2 X10.5625 Y2.5 I0.0313 J-0.0541
G2 X10.4688 Y2.4459 I-0.0625 J0.0
G2 X10.4375 Y2.4992 I0.0313 J0.0541
G0 Z0.125
G0 X10.4961 Y1.5624
G0 Z0.0625
G1 F10.0 Z-0.14
G2 F30.0 X10.5625 Y1.5 I0.0039 J-0.0624
G2 X10.4688 Y1.4459 I-0.0625 J0.0
G2 Y1.5541 I0.0313 J0.0541
G2 X10.4961 Y1.5624 I0.0313 J-0.0541
G1 F10.0 Z-0.27
G2 F30.0 X10.5625 Y1.5 I0.0039 J-0.0624
G2 X10.4688 Y1.4459 I-0.0625 J0.0
G2 Y1.5541 I0.0313 J0.0541
G2 X10.4961 Y1.5624 I0.0313 J-0.0541
G0 Z0.125
G0 X10.4998 Y0.5625
G0 Z0.0625
G1 F10.0 Z-0.14
G2 F30.0 X10.5625 Y0.5 I0.0002 J-0.0625
G2 X10.4688 Y0.4459 I-0.0625 J0.0
G2 Y0.5541 I0.0313 J0.0541
G2 X10.4998 Y0.5625 I0.0313 J-0.0541
G1 F10.0 Z-0.27
G2 F30.0 X10.5625 Y0.5 I0.0002 J-0.0625
G2 X10.4688 Y0.4459 I-0.0625 J0.0
G2 Y0.5541 I0.0313 J0.0541
G2 X10.4998 Y0.5625 I0.0313 J-0.0541
G0 Z0.125
G0 X11.4376 Y0.5039
G0 Z0.0625
G1 F10.0 Z-0.14
G2 F30.0 X11.4688 Y0.5541 I0.0624 J-0.0039
G2 X11.5625 Y0.5 I0.0313 J-0.0541
G2 X11.4688 Y0.4459 I-0.0625 J0.0
G2 X11.4376 Y0.5039 I0.0313 J0.0541
G1 F10.0 Z-0.27
G2 F30.0 X11.4688 Y0.5541 I0.0624 J-0.0039
G2 X11.5625 Y0.5 I0.0313 J-0.0541
G2 X11.4688 Y0.4459 I-0.0625 J0.0
G2 X11.4376 Y0.5039 I0.0313 J0.0541
G0 Z0.125
G0 X12.4375 Y0.5002
G0 Z0.0625
G1 F10.0 Z-0.14
G2 F30.0 X12.4688 Y0.5541 I0.0625 J-0.0002
G2 X12.5625 Y0.5 I0.0313 J-0.0541
G2 X12.4688 Y0.4459 I-0.0625 J0.0
G2 X12.4375 Y0.5002 I0.0313 J0.0541
G1 F10.0 Z-0.27
G2 F30.0 X12.4688 Y0.5541 I0.0625 J-0.0002
G2 X12.5625 Y0.5 I0.0313 J-0.0541
G2 X12.4688 Y0.4459 I-0.0625 J0.0
G2 X12.4375 Y0.5002 I0.0313 J0.0541
G0 Z0.125
G0 X13.9375 Y0.5
G0 Z0.0625
G1 F10.0 Z-0.14
G2 F30.0 X13.9688 Y0.5541 I0.0625 J0.0
G2 X14.0625 Y0.5 I0.0313 J-0.0541
G2 X13.9688 Y0.4459 I-0.0625 J0.0
G2 X13.9375 Y0.5 I0.0313 J0.0541
G1 F10.0 Z-0.27
G2 F30.0 X13.9688 Y0.5541 I0.0625 J0.0
G2 X14.0625 Y0.5 I0.0313 J-0.0541
G2 X13.9688 Y0.4459 I-0.0625 J0.0
G2 X13.9375 Y0.5 I0.0313 J0.0541
G0 Z0.125
G0 X13.9961 Y1.4376
G0 Z0.0625
G1 F10.0 Z-0.14
G2 F30.0 X13.9688 Y1.4459 I0.0039 J0.0624
G2 Y1.5541 I0.0313 J0.0541
G2 X14.0625 Y1.5 I0.0313 J-0.0541
G2 X13.9961 Y1.4376 I-0.0625 J0.0
G1 F10.0 Z-0.27
G2 F30.0 X13.9688 Y1.4459 I0.0039 J0.0624
G2 Y1.5541 I0.0313 J0.0541
G2 X14.0625 Y1.5 I0.0313 J-0.0541
G2 X13.9961 Y1.4376 I-0.0625 J0.0
G0 Z0.125
G0 X13.9998 Y2.4375
G0 Z0.0625
G1 F10.0 Z-0.14
G2 F30.0 X13.9688 Y2.4459 I0.0002 J0.0625
G2 Y2.5541 I0.0313 J0.0541
G2 X14.0625 Y2.5 I0.0313 J-0.0541
G2 X13.9998 Y2.4375 I-0.0625 J0.0
G1 F10.0 Z-0.27
G2 F30.0 X13.9688 Y2.4459 I0.0002 J0.0625
G2 Y2.5541 I0.0313 J0.0541
G2 X14.0625 Y2.5 I0.0313 J-0.0541
G2 X13.9998 Y2.4375 I-0.0625 J0.0
G0 Z0.125
G0 X13.0624 Y2.4961
G0 Z0.0625
G1 F10.0 Z-0.14
G2 F30.0 X12.9688 Y2.4459 I-0.0624 J0.0039
G2 Y2.5541 I0.0313 J0.0541
G2 X13.0625 Y2.5 I0.0313 J-0.0541
G2 X13.0624 Y2.4961 I-0.0625 J0.0
G1 F10.0 Z-0.27
G2 F30.0 X12.9688 Y2.4459 I-0.0624 J0.0039
G2 Y2.5541 I0.0313 J0.0541
G2 X13.0625 Y2.5 I0.0313 J-0.0541
G2 X13.0624 Y2.4961 I-0.0625 J0.0
G0 Z0.125
G0 X12.0625 Y2.4998
G0 Z0.0625
G1 F10.0 Z-0.14
G2 F30.0 X11.9688 Y2.4459 I-0.0625 J0.0002
G2 Y2.5541 I0.0313 J0.0541
G2 X12.0625 Y2.5 I0.0313 J-0.0541
G2 Y2.4998 I-0.0625 J0.0
G1 F10.0 Z-0.27
G2 F30.0 X11.9688 Y2.4459 I-0.0625 J0.0002
G2 Y2.5541 I0.0313 J0.0541
G2 X12.0625 Y2.5 I0.0313 J-0.0541
G2 Y2.4998 I-0.0625 J0.0
G0 Z0.125
G0 X12.4825 Y3.94
G0 Z0.0625
G1 F10.0 Z-0.14
G2 F30.0 X12.4688 Y3.9459 I0.0175 J0.06
G2 Y4.0541 I0.0313 J0.0541
G2 X12.5625 Y4.0 I0.0313 J-0.0541
G2 X12.4825 Y3.94 I-0.0625 J0.0
G1 F10.0 Z-0.27
G2 F30.0 X12.4688 Y3.9459 I0.0175 J0.06
G2 Y4.0541 I0.0313 J0.0541
G2 X12.5625 Y4.0 I0.0313 J-0.0541
G2 X12.4825 Y3.94 I-0.0625 J0.0
G0 Z0.125
G0 X11.5624 Y3.9962
G0 Z0.0625
G1 F10.0 Z-0.14
G2 F30.0 X11.4688 Y3.9459 I-0.0624 J0.0038
G2 Y4.0541 I0.0313 J0.0541
G2 X11.5625 Y4.0 I0.0313 J-0.0541
G2 X11.5624 Y3.9962 I-0.0625 J0.0
G1 F10.0 Z-0.27
G2 F30.0 X11.4688 Y3.9459 I-0.0624 J0.0038
G2 Y4.0541 I0.0313 J0.0541
G2 X11.5625 Y4.0 I0.0313 J-0.0541
G2 X11.5624 Y3.9962 I-0.0625 J0.0
G0 Z0.125
G0 X10.5625 Y3.9998
G0 Z0.0625
G1 F10.0 Z-0.14
G2 F30.0 X10.4688 Y3.9459 I-0.0625 J0.0002
G2 Y4.0541 I0.0313 J0.0541
G2 X10.5625 Y4.0 I0.0313 J-0.0541
G2 Y3.9998 I-0.0625 J0.0
G1 F10.0 Z-0.27
G2 F30.0 X10.4688 Y3.9459 I-0.0625 J0.0002
G2 Y4.0541 I0.0313 J0.0541
G2 X10.5625 Y4.0 I0.0313 J-0.0541
G2 Y3.9998 I-0.0625 J0.0
G0 Z0.125
G0 X10.5039 Y4.9376
G0 Z0.0625
G1 F10.0 Z-0.14
G2 F30.0 X10.4688 Y4.9459 I-0.0039 J0.0624
G2 Y5.0541 I0.0313 J0.0541
G2 X10.5625 Y5.0 I0.0313 J-0.0541
G2 X10.5039 Y4.9376 I-0.0625 J0.0
G1 F10.0 Z-0.27
G2 F30.0 X10.4688 Y4.9459 I-0.0039 J0.0624
G2 Y5.0541 I0.0313 J0.0541
G2 X10.5625 Y5.0 I0.0313 J-0.0541
G2 X10.5039 Y4.9376 I-0.0625 J0.0
G0 Z0.125
G0 X10.5002 Y5.9375
G0 Z0.0625
G1 F10.0 Z-0.14
G2 F30.0 X10.4688 Y5.9459 I-0.0002 J0.0625
G2 Y6.0541 I0.0313 J0.0541
G2 X10.5625 Y6.0 I0.0313 J-0.0541
G2 X10.5002 Y5.9375 I-0.0625 J0.0
G1 F10.0 Z-0.27
G2 F30.0 X10.4688 Y5.9459 I-0.0002 J0.0625
G2 Y6.0541 I0.0313 J0.0541
G2 X10.5625 Y6.0 I0.0313 J-0.0541
G2 X10.5002 Y5.9375 I-0.0625 J0.0
G0 Z0.125
G0 X11.9376 Y5.9974
G0 Z0.0625
G1 F10.0 Z-0.14
G2 F30.0 X11.9688 Y6.0541 I0.0624 J0.0026
G2 X12.0625 Y6.0 I0.0313 J-0.0541
G2 X11.9688 Y5.9459 I-0.0625 J0.0
G2 X11.9376 Y5.9974 I0.0313 J0.0541
G1 F10.0 Z-0.27
G2 F30.0 X11.9688 Y6.0541 I0.0624 J0.0026
G2 X12.0625 Y6.0 I0.0313 J-0.0541
G2 X11.9688 Y5.9459 I-0.0625 J0.0
G2 X11.9376 Y5.9974 I0.0313 J0.0541
G0 Z0.125
G0 X12.9375 Y5.9998
G0 Z0.0625
G1 F10.0 Z-0.14
G2 F30.0 X12.9688 Y6.0541 I0.0625 J0.0002
G2 X13.0625 Y6.0 I0.0313 J-0.0541
G2 X12.9688 Y5.9459 I-0.0625 J0.0
G2 X12.9375 Y5.9998 I0.0313 J0.0541
G1 F10.0 Z-0.27
G2 F30.0 X12.9688 Y6.0541 I0.0625 J0.0002
G2 X13.0625 Y6.0 I0.0313 J-0.0541
G2 X12.9688 Y5.9459 I-0.0625 J0.0
G2 X12.9375 Y5.9998 I0.0313 J0.0541
G0 Z0.125
G0 X13.9375 Y6.0
G0 Z0.0625
G1 F10.0 Z-0.14
G2 F30.0 X13.9688 Y6.0541 I0.0625 J0.0
G2 X14.0625 Y6.0 I0.0313 J-0.0541
G2 X13.9688 Y5.9459 I-0.0625 J0.0
G2 X13.9375 Y6.0 I0.0313 J0.0541
G1 F10.0 Z-0.27
G2 F30.0 X13.9688 Y6.0541 I0.0625 J0.0
G2 X14.0625 Y6.0 I0.0313 J-0.0541
G2 X13.9688 Y5.9459 I-0.0625 J0.0
G2 X13.9375 Y6.0 I0.0313 J0.0541
G0 Z0.125
G0 X13.9961 Y5.0624
G0 Z0.0625
G1 F10.0 Z-0.14
G2 F30.0 X14.0625 Y5.0 I0.0039 J-0.0624
G2 X13.9688 Y4.9459 I-0.0625 J0.0
G2 Y5.0541 I0.0313 J0.0541
G2 X13.9961 Y5.0624 I0.0313 J-0.0541
G1 F10.0 Z-0.27
G2 F30.0 X14.0625 Y5.0 I0.0039 J-0.0624
G2 X13.9688 Y4.9459 I-0.0625 J0.0
G2 Y5.0541 I0.0313 J0.0541
G2 X13.9961 Y5.0624 I0.0313 J-0.0541
G0 Z0.125
G0 X13.9998 Y4.0625
G0 Z0.0625
G1 F10.0 Z-0.14
G2 F30.0 X14.0625 Y4.0 I0.0002 J-0.0625
G2 X13.9688 Y3.9459 I-0.0625 J0.0
G2 Y4.0541 I0.0313 J0.0541
G2 X13.9998 Y4.0625 I0.0313 J-0.0541
G1 F10.0 Z-0.27
G2 F30.0 X14.0625 Y4.0 I0.0002 J-0.0625
G2 X13.9688 Y3.9459 I-0.0625 J0.0
G2 Y4.0541 I0.0313 J0.0541
G2 X13.9998 Y4.0625 I0.0313 J-0.0541
( outline )
S1000
G0 Z0.125
G0 X3.0 Y4.5625
G0 Z0.0625
G1 F10.0 Z-0.14
G1 F30.0 X2.0259
G1 X1.0625 Y5.5259
G1 Y6.5
G3 X1.0 Y6.5625 I-0.0625 J0.0
G1 X0.0
G3 X-0.0625 Y6.5 I0.0 J-0.0625
G1 Y3.5
G3 X0.0 Y3.4375 I0.0625 J0.0
G1 X3.0
G3 X3.0625 Y3.5 I0.0 J0.0625
G1 Y4.5
G3 X3.0 Y4.5625 I-0.0625 J0.0
G1 F10.0 Z-0.27
G1 F30.0 X2.0259
G1 X1.0625 Y5.5259
G1 Y6.5
G3 X1.0 Y6.5625 I-0.0625 J0.0
G1 X0.0
G3 X-0.0625 Y6.5 I0.0 J-0.0625
G1 Y3.5
G3 X0.0 Y3.4375 I0.0625 J0.0
G1 X3.0
G3 X3.0625 Y3.5 I0.0 J0.0625
G1 Y4.5
G3 X3.0 Y4.5625 I-0.0625 J0.0
G0 Z0.125
G0 X3.1746 Y4.7371
G0 Z0.0625
G1 F10.0 Z-0.14
G1 F30.0 X3.4375 Y4.4741
G1 Y3.5
G3 X3.5 Y3.4375 I0.0625 J0.0
G1 X4.5
G3 X4.5625 Y3.5 I0.0 J0.0625
G1 Y6.5
G3 X4.5 Y6.5625 I-0.0625 J0.0
G1 X1.5
G3 X1.4375 Y6.5 I0.0 J-0.0625
G1 Y5.5
G3 X1.5 Y5.4375 I0.0625 J0.0
G1 X2.4741
G1 X3.1746 Y4.7371
G1 F10.0 Z-0.27
G1 F30.0 X3.4375 Y4.4741
G1 Y3.5
G3 X3.5 Y3.4375 I0.0625 J0.0
G1 X4.5
G3 X4.5625 Y3.5 I0.0 J0.0625
G1 Y6.5
G3 X4.5 Y6.5625 I-0.0625 J0.0
G1 X1.5
G3 X1.4375 Y6.5 I0.0 J-0.0625
G1 Y5.5
G3 X1.5 Y5.4375 I0.0625 J0.0
G1 X2.4741
G1 X3.1746 Y4.7371
G0 Z0.125
G0 Y3.0625
G0 Z0.0625
G1 F10.0 Z-0.14
G1 F30.0 X1.5
G3 X1.4375 Y3.0 I0.0 J-0.0625
G1 Y2.0
G3 X1.5 Y1.9375 I0.0625 J0.0
G1 X2.4741
G1 X3.4375 Y0.9741
G1 Y0.0
G3 X3.5 Y-0.0625 I0.0625 J0.0
G1 X4.5
G3 X4.5625 Y0.0 I0.0 J0.0625
G1 Y3.0
G3 X4.5 Y3.0625 I-0.0625 J0.0
G1 X3.1746
G1 F10.0 Z-0.27
G1 F30.0 X1.5
G3 X1.4375 Y3.0 I0.0 J-0.0625
G1 Y2.0
G3 X1.5 Y1.9375 I0.0625 J0.0
G1 X2.4741
G1 X3.4375 Y0.9741
G1 Y0.0
G3 X3.5 Y-0.0625 I0.0625 J0.0
G1 X4.5
G3 X4.5625 Y0.0 I0.0 J0.0625
G1 Y3.0
G3 X4.5 Y3.0625 I-0.0625 J0.0
G1 X3.1746
G0 Z0.125
G0 X4.9375 Y3.0021
G0 Z0.0625
G1 F10.0 Z-0.14
G3 F30.0 Y3.0 I0.0625 J-0.0021
G1 Y0.0
G3 X5.0 Y-0.0625 I0.0625 J0.0
G1 X8.0
G3 X8.0625 Y0.0 I0.0 J0.0625
G1 Y1.0
G3 X8.0 Y1.0625 I-0.0625 J0.0
G1 X7.0259
G1 X6.0625 Y2.0259
G1 Y3.0
G3 X6.0 Y3.0625 I-0.0625 J0.0
G1 X5.0
G3 X4.9375 Y3.0021 I0.0 J-0.0625
G1 F10.0 Z-0.27
G3 F30.0 Y3.0 I0.0625 J-0.0021
G1 Y0.0
G3 X5.0 Y-0.0625 I0.0625 J0.0
G1 X8.0
G3 X8.0625 Y0.0 I0.0 J0.0625
G1 Y1.0
G3 X8.0 Y1.0625 I-0.0625 J0.0
G1 X7.0259
G1 X6.0625 Y2.0259
G1 Y3.0
G3 X6.0 Y3.0625 I-0.0625 J0.0
G1 X5.0
G3 X4.9375 Y3.0021 I0.0 J-0.0625
G0 Z0.125
G0 X4.9922 Y3.438
G0 Z0.0625
G1 F10.0 Z-0.14
G3 F30.0 X5.0 Y3.4375 I0.0078 J0.062
G1 X8.0
G3 X8.0625 Y3.5 I0.0 J0.0625
G1 Y4.5
G3 X8.0 Y4.5625 I-0.0625 J0.0
G1 X7.0259
G1 X6.0625 Y5.5259
G1 Y6.5
G3 X6.0 Y6.5625 I-0.0625 J0.0
G1 X5.0
G3 X4.9375 Y6.5 I0.0 J-0.0625
G1 Y3.5
G3 X4.9922 Y3.438 I0.0625 J0.0
G1 F10.0 Z-0.27
G3 F30.0 X5.0 Y3.4375 I0.0078 J0.062
G1 X8.0
G3 X8.0625 Y3.5 I0.0 J0.0625
G1 Y4.5
G3 X8.0 Y4.5625 I-0.0625 J0.0
G1 X7.0259
G1 X6.0625 Y5.5259
G1 Y6.5
G3 X6.0 Y6.5625 I-0.0625 J0.0
G1 X5.0
G3 X4.9375 Y6.5 I0.0 J-0.0625
G1 Y3.5
G3 X4.9922 Y3.438 I0.0625 J0.0
G0 Z0.125
G0 X6.44 Y3.0174
G0 Z0.0625
G1 F10.0 Z-0.14
G3 F30.0 X6.4375 Y3.0 I0.06 J-0.0174
G1 Y2.0
G3 X6.5 Y1.9375 I0.0625 J0.0
G1 X7.4741
G1 X8.4375 Y0.9741
G1 Y0.0
G3 X8.5 Y-0.0625 I0.0625 J0.0
G1 X9.5
G3 X9.5625 Y0.0 I0.0 J0.0625
G1 Y3.0
G3 X9.5 Y3.0625 I-0.0625 J0.0
G1 X6.5
G3 X6.44 Y3.0174 I0.0 J-0.0625
G1 F10.0 Z-0.27
G3 F30.0 X6.4375 Y3.0 I0.06 J-0.0174
G1 Y2.0
G3 X6.5 Y1.9375 I0.0625 J0.0
G1 X7.4741
G1 X8.4375 Y0.9741
G1 Y0.0
G3 X8.5 Y-0.0625 I0.0625 J0.0
G1 X9.5
G3 X9.5625 Y0.0 I0.0 J0.0625
G1 Y3.0
G3 X9.5 Y3.0625 I-0.0625 J0.0
G1 X6.5
G3 X6.44 Y3.0174 I0.0 J-0.0625
G0 Z0.125
G0 X8.4391 Y3.4857
G0 Z0.0625
G1 F10.0 Z-0.14
G3 F30.0 X8.5 Y3.4375 I0.0609 J0.0143
G1 X9.5
G3 X9.5625 Y3.5 I0.0 J0.0625
G1 Y6.5
G3 X9.5 Y6.5625 I-0.0625 J0.0
G1 X6.5
G3 X6.4375 Y6.5 I0.0 J-0.0625
G1 Y5.5
G3 X6.5 Y5.4375 I0.0625 J0.0
G1 X7.4741
G1 X8.4375 Y4.4741
G1 Y3.5
G3 X8.4391 Y3.4857 I0.0625 J0.0
G1 F10.0 Z-0.27
G3 F30.0 X8.5 Y3.4375 I0.0609 J0.0143
G1 X9.5
G3 X9.5625 Y3.5 I0.0 J0.0625
G1 Y6.5
G3 X9.5 Y6.5625 I-0.0625 J0.0
G1 X6.5
G3 X6.4375 Y6.5 I0.0 J-0.0625
G1 Y5.5
G3 X6.5 Y5.4375 I0.0625 J0.0
G1 X7.4741
G1 X8.4375 Y4.4741
G1 Y3.5
G3 X8.4391 Y3.4857 I0.0625 J0.0
G0 Z0.125
G0 X9.9375 Y3.4994
G0 Z0.0625
G1 F10.0 Z-0.14
G3 F30.0 X10.0 Y3.4375 I0.0625 J0.0006
G1 X13.0
G3 X13.0625 Y3.5 I0.0 J0.0625
G1 Y4.5
G3 X13.0 Y4.5625 I-0.0625 J0.0
G1 X12.0259
G1 X11.0625 Y5.5259
G1 Y6.5
G3 X11.0 Y6.5625 I-0.0625 J0.0
G1 X10.0
G3 X9.9375 Y6.5 I0.0 J-0.0625
G1 Y3.5
G3 Y3.4994 I0.0625 J0.0
G1 F10.0 Z-0.27
G3 F30.0 X10.0 Y3.4375 I0.0625 J0.0006
G1 X13.0
G3 X13.0625 Y3.5 I0.0 J0.0625
G1 Y4.5
G3 X13.0 Y4.5625 I-0.0625 J0.0
G1 X12.0259
G1 X11.0625 Y5.5259
G1 Y6.5
G3 X11.0 Y6.5625 I-0.0625 J0.0
G1 X10.0
G3 X9.9375 Y6.5 I0.0 J-0.0625
G1 Y3.5
G3 Y3.4994 I0.0625 J0.0
G0 Z0.125
G0 X9.9922 Y3.062
G0 Z0.0625
G1 F10.0 Z-0.14
G3 F30.0 X9.9375 Y3.0 I0.0078 J-0.062
G1 Y0.0
G3 X10.0 Y-0.0625 I0.0625 J0.0
G1 X13.0
G3 X13.0625 Y0.0 I0.0 J0.0625
G1 Y1.0
G3 X13.0 Y1.0625 I-0.0625 J0.0
G1 X12.0259
G1 X11.0625 Y2.0259
G1 Y3.0
G3 X11.0 Y3.0625 I-0.0625 J0.0
G1 X10.0
G3 X9.9922 Y3.062 I0.0 J-0.0625
G1 F10.0 Z-0.27
G3 F30.0 X9.9375 Y3.0 I0.0078 J-0.062
G1 Y0.0
G3 X10.0 Y-0.0625 I0.0625 J0.0
G1 X13.0
G3 X13.0625 Y0.0 I0.0 J0.0625
G1 Y1.0
G3 X13.0 Y1.0625 I-0.0625 J0.0
G1 X12.0259
G1 X11.0625 Y2.0259
G1 Y3.0
G3 X11.0 Y3.0625 I-0.0625 J0.0
G1 X10.0
G3 X9.9922 Y3.062 I0.0 J-0.0625
G0 Z0.125
G0 X11.4376 Y3.0026
G0 Z0.0625
G1 F10.0 Z-0.14
G3 F30.0 X11.4375 Y3.0 I0.0624 J-0.0026
G1 Y2.0
G3 X11.5 Y1.9375 I0.0625 J0.0
G1 X12.4741
G1 X13.4375 Y0.9741
G1 Y0.0
G3 X13.5 Y-0.0625 I0.0625 J0.0
G1 X14.5
G3 X14.5625 Y0.0 I0.0 J0.0625
G1 Y3.0
G3 X14.5 Y3.0625 I-0.0625 J0.0
G1 X11.5
G3 X11.4376 Y3.0026 I0.0 J-0.0625
G1 F10.0 Z-0.27
G3 F30.0 X11.4375 Y3.0 I0.0624 J-0.0026
G1 Y2.0
G3 X11.5 Y1.9375 I0.0625 J0.0
G1 X12.4741
G1 X13.4375 Y0.9741
G1 Y0.0
G3 X13.5 Y-0.0625 I0.0625 J0.0
G1 X14.5
G3 X14.5625 Y0.0 I0.0 J0.0625
G1 Y3.0
G3 X14.5 Y3.0625 I-0.0625 J0.0
G1 X11.5
G3 X11.4376 Y3.0026 I0.0 J-0.0625
G0 Z0.125
G0 X13.4392 Y3.4853
G0 Z0.0625
G1 F10.0 Z-0.14
G3 F30.0 X13.5 Y3.4375 I0.0608 J0.0147
G1 X14.5
G3 X14.5625 Y3.5 I0.0 J0.0625
G1 Y6.5
G3 X14.5 Y6.5625 I-0.0625 J0.0
G1 X11.5
G3 X11.4375 Y6.5 I0.0 J-0.0625
G1 Y5.5
G3 X11.5 Y5.4375 I0.0625 J0.0
G1 X12.4741
G1 X13.4375 Y4.4741
G1 Y3.5
G3 X13.4392 Y3.4853 I0.0625 J0.0
G1 F10.0 Z-0.27
G3 F30.0 X13.5 Y3.4375 I0.0608 J0.0147
G1 X14.5
G3 X14.5625 Y3.5 I0.0 J0.0625
G1 Y6.5
G3 X14.5 Y6.5625 I-0.0625 J0.0
G1 X11.5
G3 X11.4375 Y6.5 I0.0 J-0.0625
G1 Y5.5
G3 X11.5 Y5.4375 I0.0625 J0.0
G1 X12.4741
G1 X13.4375 Y4.4741
G1 Y3.5
G3 X13.4392 Y3.4853 I0.0625 J0.0
G0 Z0.125
G0 X3.0608 Y1.0145
G0 Z0.0625
G1 F10.0 Z-0.14
G3 F30.0 X3.0 Y1.0625 I-0.0608 J-0.0145
G1 X2.0259
G1 X1.0625 Y2.0259
G1 Y3.0
G3 X1.0 Y3.0625 I-0.0625 J0.0
G1 X0.0
G3 X-0.0625 Y3.0 I0.0 J-0.0625
G1 Y0.0
G3 X0.0 Y-0.0625 I0.0625 J0.0
G1 X3.0
G3 X3.0625 Y0.0 I0.0 J0.0625
G1 Y1.0
G3 X3.0608 Y1.0145 I-0.0625 J0.0
G1 F10.0 Z-0.27
G3 F30.0 X3.0 Y1.0625 I-0.0608 J-0.0145
G1 X2.0259
G1 X1.0625 Y2.0259
G1 Y3.0
G3 X1.0 Y3.0625 I-0.0625 J0.0
G1 X0.0
G3 X-0.0625 Y3.0 I0.0 J-0.0625
G1 Y0.0
G3 X0.0 Y-0.0625 I0.0625 J0.0
G1 X3.0
G3 X3.0625 Y0.0 I0.0 J0.0625
G1 Y1.0
G3 X3.0608 Y1.0145 I-0.0625 J0.0
G0 Z0.125
M5
M30
